;FLAVOR:Marlin
;TIME:6800
;Filament used: 6.22044m
;Layer height: 0.2
;MINX:147.609
;MINY:47.971
;MINZ:0.2
;MAXX:172.643
;MAXY:152.982
;MAXZ:50
;Generated with Cura_SteamEngine 4.6.1
M140 S65
M105
M190 S65
M104 S200
M105
M109 S200
M82 ;absolute extrusion mode
M201 X500.00 Y500.00 Z100.00 E5000.00 ;Setup machine max acceleration
M203 X500.00 Y500.00 Z10.00 E50.00 ;Setup machine max feedrate
M204 P500.00 R1000.00 T500.00 ;Setup Print/Retract/Travel acceleration
M205 X8.00 Y8.00 Z0.40 E5.00 ;Setup Jerk
M220 S100 ;Reset Feedrate
M221 S100 ;Reset Flowrate

G28 ;Home

G92 E0 ;Reset Extruder
G1 Z2.0 F3000 ;Move Z Axis up
G1 X10.1 Y20 Z0.28 F5000.0 ;Move to start position
G1 X10.1 Y200.0 Z0.28 F1500.0 E15 ;Draw the first line
G1 X10.4 Y200.0 Z0.28 F5000.0 ;Move to side a little
G1 X10.4 Y20 Z0.28 F1500.0 E30 ;Draw the second line
G92 E0 ;Reset Extruder
G1 Z2.0 F3000 ;Move Z Axis up

G92 E0
G92 E0
G1 F2700 E-5
;LAYER_COUNT:250
;LAYER:0
M107
G0 F6000 X147.974 Y49.416 Z0.2
;TYPE:SKIRT
G1 F2700 E0
G1 F1200 X148.049 Y49.203 E0.00751
G1 X148.146 Y49.002 E0.01493
G1 X148.267 Y48.81 E0.02248
G1 X148.413 Y48.629 E0.03022
G1 X148.57 Y48.475 E0.03753
G1 X148.738 Y48.342 E0.04466
G1 X148.929 Y48.222 E0.05216
G1 X149.135 Y48.123 E0.05976
G1 X149.347 Y48.05 E0.06722
G1 X149.562 Y48.002 E0.07455
G1 X149.785 Y47.977 E0.08201
G1 X149.899 Y47.971 E0.08581
G1 X150.897 Y47.974 E0.119
G1 X151.228 Y48.005 E0.13006
G1 X151.45 Y48.056 E0.13763
G1 X151.662 Y48.131 E0.14511
G1 X151.861 Y48.228 E0.15248
G1 X152.053 Y48.349 E0.16002
G1 X152.229 Y48.49 E0.16753
G1 X152.384 Y48.646 E0.17484
G1 X152.523 Y48.821 E0.18227
G1 X152.641 Y49.01 E0.18968
G1 X152.738 Y49.213 E0.19717
G1 X152.813 Y49.43 E0.2048
G1 X152.862 Y49.648 E0.21223
G1 X152.886 Y49.867 E0.21956
G1 X152.892 Y49.979 E0.22329
G1 X152.644 Y139.798 E3.2107
G1 X152.622 Y147.963 E3.48227
G1 X156.821 Y147.987 E3.62193
G1 X156.843 Y139.99 E3.88791
G1 X156.884 Y139.711 E3.89729
G1 X157.001 Y139.454 E3.90668
G1 X157.185 Y139.24 E3.91607
G1 X157.421 Y139.086 E3.92544
G1 X157.691 Y139.005 E3.93482
G1 X157.846 Y138.993 E3.93999
G1 X171.677 Y139.033 E4.40001
G1 X171.955 Y139.082 E4.4094
G1 X172.208 Y139.207 E4.41878
G1 X172.416 Y139.398 E4.42818
G1 X172.562 Y139.639 E4.43755
G1 X172.643 Y140.035 E4.45099
G1 X172.635 Y143.028 E4.55054
G1 X172.594 Y143.307 E4.55992
G1 X172.478 Y143.564 E4.5693
G1 X172.294 Y143.778 E4.57869
G1 X172.057 Y143.932 E4.58809
G1 X171.787 Y144.013 E4.59746
G1 X171.633 Y144.025 E4.6026
G1 X161.631 Y144.003 E4.93527
G1 X161.61 Y151.985 E5.20075
G1 X161.569 Y152.264 E5.21013
G1 X161.453 Y152.521 E5.21951
G1 X161.269 Y152.735 E5.2289
G1 X161.032 Y152.889 E5.2383
G1 X160.762 Y152.97 E5.24767
G1 X160.609 Y152.982 E5.25278
G1 X148.608 Y152.968 E5.65193
G1 X148.329 Y152.928 E5.66131
G1 X148.072 Y152.811 E5.6707
G1 X147.857 Y152.628 E5.68009
G1 X147.703 Y152.392 E5.68946
G1 X147.621 Y152.122 E5.69885
G1 X147.609 Y151.963 E5.70415
G1 X147.61 Y151.759 E5.71093
G1 X147.892 Y49.966 E9.0966
G1 X147.898 Y49.857 E9.10023
G1 X147.923 Y49.636 E9.10762
G1 X147.974 Y49.416 E9.11514
G0 F6000 X148.351 Y49.549
G1 F1200 X148.426 Y49.336 E9.12265
G1 X148.484 Y49.215 E9.12711
G1 X148.605 Y49.023 E9.13466
G1 X148.693 Y48.915 E9.13929
G1 X148.85 Y48.761 E9.14661
G1 X148.951 Y48.681 E9.15089
G1 X149.142 Y48.561 E9.15839
G1 X149.266 Y48.502 E9.16296
G1 X149.478 Y48.429 E9.17042
G1 X149.606 Y48.4 E9.17478
G1 X149.898 Y48.371 E9.18454
G1 X150.896 Y48.374 E9.21774
G1 X151.183 Y48.403 E9.22733
G1 X151.316 Y48.433 E9.23187
G1 X151.528 Y48.508 E9.23935
G1 X151.648 Y48.566 E9.24378
G1 X151.84 Y48.687 E9.25133
G1 X151.946 Y48.772 E9.25585
G1 X152.101 Y48.928 E9.26316
G1 X152.184 Y49.033 E9.26761
G1 X152.302 Y49.222 E9.27502
G1 X152.36 Y49.344 E9.27952
G1 X152.435 Y49.561 E9.28715
G1 X152.464 Y49.692 E9.29161
G1 X152.492 Y49.978 E9.30117
G1 X152.244 Y139.797 E12.28858
G1 X152.221 Y148.36 E12.57338
G1 X157.22 Y148.39 E12.73965
G1 X157.243 Y139.991 E13.01901
G1 X157.283 Y139.777 E13.02625
G1 X157.398 Y139.591 E13.03352
G1 X157.571 Y139.458 E13.04078
G1 X157.845 Y139.393 E13.05015
G1 X171.616 Y139.431 E13.50817
G1 X171.877 Y139.479 E13.517
G1 X172.059 Y139.599 E13.52425
G1 X172.186 Y139.777 E13.53152
G1 X172.243 Y140.034 E13.54028
G1 X172.235 Y143.027 E13.63983
G1 X172.195 Y143.241 E13.64707
G1 X172.081 Y143.427 E13.65432
G1 X171.907 Y143.56 E13.66161
G1 X171.634 Y143.625 E13.67094
G1 X161.232 Y143.602 E14.01691
G1 X161.21 Y151.984 E14.2957
G1 X161.17 Y152.198 E14.30294
G1 X161.056 Y152.384 E14.3102
G1 X160.882 Y152.517 E14.31748
G1 X160.609 Y152.582 E14.32682
G1 X148.608 Y152.568 E14.72597
G1 X148.394 Y152.528 E14.73321
G1 X148.208 Y152.414 E14.74047
G1 X148.075 Y152.241 E14.74773
G1 X148.009 Y151.965 E14.75716
G1 X148.01 Y151.761 E14.76395
G1 X148.292 Y49.967 E18.14964
G1 X148.296 Y49.902 E18.15181
G1 X148.321 Y49.681 E18.15921
G1 X148.351 Y49.549 E18.16371
G0 F6000 X148.718 Y49.726
G1 F1200 X148.803 Y49.469 E18.17271
G1 X148.944 Y49.236 E18.18177
G1 X149.13 Y49.046 E18.19062
G1 X149.355 Y48.9 E18.19954
G1 X149.608 Y48.807 E18.2085
G1 X149.874 Y48.772 E18.21743
G1 X150.895 Y48.774 E18.25138
G1 X151.138 Y48.8 E18.25951
G1 X151.395 Y48.885 E18.26852
G1 X151.627 Y49.026 E18.27755
G1 X151.817 Y49.21 E18.28634
G1 X151.963 Y49.434 E18.29524
G1 X152.057 Y49.692 E18.30437
G1 X152.091 Y49.954 E18.31316
G1 X151.844 Y139.796 E21.30132
G1 X151.82 Y148.758 E21.5994
G1 X157.619 Y148.792 E21.79228
G1 X157.643 Y139.992 E22.08497
G1 X157.682 Y139.874 E22.0891
G1 X157.844 Y139.793 E22.09513
G1 X171.615 Y139.831 E22.55316
G1 X171.767 Y139.875 E22.55842
G1 X171.843 Y140.033 E22.56425
G1 X171.835 Y143.026 E22.6638
G1 X171.796 Y143.144 E22.66793
G1 X171.635 Y143.225 E22.67393
G1 X160.833 Y143.201 E23.0332
G1 X160.81 Y151.983 E23.32529
G1 X160.771 Y152.101 E23.32943
G1 X160.61 Y152.182 E23.33542
G1 X148.609 Y152.168 E23.73458
G1 X148.49 Y152.129 E23.73874
G1 X148.409 Y151.967 E23.74477
G1 X148.41 Y151.763 E23.75155
G1 X148.692 Y49.968 E27.13728
G1 X148.718 Y49.726 E27.14538
G1 F2700 E22.14538
;MESH:Clip.stl
G0 F6000 X149.311 Y49.999
G0 X149.111 Y151.5
G0 X148.81 Y151.769
;TYPE:WALL-OUTER
G1 F2700 E27.14538
G1 F1200 X149.092 Y49.983 E30.5308
G1 X149.114 Y49.791 E30.53723
G1 X149.174 Y49.622 E30.5432
G1 X149.269 Y49.472 E30.5491
G1 X149.398 Y49.344 E30.55515
G1 X149.546 Y49.251 E30.56096
G1 X149.715 Y49.193 E30.5669
G1 X149.908 Y49.171 E30.57336
G1 X150.882 Y49.174 E30.60576
G1 X151.069 Y49.195 E30.61202
G1 X151.242 Y49.256 E30.61812
G1 X151.392 Y49.351 E30.62403
G1 X151.517 Y49.477 E30.62993
G1 X151.613 Y49.631 E30.63596
G1 X151.67 Y49.797 E30.6418
G1 X151.692 Y49.99 E30.64826
G1 X151.444 Y139.794 E33.63517
G1 X151.443 Y139.975 E33.64119
G1 X151.419 Y149.01 E33.94169
G1 X151.515 Y149.176 E33.94807
G1 X158.017 Y149.194 E34.16433
G1 X158.042 Y140.194 E34.46367
G1 X171.442 Y140.231 E34.90936
G1 X171.436 Y142.825 E34.99564
G1 X160.435 Y142.801 E35.36153
G1 X160.41 Y151.8 E35.66084
G1 X148.81 Y151.769 E36.04666
G0 F6000 X149.211 Y151.37
;TYPE:WALL-INNER
G1 F1200 X149.211 Y151.171 E36.05328
G1 X149.492 Y50.003 E39.41815
G1 X149.506 Y49.884 E39.42214
G1 X149.536 Y49.798 E39.42517
G1 X149.582 Y49.725 E39.42804
G1 X149.648 Y49.66 E39.43112
G1 X149.722 Y49.613 E39.43403
G1 X149.804 Y49.585 E39.43692
G1 X149.926 Y49.571 E39.441
G1 X150.854 Y49.574 E39.47187
G1 X150.982 Y49.588 E39.47615
G1 X151.065 Y49.618 E39.47908
G1 X151.139 Y49.664 E39.48198
G1 X151.202 Y49.728 E39.48497
G1 X151.25 Y49.804 E39.48796
G1 X151.278 Y49.886 E39.49084
G1 X151.292 Y50.008 E39.49493
G1 X151.044 Y139.792 E42.48116
G1 X151.043 Y139.973 E42.48719
G1 X151.019 Y149.117 E42.79132
G1 X151.284 Y149.575 E42.80892
G1 X158.217 Y149.595 E43.03951
G1 X158.416 Y149.595 E43.04613
G1 X158.416 Y149.396 E43.05041
G1 X158.441 Y140.595 E43.34313
G1 X171.041 Y140.63 E43.76221
G1 X171.037 Y142.424 E43.82188
G1 X160.036 Y142.4 E44.18778
G1 X160.011 Y151.399 E44.48709
G1 X149.41 Y151.37 E44.83968
G1 X149.211 Y151.37 E44.84396
G0 F6000 X149.603 Y150.981
;TYPE:SKIN
G1 F1200 X149.882 Y50.03 E48.20162
G1 X149.889 Y49.971 E48.20359
G1 X149.891 Y49.968 E48.20371
G1 X149.953 Y49.961 E48.20579
G1 X150.828 Y49.964 E48.23489
G1 X150.893 Y49.971 E48.23707
G1 X150.902 Y50.035 E48.23922
G1 X150.654 Y139.79 E51.22449
G1 X150.653 Y139.971 E51.23051
G1 X150.629 Y149.221 E51.53817
G1 X151.058 Y149.965 E51.56673
G1 X158.804 Y149.987 E51.82437
G1 X158.829 Y140.987 E52.12371
G1 X170.65 Y141.018 E52.51688
G1 X170.648 Y142.034 E52.55067
G1 X159.648 Y142.01 E52.91653
G1 X159.623 Y151.008 E53.21581
G1 X149.603 Y150.981 E53.54908
G0 F6000 X149.764 Y150.33
G1 F1200 X150.256 Y150.822 E53.57222
G0 F6000 X150.823 Y150.823
G1 F1200 X149.766 Y149.766 E53.62194
G0 F6000 X149.768 Y149.202
G1 F1200 X151.391 Y150.825 E53.69828
G0 F6000 X151.958 Y150.827
G1 F1200 X151.257 Y150.126 E53.73125
G0 F6000 X151.825 Y150.127
G1 F1200 X152.525 Y150.828 E53.7642
G0 F6000 X153.092 Y150.83
G1 F1200 X152.392 Y150.129 E53.79715
G0 F6000 X152.959 Y150.13
G1 F1200 X153.659 Y150.831 E53.8301
G0 F6000 X154.227 Y150.832
G1 F1200 X153.527 Y150.132 E53.86303
G0 F6000 X154.094 Y150.134
G1 F1200 X154.794 Y150.834 E53.89595
G0 F6000 X155.361 Y150.835
G1 F1200 X154.661 Y150.135 E53.92888
G0 F6000 X155.229 Y150.137
G1 F1200 X155.928 Y150.837 E53.96178
G0 F6000 X156.495 Y150.838
G1 F1200 X155.796 Y150.139 E53.99466
G0 F6000 X156.363 Y150.14
G1 F1200 X157.063 Y150.84 E54.02758
G0 F6000 X157.63 Y150.842
G1 F1200 X156.93 Y150.142 E54.06051
G0 F6000 X157.498 Y150.144
G1 F1200 X158.197 Y150.843 E54.09339
G0 F6000 X158.764 Y150.844
G1 F1200 X158.065 Y150.145 E54.12627
G0 F6000 X158.632 Y150.147
G1 F1200 X159.331 Y150.846 E54.15915
G0 F6000 X159.465 Y150.414
G1 F1200 X158.962 Y149.911 E54.18281
G0 F6000 X159.466 Y149.85
G1 F1200 X158.964 Y149.348 E54.20642
G0 F6000 X159.468 Y149.285
G1 F1200 X158.966 Y148.783 E54.23003
G0 F6000 X159.47 Y148.722
G1 F1200 X158.967 Y148.219 E54.25369
G0 F6000 X159.471 Y148.157
G1 F1200 X158.968 Y147.655 E54.27733
G0 F6000 X159.473 Y147.593
G1 F1200 X158.97 Y147.09 E54.30099
G0 F6000 X159.474 Y147.029
G1 F1200 X158.972 Y146.527 E54.3246
G0 F6000 X159.475 Y146.465
G1 F1200 X158.973 Y145.963 E54.34821
G0 F6000 X159.477 Y145.9
G1 F1200 X158.975 Y145.398 E54.37182
G0 F6000 X159.478 Y145.336
G1 F1200 X158.976 Y144.834 E54.39544
G0 F6000 X159.48 Y144.772
G1 F1200 X158.978 Y144.27 E54.41905
G0 F6000 X159.482 Y144.208
G1 F1200 X158.98 Y143.706 E54.44266
G0 F6000 X159.483 Y143.644
G1 F1200 X158.981 Y143.142 E54.46627
G0 F6000 X159.485 Y143.08
G1 F1200 X158.983 Y142.578 E54.48989
G0 F6000 X159.486 Y142.515
G1 F1200 X158.984 Y142.013 E54.5135
G0 F6000 X159.487 Y141.951
G1 F1200 X158.985 Y141.449 E54.53711
G0 F6000 X159.251 Y141.149
G1 F1200 X159.952 Y141.85 E54.57008
G0 F6000 X160.519 Y141.851
G1 F1200 X159.818 Y141.15 E54.60306
G0 F6000 X160.385 Y141.151
G1 F1200 X161.085 Y141.852 E54.63601
G0 F6000 X161.653 Y141.854
G1 F1200 X160.952 Y141.153 E54.66898
G0 F6000 X161.519 Y141.154
G1 F1200 X162.22 Y141.855 E54.70195
G0 F6000 X162.787 Y141.856
G1 F1200 X162.086 Y141.156 E54.7349
G0 F6000 X162.653 Y141.157
G1 F1200 X163.353 Y141.857 E54.76783
G0 F6000 X163.92 Y141.859
G1 F1200 X163.22 Y141.159 E54.80075
G0 F6000 X163.787 Y141.16
G1 F1200 X164.487 Y141.86 E54.83368
G0 F6000 X165.054 Y141.861
G1 F1200 X164.354 Y141.161 E54.86661
G0 F6000 X164.922 Y141.163
G1 F1200 X165.621 Y141.862 E54.89948
G0 F6000 X166.188 Y141.864
G1 F1200 X165.489 Y141.164 E54.93239
G0 F6000 X166.056 Y141.166
G1 F1200 X166.755 Y141.865 E54.96527
G0 F6000 X167.322 Y141.866
G1 F1200 X166.623 Y141.167 E54.99814
G0 F6000 X167.19 Y141.168
G1 F1200 X167.889 Y141.867 E55.03102
G0 F6000 X168.456 Y141.868
G1 F1200 X167.757 Y141.17 E55.06388
G0 F6000 X168.324 Y141.171
G1 F1200 X169.023 Y141.87 E55.09676
G0 F6000 X169.59 Y141.871
G1 F1200 X168.891 Y141.173 E55.12961
G0 F6000 X169.458 Y141.174
G1 F1200 X170.156 Y141.872 E55.16244
G0 F6000 X170.488 Y141.638
G1 F1200 X170.025 Y141.175 E55.18422
G1 F2700 E50.18422
G0 F6000 X170.026 Y140.737
G0 X158.622 Y140.778
G0 X158.244 Y149.423
G0 X151.379 Y149.41
G0 X151.219 Y149.138
G0 X150.93 Y140.874
G0 X150.49 Y140.873
G1 F2700 E55.18422
G1 F1200 X149.792 Y140.176 E55.21703
G0 F6000 X149.791 Y140.74
G1 F1200 X150.488 Y141.437 E55.24982
G0 F6000 X150.487 Y142.001
G1 F1200 X149.789 Y141.304 E55.28262
G0 F6000 X149.787 Y141.868
G1 F1200 X150.485 Y142.566 E55.31546
G0 F6000 X150.484 Y143.13
G1 F1200 X149.786 Y142.432 E55.34829
G0 F6000 X149.785 Y142.996
G1 F1200 X150.482 Y143.694 E55.3811
G0 F6000 X150.481 Y144.258
G1 F1200 X149.783 Y143.561 E55.4139
G0 F6000 X149.782 Y144.125
G1 F1200 X150.48 Y144.823 E55.44674
G0 F6000 X150.478 Y145.387
G1 F1200 X149.78 Y144.688 E55.47959
G0 F6000 X149.778 Y145.253
G1 F1200 X150.477 Y145.951 E55.51245
G0 F6000 X150.475 Y146.516
G1 F1200 X149.777 Y145.817 E55.5453
G0 F6000 X149.775 Y146.381
G1 F1200 X150.473 Y147.079 E55.57813
G0 F6000 X150.472 Y147.643
G1 F1200 X149.774 Y146.945 E55.61096
G0 F6000 X149.772 Y147.509
G1 F1200 X150.47 Y148.208 E55.64382
G0 F6000 X150.469 Y148.772
G1 F1200 X149.77 Y148.073 E55.6767
G0 F6000 X149.769 Y148.638
G1 F1200 X150.568 Y149.437 E55.71428
G0 F6000 X150.95 Y149.217
G0 X150.932 Y140.31
G0 X150.491 Y140.309
G1 F1200 X149.794 Y139.611 E55.74709
G0 F6000 X149.795 Y139.047
G1 F1200 X150.494 Y139.746 E55.77997
G0 F6000 X150.495 Y139.181
G1 F1200 X149.797 Y138.484 E55.81278
G0 F6000 X149.799 Y137.919
G1 F1200 X150.497 Y138.617 E55.84561
G0 F6000 X150.498 Y138.053
G1 F1200 X149.8 Y137.355 E55.87844
G0 F6000 X149.801 Y136.791
G1 F1200 X150.499 Y137.489 E55.91127
G0 F6000 X150.502 Y136.925
G1 F1200 X149.803 Y136.226 E55.94415
G0 F6000 X149.805 Y135.663
G1 F1200 X150.503 Y136.361 E55.97698
G0 F6000 X150.504 Y135.797
G1 F1200 X149.806 Y135.099 E56.00981
G0 F6000 X149.808 Y134.534
G1 F1200 X150.506 Y135.232 E56.04265
G0 F6000 X150.507 Y134.668
G1 F1200 X149.809 Y133.97 E56.07548
G0 F6000 X149.811 Y133.406
G1 F1200 X150.509 Y134.104 E56.10831
G0 F6000 X150.511 Y133.54
G1 F1200 X149.812 Y132.842 E56.14117
G0 F6000 X149.814 Y132.278
G1 F1200 X150.512 Y132.976 E56.174
G0 F6000 X150.514 Y132.412
G1 F1200 X149.816 Y131.714 E56.20683
G0 F6000 X149.817 Y131.149
G1 F1200 X150.515 Y131.847 E56.23966
G0 F6000 X150.517 Y131.284
G1 F1200 X149.818 Y130.585 E56.27254
G0 F6000 X149.82 Y130.021
G1 F1200 X150.518 Y130.72 E56.30539
G0 F6000 X150.52 Y130.155
G1 F1200 X149.822 Y129.457 E56.33823
G0 F6000 X149.823 Y128.893
G1 F1200 X150.521 Y129.591 E56.37106
G0 F6000 X150.523 Y129.027
G1 F1200 X149.825 Y128.329 E56.40389
G0 F6000 X149.826 Y127.765
G1 F1200 X150.525 Y128.463 E56.43675
G0 F6000 X150.526 Y127.899
G1 F1200 X149.828 Y127.2 E56.4696
G0 F6000 X149.83 Y126.637
G1 F1200 X150.528 Y127.335 E56.50243
G0 F6000 X150.529 Y126.77
G1 F1200 X149.831 Y126.072 E56.53526
G0 F6000 X149.833 Y125.508
G1 F1200 X150.531 Y126.207 E56.56812
G0 F6000 X150.533 Y125.642
G1 F1200 X149.834 Y124.944 E56.60097
G0 F6000 X149.835 Y124.38
G1 F1200 X150.534 Y125.078 E56.63383
G0 F6000 X150.535 Y124.514
G1 F1200 X149.838 Y123.816 E56.66664
G0 F6000 X149.839 Y123.252
G1 F1200 X150.537 Y123.95 E56.69947
G0 F6000 X150.539 Y123.386
G1 F1200 X149.84 Y122.687 E56.73235
G0 F6000 X149.842 Y122.123
G1 F1200 X150.54 Y122.822 E56.7652
G0 F6000 X150.542 Y122.258
G1 F1200 X149.843 Y121.559 E56.79808
G0 F6000 X149.845 Y120.995
G1 F1200 X150.543 Y121.693 E56.83091
G0 F6000 X150.545 Y121.129
G1 F1200 X149.847 Y120.431 E56.86375
G0 F6000 X149.848 Y119.867
G1 F1200 X150.547 Y120.565 E56.8966
G0 F6000 X150.548 Y120.001
G1 F1200 X149.85 Y119.303 E56.92943
G0 F6000 X149.851 Y118.738
G1 F1200 X150.55 Y119.437 E56.96231
