;FLAVOR:Marlin
;TIME:868
;Filament used: 0.818959m
;Layer height: 0.2
;MINX:90.336
;MINY:83.336
;MINZ:0.24
;MAXX:129.665
;MAXY:136.664
;MAXZ:6.09
;Generated with Cura_SteamEngine 4.6.1
M140 S65
M105
M190 S65
M104 S200
M105
M109 S200
M82 ;absolute extrusion mode
M201 X500.00 Y500.00 Z100.00 E5000.00 ;Setup machine max acceleration
M203 X500.00 Y500.00 Z10.00 E50.00 ;Setup machine max feedrate
M204 P500.00 R1000.00 T500.00 ;Setup Print/Retract/Travel acceleration
M205 X8.00 Y8.00 Z0.40 E5.00 ;Setup Jerk
M220 S100 ;Reset Feedrate
M221 S100 ;Reset Flowrate

G28 ;Home

G92 E0 ;Reset Extruder
G1 Z2.0 F3000 ;Move Z Axis up
G1 X10.1 Y20 Z0.28 F5000.0 ;Move to start position
G1 X10.1 Y200.0 Z0.28 F1500.0 E15 ;Draw the first line
G1 X10.4 Y200.0 Z0.28 F5000.0 ;Move to side a little
G1 X10.4 Y20 Z0.28 F1500.0 E30 ;Draw the second line
G92 E0 ;Reset Extruder
G1 Z2.0 F3000 ;Move Z Axis up

G92 E0
G92 E0
G1 F2700 E-5
;LAYER_COUNT:25
;LAYER:-6
M107
G0 F12000 X95.177 Y89.205 Z0.24
;TYPE:SUPPORT-INTERFACE
G1 F2700 E0
G1 F1800 X95.802 Y88.556 E0.07192
G1 X95.927 Y88.436 E0.08575
G1 X96.598 Y87.833 E0.15777
G1 X96.714 Y87.737 E0.16979
G1 X97.426 Y87.187 E0.2416
G1 X97.585 Y87.074 E0.25717
G1 X98.323 Y86.584 E0.32789
G1 X98.449 Y86.508 E0.33963
G1 X99.243 Y86.062 E0.41233
G1 X99.393 Y85.984 E0.42582
G1 X100.208 Y85.601 E0.49771
G1 X100.351 Y85.541 E0.51009
G1 X101.21 Y85.212 E0.58351
G1 X101.36 Y85.16 E0.59618
G1 X102.21 Y84.905 E0.66702
G1 X102.383 Y84.859 E0.68131
G1 X103.278 Y84.658 E0.75453
G1 X103.408 Y84.635 E0.76507
G1 X104.313 Y84.501 E0.8381
G1 X104.482 Y84.483 E0.85167
G1 X105.555 Y84.408 E0.93753
G1 X106.06 Y84.4 E0.97784
G1 X114.003 Y84.401 E1.61189
G1 X115.127 Y84.446 E1.70168
G1 X116.044 Y84.548 E1.77533
G1 X116.219 Y84.573 E1.78945
G1 X117.108 Y84.737 E1.86161
G1 X117.231 Y84.765 E1.87168
G1 X118.125 Y84.999 E1.94544
G1 X118.288 Y85.048 E1.95903
G1 X119.13 Y85.335 E2.03004
G1 X119.296 Y85.398 E2.04421
G1 X120.099 Y85.739 E2.11385
G1 X120.288 Y85.827 E2.13049
G1 X121.199 Y86.301 E2.21247
G1 X121.978 Y86.776 E2.2853
G1 X122.129 Y86.876 E2.29976
G1 X122.843 Y87.387 E2.36984
G1 X122.991 Y87.5 E2.38471
G1 X123.682 Y88.076 E2.45652
G1 X123.795 Y88.177 E2.46861
G1 X124.444 Y88.802 E2.54054
G1 X124.564 Y88.927 E2.55437
G1 X125.167 Y89.598 E2.62638
G1 X125.263 Y89.714 E2.6384
G1 X125.822 Y90.438 E2.71141
G1 X125.916 Y90.569 E2.72429
G1 X126.416 Y91.323 E2.7965
G1 X126.492 Y91.449 E2.80825
G1 X126.938 Y92.243 E2.88094
G1 X127.016 Y92.393 E2.89444
G1 X127.399 Y93.208 E2.96632
G1 X127.459 Y93.351 E2.9787
G1 X127.788 Y94.21 E3.05213
G1 X127.84 Y94.36 E3.0648
G1 X128.095 Y95.21 E3.13564
G1 X128.141 Y95.383 E3.14993
G1 X128.34 Y96.269 E3.22241
G1 X128.365 Y96.408 E3.23369
G1 X128.498 Y97.307 E3.30623
G1 X128.516 Y97.469 E3.31924
G1 X128.592 Y98.555 E3.40614
G1 X128.6 Y99.056 E3.44614
G1 X128.6 Y120.986 E5.19669
G1 X128.564 Y121.992 E5.27704
G1 X128.554 Y122.127 E5.28785
G1 X128.452 Y123.044 E5.3615
G1 X128.427 Y123.219 E5.37561
G1 X128.265 Y124.097 E5.44688
G1 X128.235 Y124.231 E5.45784
G1 X128.004 Y125.116 E5.53085
G1 X127.952 Y125.288 E5.5452
G1 X127.676 Y126.1 E5.61365
G1 X127.596 Y126.309 E5.63152
G1 X127.261 Y127.099 E5.70001
G1 X127.18 Y127.274 E5.71541
G1 X126.764 Y128.082 E5.78795
G1 X126.224 Y128.978 E5.87146
G1 X126.124 Y129.129 E5.88592
G1 X125.613 Y129.843 E5.956
G1 X125.5 Y129.991 E5.97087
G1 X124.924 Y130.682 E6.04268
G1 X124.823 Y130.795 E6.05478
G1 X124.198 Y131.444 E6.1267
G1 X124.073 Y131.564 E6.14053
G1 X123.403 Y132.166 E6.21243
G1 X123.286 Y132.263 E6.22456
G1 X122.574 Y132.813 E6.29638
G1 X122.415 Y132.926 E6.31195
G1 X121.677 Y133.416 E6.38266
G1 X121.551 Y133.492 E6.39441
G1 X120.757 Y133.938 E6.4671
G1 X120.606 Y134.016 E6.48067
G1 X119.792 Y134.399 E6.55248
G1 X119.649 Y134.459 E6.56486
G1 X118.79 Y134.788 E6.63829
G1 X118.64 Y134.84 E6.65096
G1 X117.79 Y135.095 E6.7218
G1 X117.617 Y135.141 E6.73609
G1 X116.722 Y135.342 E6.80931
G1 X116.592 Y135.365 E6.81985
G1 X115.687 Y135.499 E6.89287
G1 X115.519 Y135.517 E6.90636
G1 X114.445 Y135.592 E6.9923
G1 X113.94 Y135.6 E7.03262
G1 X105.997 Y135.599 E7.66666
G1 X104.873 Y135.554 E7.75646
G1 X103.956 Y135.452 E7.83011
G1 X103.781 Y135.427 E7.84422
G1 X102.892 Y135.263 E7.91638
G1 X102.769 Y135.235 E7.92645
G1 X101.875 Y135.001 E8.00022
G1 X101.712 Y134.952 E8.0138
G1 X100.87 Y134.665 E8.08481
G1 X100.704 Y134.602 E8.09899
G1 X99.901 Y134.261 E8.16862
G1 X99.712 Y134.173 E8.18527
G1 X98.801 Y133.699 E8.26724
G1 X98.022 Y133.224 E8.34007
G1 X97.871 Y133.124 E8.35453
G1 X97.157 Y132.613 E8.42462
G1 X97.009 Y132.5 E8.43948
G1 X96.318 Y131.924 E8.51129
G1 X96.205 Y131.823 E8.52339
G1 X95.556 Y131.198 E8.59531
G1 X95.436 Y131.073 E8.60914
G1 X94.833 Y130.402 E8.68115
G1 X94.736 Y130.284 E8.69335
G1 X94.178 Y129.562 E8.76619
G1 X94.074 Y129.415 E8.78056
G1 X93.581 Y128.672 E8.85174
G1 X93.508 Y128.551 E8.86302
G1 X93.056 Y127.746 E8.93671
G1 X92.984 Y127.607 E8.94921
G1 X92.587 Y126.761 E9.02381
G1 X92.541 Y126.649 E9.03347
G1 X92.212 Y125.79 E9.1069
G1 X92.155 Y125.625 E9.12083
G1 X91.905 Y124.79 E9.19041
G1 X91.859 Y124.617 E9.2047
G1 X91.657 Y123.716 E9.27841
G1 X91.635 Y123.592 E9.28846
G1 X91.5 Y122.678 E9.36221
G1 X91.483 Y122.518 E9.37505
G1 X91.408 Y121.445 E9.46092
G1 X91.4 Y120.944 E9.50091
G1 X91.4 Y99.014 E11.25146
G1 X91.436 Y98.008 E11.33181
G1 X91.446 Y97.873 E11.34262
G1 X91.548 Y96.956 E11.41627
G1 X91.573 Y96.781 E11.43038
G1 X91.735 Y95.903 E11.50165
G1 X91.765 Y95.769 E11.51261
G1 X91.996 Y94.884 E11.58562
G1 X92.048 Y94.712 E11.59997
G1 X92.335 Y93.87 E11.67098
G1 X92.398 Y93.704 E11.68515
G1 X92.739 Y92.901 E11.75479
G1 X92.82 Y92.726 E11.77018
G1 X93.301 Y91.801 E11.8534
G1 X93.776 Y91.022 E11.92624
G1 X93.876 Y90.871 E11.94069
G1 X94.387 Y90.157 E12.01078
G1 X94.5 Y90.009 E12.02564
G1 X95.076 Y89.318 E12.09745
G1 X95.177 Y89.205 E12.10955
G0 F12000 X96 Y88.37
G1 F1800 X96 Y131.625 E15.56235
G0 F12000 X97.6 Y132.93
G1 F1800 X97.6 Y87.064 E19.22357
G0 F12000 X99.2 Y86.086
G1 F1800 X99.2 Y133.906 E23.04077
G0 F12000 X100.8 Y134.638
G1 F1800 X100.8 Y85.369 E26.97364
G0 F12000 X102.4 Y84.855
G1 F1800 X102.4 Y135.138 E30.98744
G0 F12000 X104 Y135.456
G1 F1800 X104 Y84.547 E35.05122
G0 F12000 X105.6 Y84.407
G1 F1800 X105.6 Y135.583 E39.13631
G0 F12000 X107.2 Y135.599
G1 F1800 X107.2 Y84.401 E43.22316
G0 F12000 X108.8 Y84.401
G1 F1800 X108.8 Y135.599 E47.31
G0 F12000 X110.4 Y135.599
G1 F1800 X110.4 Y84.401 E51.39685
G0 F12000 X112 Y84.401
G1 F1800 X112 Y135.599 E55.48369
G0 F12000 X113.6 Y135.599
G1 F1800 X113.6 Y84.401 E59.57054
G0 F12000 X115.2 Y84.455
G1 F1800 X115.2 Y135.54 E63.64837
G0 F12000 X116.8 Y135.325
G1 F1800 X116.8 Y84.681 E67.69099
G0 F12000 X118.4 Y85.087
G1 F1800 X118.4 Y134.912 E71.66824
G0 F12000 X120 Y134.302
G1 F1800 X120 Y85.697 E75.5481
G0 F12000 X121.6 Y86.546
G1 F1800 X121.6 Y133.463 E79.29321
G0 F12000 X123.2 Y132.33
G1 F1800 X123.2 Y87.675 E82.85777
G0 F12000 X124.8 Y89.19
G1 F1800 X124.8 Y130.819 E86.18078
G0 F12000 X126.4 Y128.686
G1 F1800 X126.4 Y91.299 E89.16517
G0 F12000 X128 Y94.894
G1 F1800 X128 Y125.13 E91.57874
G1 F2700 E86.57874
G0 F12000 X128.964 Y125.62
G0 X128.231 Y127.538
G0 X127.613 Y128.743
G0 X126.466 Y130.481
G0 X125.608 Y131.514
G0 X124.103 Y132.968
G0 X123.023 Y133.799
G0 X121.257 Y134.878
G0 X120.039 Y135.45
G0 X118.073 Y136.121
G0 X116.758 Y136.417
G0 X114.69 Y136.646
G0 X104.943 Y136.626
G0 X103.617 Y136.479
G0 X101.59 Y136.027
G0 X100.3 Y135.587
G0 X98.42 Y134.705
G0 X97.261 Y133.996
G0 X95.617 Y132.725
G0 X94.843 Y131.978
G0 X93.558 Y130.5
G0 X94.4 Y129.849
G1 F2700 E91.57874
G1 F1800 X94.4 Y90.139 E94.74856
G0 F12000 X92.8 Y92.769
G1 F1800 X92.8 Y127.214 E97.49811
G0 F300 X92.8 Y127.214 Z0.54
G0 F12000 X94.11 Y129.466
;TIME_ELAPSED:49.672231
;LAYER:-5
M140 S65
;TYPE:SUPPORT
G1 F1800 X97.508 Y132.863 E97.97753
G1 X97.156 Y132.612 E98.02067
G1 X97.009 Y132.499 E98.03917
G1 X96.317 Y131.923 E98.12901
G1 X96.205 Y131.822 E98.14406
G1 X95.556 Y131.197 E98.23396
G1 X95.436 Y131.072 E98.25125
G1 X94.832 Y130.401 E98.34133
G1 X94.736 Y130.283 E98.35651
G1 X94.178 Y129.561 E98.44756
G1 F2700 E93.44756
G0 F12000 X93.336 Y130.212
G0 X94.66 Y131.802
G0 X95.201 Y132.324
G0 X96.519 Y133.466
G0 X97.508 Y132.863
G1 F2700 E98.44756
G1 F1800 X97.871 Y133.123 E98.49211
G1 X98.021 Y133.223 E98.5101
G1 X98.801 Y133.698 E98.60123
G1 X99.711 Y134.172 E98.70361
G1 X99.9 Y134.26 E98.72441
G1 X100.627 Y134.568 E98.80319
G1 X92.437 Y126.379 E99.95882
G1 X92.211 Y125.789 E100.02186
G1 X92.155 Y125.623 E100.03934
G1 X91.904 Y124.789 E100.12624
G1 X91.858 Y124.616 E100.1441
G1 X91.791 Y124.318 E100.17458
G1 X102.684 Y135.211 E101.7117
G1 X102.769 Y135.234 E101.72049
G1 X102.892 Y135.262 E101.73308
G1 X103.78 Y135.426 E101.82318
G1 X103.956 Y135.451 E101.84092
G1 X104.386 Y135.499 E101.88409
G1 X91.491 Y122.604 E103.70371
G1 X91.482 Y122.517 E103.71244
G1 X91.407 Y121.444 E103.81976
G1 X91.402 Y121.1 E103.85409
G1 X105.895 Y135.594 E105.89928
G1 X105.997 Y135.598 E105.90947
G1 X107.314 Y135.598 E106.04088
G1 X91.399 Y119.684 E108.28659
G1 X91.399 Y118.269 E108.42778
G1 X108.728 Y135.598 E110.87308
G1 X110.142 Y135.598 E111.01417
G1 X91.399 Y116.855 E113.65901
G1 X91.399 Y115.441 E113.8001
G1 X111.556 Y135.598 E116.64447
G1 X112.97 Y135.598 E116.78556
G1 X91.399 Y114.027 E119.82946
G1 X91.399 Y112.613 E119.97055
G1 X114.378 Y135.591 E123.21307
G1 X114.444 Y135.591 E123.21965
G1 X115.519 Y135.516 E123.32718
G1 X115.686 Y135.498 E123.34394
G1 X115.697 Y135.496 E123.34505
G1 X91.399 Y111.198 E126.77376
G1 X91.399 Y109.784 E126.91485
G1 X116.913 Y135.297 E130.51508
G1 X117.616 Y135.14 E130.58696
G1 X117.789 Y135.094 E130.60482
G1 X118.046 Y135.017 E130.63159
G1 X91.399 Y108.37 E134.39177
G1 X91.399 Y106.956 E134.53286
G1 X119.108 Y134.664 E138.44283
G1 X119.648 Y134.458 E138.5005
G1 X119.792 Y134.398 E138.51606
G1 X120.107 Y134.249 E138.55083
G1 X91.399 Y105.542 E142.60177
G1 X91.399 Y104.127 E142.74296
G1 X121.046 Y133.773 E146.9264
G1 X121.55 Y133.491 E146.98403
G1 X121.676 Y133.414 E146.99876
G1 X121.931 Y133.245 E147.02929
G1 X91.399 Y102.713 E151.33768
G1 X91.399 Y101.299 E151.47877
G1 X122.764 Y132.663 E155.90464
G1 X123.286 Y132.262 E155.97032
G1 X123.402 Y132.165 E155.98541
G1 X123.548 Y132.033 E156.00505
G1 X91.399 Y99.885 E160.54155
G1 X91.4 Y99.013 E160.62856
G1 X91.419 Y98.49 E160.68078
G1 X124.283 Y131.354 E165.31824
G1 X124.823 Y130.794 E165.39586
G1 X124.923 Y130.681 E165.41092
G1 X124.969 Y130.626 E165.41808
G1 X91.522 Y97.179 E170.13781
G1 X91.547 Y96.955 E170.1603
G1 X91.573 Y96.78 E170.17795
G1 X91.723 Y95.965 E170.26064
G1 X125.607 Y129.85 E175.04211
G1 X125.612 Y129.842 E175.04305
G1 X126.124 Y129.128 E175.13072
G1 X126.194 Y129.022 E175.14339
G1 X92.009 Y94.837 E179.96726
G1 X92.048 Y94.711 E179.98042
G1 X92.334 Y93.869 E180.06915
G1 X92.367 Y93.781 E180.07853
G1 X126.728 Y128.142 E184.92724
G1 X126.764 Y128.081 E184.93431
G1 X127.18 Y127.273 E185.02499
G1 X127.209 Y127.209 E185.032
G1 X92.789 Y92.789 E189.88903
G1 X92.819 Y92.725 E189.89609
G1 X93.27 Y91.855 E189.99386
G1 X127.63 Y126.216 E194.8425
G1 X127.675 Y126.099 E194.85501
G1 X127.95 Y125.288 E194.94046
G1 X127.989 Y125.161 E194.95371
G1 X93.804 Y90.976 E199.77759
G1 X93.874 Y90.87 E199.79026
G1 X94.386 Y90.156 E199.87793
G1 X94.391 Y90.149 E199.87879
G1 X128.276 Y124.033 E204.66026
G1 X128.426 Y123.219 E204.74285
G1 X128.451 Y123.043 E204.76058
G1 X128.477 Y122.82 E204.78298
G1 X95.029 Y89.372 E209.50286
G1 X95.075 Y89.318 E209.50994
G1 X95.175 Y89.205 E209.52499
G1 X95.715 Y88.644 E209.60269
G1 X128.58 Y121.509 E214.2403
G1 X128.598 Y120.985 E214.29261
G1 X128.599 Y120.114 E214.37952
G1 X96.45 Y87.965 E218.91609
G1 X96.597 Y87.833 E218.9358
G1 X96.713 Y87.737 E218.95083
G1 X97.234 Y87.335 E219.01649
G1 X128.599 Y118.699 E223.44236
G1 X128.599 Y117.285 E223.58345
G1 X98.067 Y86.753 E227.89184
G1 X98.321 Y86.583 E227.92234
G1 X98.448 Y86.508 E227.93706
G1 X98.953 Y86.225 E227.99482
G1 X128.599 Y115.871 E232.17819
G1 X128.599 Y114.457 E232.31928
G1 X99.891 Y85.749 E236.37029
G1 X100.206 Y85.6 E236.40506
G1 X100.35 Y85.54 E236.42062
G1 X100.89 Y85.334 E236.47829
G1 X128.599 Y113.043 E240.38833
G1 X128.599 Y111.628 E240.52952
G1 X101.952 Y84.982 E244.28963
G1 X102.209 Y84.905 E244.3164
G1 X102.382 Y84.859 E244.33426
G1 X103.086 Y84.701 E244.40626
G1 X128.599 Y110.214 E248.00642
G1 X128.599 Y108.8 E248.14751
G1 X104.301 Y84.502 E251.57622
G1 X104.312 Y84.5 E251.57733
G1 X104.481 Y84.482 E251.59429
G1 X105.554 Y84.408 E251.70161
G1 X105.62 Y84.407 E251.70819
G1 X128.599 Y107.386 E254.95078
G1 X128.599 Y105.971 E255.09197
G1 X107.028 Y84.4 E258.13587
G1 X108.442 Y84.4 E258.27696
G1 X128.599 Y104.557 E261.12133
G1 X128.599 Y103.143 E261.26242
G1 X109.856 Y84.4 E263.90726
G1 X111.271 Y84.4 E264.04845
G1 X128.599 Y101.729 E266.49369
G1 X128.599 Y100.315 E266.63478
G1 X112.685 Y84.4 E268.88048
G1 X114.001 Y84.4 E269.0118
G1 X114.103 Y84.405 E269.02198
G1 X128.597 Y98.898 E271.06717
G1 X128.591 Y98.555 E271.1014
G1 X128.515 Y97.469 E271.21003
G1 X128.507 Y97.394 E271.21756
G1 X115.612 Y84.499 E273.03718
G1 X116.043 Y84.547 E273.08045
G1 X116.218 Y84.572 E273.09809
G1 X117.106 Y84.736 E273.18819
G1 X117.229 Y84.765 E273.2008
G1 X117.314 Y84.787 E273.20956
G1 X128.207 Y95.68 E274.74668
G1 X128.14 Y95.383 E274.77706
G1 X128.094 Y95.209 E274.79502
G1 X127.839 Y94.36 E274.88347
G1 X127.787 Y94.209 E274.89941
G1 X127.561 Y93.62 E274.96236
G1 X119.371 Y85.43 E276.11806
G1 X120.098 Y85.738 E276.19684
G1 X120.287 Y85.827 E276.21768
G1 X121.198 Y86.3 E276.3201
G1 X121.977 Y86.776 E276.4112
G1 X122.127 Y86.875 E276.42913
G1 X122.49 Y87.135 E276.47368
G1 X125.894 Y90.539 E276.95402
G0 F12000 X125.821 Y90.437
G1 F1800 X125.261 Y89.714 E277.04527
G1 X125.166 Y89.597 E277.06031
G1 X124.563 Y88.926 E277.15033
G1 X124.443 Y88.802 E277.16754
G1 X123.793 Y88.176 E277.25759
G1 X123.681 Y88.075 E277.27264
G1 X122.989 Y87.5 E277.36241
G1 X122.842 Y87.387 E277.38091
G1 X122.49 Y87.135 E277.42411
G1 F2700 E272.42411
G0 F300 X122.49 Y87.135 Z0.74
G0 F12000 X122.739 Y86.004
G0 X121.58 Y85.295
G0 X119.7 Y84.413
G0 X118.539 Y84.017
G0 X116.538 Y83.549
G0 X116.381 Y84.4
;TIME_ELAPSED:114.204775
;LAYER:-4
;TYPE:SUPPORT-INTERFACE
G1 F2700 E277.42411
G1 F2400 X103.63 Y84.4 E277.84821
G1 X104.286 Y84.303 E277.87026
G1 X104.461 Y84.284 E277.87612
G1 X105.361 Y84.216 E277.90614
G1 X105.545 Y84.208 E277.91226
G1 X106.058 Y84.2 E277.92933
G1 X113.974 Y84.2 E278.19261
G1 X115.149 Y84.246 E278.23172
G1 X116.066 Y84.349 E278.26242
G1 X116.24 Y84.374 E278.26826
G1 F2700 E273.26826
G0 F12000 X116.172 Y83.491
G0 X113.987 Y83.336
G0 X105.31 Y83.354
G0 X103.504 Y83.545
G0 X103.63 Y84.4
G1 F2700 E278.26826
G1 F2400 X103.386 Y84.436 E278.27647
G1 X103.233 Y84.464 E278.28164
G1 X102.324 Y84.667 E278.31262
G1 X101.873 Y84.8 E278.32826
G1 X118.158 Y84.8 E278.8699
G1 X118.173 Y84.804 E278.87041
G1 X118.359 Y84.861 E278.87688
G1 X119.187 Y85.142 E278.90597
G1 X119.339 Y85.2 E278.91138
G1 X100.681 Y85.2 E279.53195
G1 X100.28 Y85.353 E279.54622
G1 X100.138 Y85.413 E279.55135
G1 X99.74 Y85.6 E279.56597
G1 X120.279 Y85.6 E280.2491
G1 X120.365 Y85.64 E280.25226
G1 X121.063 Y86 E280.27838
G1 X98.945 Y86 E281.01403
G1 X98.357 Y86.33 E281.03645
G1 X98.242 Y86.4 E281.04093
G1 X121.747 Y86.4 E281.82271
G1 X122.075 Y86.6 E281.83549
G1 X122.251 Y86.717 E281.84252
G1 X122.368 Y86.8 E281.84729
G1 X97.638 Y86.8 E282.66981
G1 X97.464 Y86.915 E282.67675
G1 X97.31 Y87.024 E282.68302
G1 X97.082 Y87.2 E282.6926
G1 X122.927 Y87.2 E283.55221
G1 X122.97 Y87.231 E283.55398
