;FLAVOR:Marlin
;TIME:533
;Filament used: 0.25734m
;Layer height: 0.2
;MINX:95
;MINY:88
;MINZ:0.2
;MAXX:125
;MAXY:132
;MAXZ:5
;Generated with Cura_SteamEngine 4.6.1
M140 S65
M105
M190 S65
M104 S200
M105
M109 S200
M82 ;absolute extrusion mode
M201 X500.00 Y500.00 Z100.00 E5000.00 ;Setup machine max acceleration
M203 X500.00 Y500.00 Z10.00 E50.00 ;Setup machine max feedrate
M204 P500.00 R1000.00 T500.00 ;Setup Print/Retract/Travel acceleration
M205 X8.00 Y8.00 Z0.40 E5.00 ;Setup Jerk
M220 S100 ;Reset Feedrate
M221 S100 ;Reset Flowrate

G28 ;Home

G92 E0 ;Reset Extruder
G1 Z2.0 F3000 ;Move Z Axis up
G1 X10.1 Y20 Z0.28 F5000.0 ;Move to start position
G1 X10.1 Y200.0 Z0.28 F1500.0 E15 ;Draw the first line
G1 X10.4 Y200.0 Z0.28 F5000.0 ;Move to side a little
G1 X10.4 Y20 Z0.28 F1500.0 E30 ;Draw the second line
G92 E0 ;Reset Extruder
G1 Z2.0 F3000 ;Move Z Axis up

G92 E0
G92 E0
G1 F2700 E-5
;LAYER_COUNT:25
;LAYER:0
M107
G0 F6000 X114.137 Y88.811 Z0.2
;TYPE:SKIRT
G1 F2700 E0
G1 F1200 X115.039 Y88.864 E0.03005
G1 X115.932 Y88.996 E0.06008
G1 X116.81 Y89.207 E0.09011
G1 X117.666 Y89.495 E0.12015
G1 X118.493 Y89.857 E0.15018
G1 X119.285 Y90.292 E0.18023
G1 X120.036 Y90.794 E0.21027
G1 X120.739 Y91.361 E0.24031
G1 X121.389 Y91.988 E0.27035
G1 X121.981 Y92.67 E0.30039
G1 X122.511 Y93.401 E0.33042
G1 X122.973 Y94.177 E0.36046
G1 X123.366 Y94.99 E0.39049
G1 X123.684 Y95.835 E0.42052
G1 X123.927 Y96.705 E0.45056
G1 X124.092 Y97.593 E0.4806
G1 X124.187 Y98.723 E0.51832
G1 X124.2 Y99.33 E0.53851
G1 X124.199 Y120.39 E1.23897
G1 X124.19 Y121.117 E1.26316
G1 X124.139 Y122.019 E1.2932
G1 X124.008 Y122.913 E1.32326
G1 X123.799 Y123.791 E1.35327
G1 X123.513 Y124.648 E1.38332
G1 X123.152 Y125.476 E1.41337
G1 X122.72 Y126.268 E1.44337
G1 X122.219 Y127.02 E1.47343
G1 X121.653 Y127.724 E1.50347
G1 X121.028 Y128.375 E1.53349
G1 X120.347 Y128.969 E1.56354
G1 X119.616 Y129.5 E1.59359
G1 X118.842 Y129.964 E1.62361
G1 X118.029 Y130.358 E1.65366
G1 X117.185 Y130.678 E1.68368
G1 X116.315 Y130.923 E1.71374
G1 X115.428 Y131.089 E1.74375
G1 X114.277 Y131.187 E1.78217
G1 X113.67 Y131.2 E1.80237
G1 X106.575 Y131.199 E2.03835
G1 X105.877 Y131.19 E2.06157
G1 X104.976 Y131.139 E2.09158
G1 X104.082 Y131.007 E2.12164
G1 X103.204 Y130.798 E2.15166
G1 X102.347 Y130.511 E2.18172
G1 X101.52 Y130.15 E2.21173
G1 X100.727 Y129.717 E2.24178
G1 X99.976 Y129.216 E2.27181
G1 X99.272 Y128.65 E2.30185
G1 X98.621 Y128.024 E2.33189
G1 X98.028 Y127.343 E2.36192
G1 X97.498 Y126.612 E2.39195
G1 X97.034 Y125.837 E2.422
G1 X96.64 Y125.024 E2.45205
G1 X96.32 Y124.18 E2.48207
G1 X96.076 Y123.31 E2.51212
G1 X95.91 Y122.422 E2.54217
G1 X95.813 Y121.267 E2.58072
G1 X95.8 Y120.658 E2.60098
G1 X95.801 Y99.536 E3.3035
G1 X95.81 Y98.871 E3.32562
G1 X95.862 Y97.969 E3.35567
G1 X95.994 Y97.076 E3.38569
G1 X96.204 Y96.198 E3.41572
G1 X96.491 Y95.341 E3.44578
G1 X96.853 Y94.514 E3.47581
G1 X97.286 Y93.722 E3.50583
G1 X97.788 Y92.971 E3.53587
G1 X98.355 Y92.267 E3.56594
G1 X98.981 Y91.617 E3.59595
G1 X99.662 Y91.024 E3.62599
G1 X100.394 Y90.494 E3.65604
G1 X101.169 Y90.031 E3.68607
G1 X101.982 Y89.638 E3.7161
G1 X102.827 Y89.318 E3.74616
G1 X103.696 Y89.075 E3.77617
G1 X104.584 Y88.909 E3.80622
G1 X105.723 Y88.813 E3.84423
G1 X106.33 Y88.8 E3.86443
G1 X113.439 Y88.801 E4.10087
G1 X114.137 Y88.811 E4.12409
G0 F6000 X114.143 Y88.411
G1 F1200 X115.062 Y88.464 E4.15471
G1 X115.973 Y88.597 E4.18533
G1 X116.869 Y88.808 E4.21594
G1 X117.743 Y89.096 E4.24655
G1 X118.59 Y89.459 E4.2772
G1 X119.401 Y89.894 E4.30781
G1 X120.171 Y90.398 E4.33842
G1 X120.895 Y90.967 E4.36905
G1 X121.567 Y91.597 E4.39968
G1 X122.182 Y92.282 E4.4303
G1 X122.735 Y93.018 E4.46092
G1 X123.222 Y93.799 E4.49153
G1 X123.639 Y94.62 E4.52216
G1 X123.984 Y95.474 E4.55279
G1 X124.253 Y96.354 E4.5834
G1 X124.445 Y97.255 E4.61404
G1 X124.558 Y98.168 E4.64464
G1 X124.587 Y98.712 E4.66276
G1 X124.6 Y99.33 E4.68332
G1 X124.599 Y120.395 E5.38394
G1 X124.59 Y121.122 E5.40812
G1 X124.539 Y122.041 E5.43874
G1 X124.408 Y122.953 E5.46938
G1 X124.198 Y123.849 E5.49999
G1 X123.912 Y124.724 E5.53061
G1 X123.551 Y125.571 E5.56123
G1 X123.117 Y126.383 E5.59185
G1 X122.615 Y127.155 E5.62248
G1 X122.047 Y127.88 E5.65312
G1 X121.419 Y128.553 E5.68373
G1 X120.735 Y129.169 E5.71435
G1 X120 Y129.723 E5.74496
G1 X119.22 Y130.212 E5.77558
G1 X118.4 Y130.631 E5.80621
G1 X117.547 Y130.977 E5.83682
G1 X116.667 Y131.248 E5.86745
G1 X115.767 Y131.441 E5.89806
G1 X114.853 Y131.556 E5.9287
G1 X114.288 Y131.587 E5.94752
G1 X113.67 Y131.6 E5.96808
G1 X106.57 Y131.599 E6.20423
G1 X105.872 Y131.59 E6.22745
G1 X104.953 Y131.538 E6.25806
G1 X104.042 Y131.407 E6.28867
G1 X103.146 Y131.197 E6.31928
G1 X102.271 Y130.91 E6.34991
G1 X101.424 Y130.548 E6.38055
G1 X100.612 Y130.114 E6.41117
G1 X99.841 Y129.612 E6.44177
G1 X99.116 Y129.044 E6.4724
G1 X98.443 Y128.415 E6.50304
G1 X97.828 Y127.731 E6.53363
G1 X97.274 Y126.996 E6.56425
G1 X96.786 Y126.215 E6.59488
G1 X96.367 Y125.395 E6.6255
G1 X96.021 Y124.542 E6.65612
G1 X95.751 Y123.662 E6.68674
G1 X95.558 Y122.761 E6.71738
G1 X95.444 Y121.848 E6.74799
G1 X95.413 Y121.277 E6.767
G1 X95.4 Y120.658 E6.7876
G1 X95.401 Y99.531 E7.49028
G1 X95.41 Y98.866 E7.5124
G1 X95.462 Y97.946 E7.54305
G1 X95.594 Y97.035 E7.57367
G1 X95.805 Y96.139 E7.60429
G1 X96.092 Y95.264 E7.63491
G1 X96.455 Y94.418 E7.66553
G1 X96.889 Y93.606 E7.69615
G1 X97.392 Y92.835 E7.72677
G1 X97.961 Y92.111 E7.7574
G1 X98.589 Y91.439 E7.78799
G1 X99.274 Y90.823 E7.81863
G1 X100.01 Y90.27 E7.84925
G1 X100.791 Y89.782 E7.87988
G1 X101.611 Y89.364 E7.91049
G1 X102.465 Y89.019 E7.94113
G1 X103.345 Y88.749 E7.97174
G1 X104.245 Y88.557 E8.00235
G1 X105.159 Y88.443 E8.03299
G1 X105.712 Y88.413 E8.05141
G1 X106.33 Y88.4 E8.07197
G1 X113.445 Y88.401 E8.30861
G1 X114.143 Y88.411 E8.33183
G0 F6000 X114.149 Y88.011
G1 F1200 X115.085 Y88.065 E8.36301
G1 X116.013 Y88.197 E8.39419
G1 X116.927 Y88.409 E8.4254
G1 X117.819 Y88.698 E8.45658
G1 X118.684 Y89.061 E8.48778
G1 X119.514 Y89.497 E8.51897
G1 X120.305 Y90.002 E8.55018
G1 X121.049 Y90.573 E8.58137
G1 X121.742 Y91.205 E8.61257
G1 X122.379 Y91.893 E8.64375
G1 X122.954 Y92.634 E8.67495
G1 X123.465 Y93.42 E8.70613
G1 X123.907 Y94.248 E8.73735
G1 X124.276 Y95.11 E8.76853
G1 X124.571 Y96 E8.79972
G1 X124.789 Y96.912 E8.83091
G1 X124.929 Y97.84 E8.86212
G1 X124.987 Y98.701 E8.89082
G1 X125 Y99.33 E8.91175
G1 X124.999 Y120.4 E9.61254
G1 X124.99 Y121.127 E9.63672
G1 X124.939 Y122.064 E9.66793
G1 X124.807 Y122.992 E9.69911
G1 X124.598 Y123.906 E9.73029
G1 X124.311 Y124.799 E9.76149
G1 X123.949 Y125.665 E9.79271
G1 X123.515 Y126.496 E9.82389
G1 X123.011 Y127.287 E9.85509
G1 X122.442 Y128.032 E9.88627
G1 X121.811 Y128.727 E9.91749
G1 X121.124 Y129.365 E9.94867
G1 X120.385 Y129.942 E9.97985
G1 X119.599 Y130.454 E10.01105
G1 X118.773 Y130.897 E10.04223
G1 X117.911 Y131.269 E10.07346
G1 X117.022 Y131.565 E10.10462
G1 X116.11 Y131.785 E10.13582
G1 X115.183 Y131.926 E10.16701
G1 X114.299 Y131.987 E10.19648
G1 X113.67 Y132 E10.21741
G1 X106.565 Y131.999 E10.45372
G1 X105.867 Y131.99 E10.47694
G1 X104.931 Y131.938 E10.50812
G1 X104.002 Y131.806 E10.53933
G1 X103.088 Y131.596 E10.57052
G1 X102.195 Y131.309 E10.60171
G1 X101.33 Y130.946 E10.63292
G1 X100.499 Y130.512 E10.6641
G1 X99.708 Y130.008 E10.69529
G1 X98.963 Y129.438 E10.72649
G1 X98.269 Y128.807 E10.75769
G1 X97.632 Y128.12 E10.78885
G1 X97.055 Y127.38 E10.82006
G1 X96.543 Y126.594 E10.85126
G1 X96.1 Y125.767 E10.88246
G1 X95.729 Y124.906 E10.91365
G1 X95.433 Y124.016 E10.94484
G1 X95.214 Y123.104 E10.97604
G1 X95.073 Y122.177 E11.00722
G1 X95.013 Y121.288 E11.03686
G1 X95 Y120.658 E11.05782
G1 X95.001 Y99.525 E11.7607
G1 X95.01 Y98.86 E11.78282
G1 X95.063 Y97.924 E11.81401
G1 X95.195 Y96.995 E11.84521
G1 X95.406 Y96.081 E11.87641
G1 X95.694 Y95.189 E11.90759
G1 X96.057 Y94.324 E11.93879
G1 X96.492 Y93.493 E11.96999
G1 X96.996 Y92.703 E12.00116
G1 X97.566 Y91.958 E12.03235
G1 X98.198 Y91.264 E12.06357
G1 X98.886 Y90.627 E12.09476
G1 X99.626 Y90.051 E12.12595
G1 X100.412 Y89.539 E12.15715
G1 X101.239 Y89.097 E12.18834
G1 X102.101 Y88.727 E12.21954
G1 X102.991 Y88.431 E12.25073
G1 X103.903 Y88.213 E12.28192
G1 X104.83 Y88.072 E12.31311
G1 X105.701 Y88.013 E12.34214
G1 X106.33 Y88 E12.36307
G1 X113.451 Y88.001 E12.59991
G1 X114.149 Y88.011 E12.62313
G1 F2700 E7.62313
;MESH:M3BoltInsertionTestPlate.stl
G0 F6000 X110.228 Y102.304
G0 X110.684 Y100.918
G0 X111.564 Y102.029
G0 X111.824 Y102.753
G0 X111.771 Y103.504
G0 X111.406 Y104.185
G0 X111.064 Y104.452
G0 X110.343 Y104.973
;TYPE:WALL-INNER
G1 F2700 E12.62313
G1 F1200 X110.622 Y104.9 E12.63272
G1 X110.871 Y104.802 E12.64162
G1 X111.12 Y104.658 E12.65119
G1 X111.334 Y104.491 E12.66022
G1 X111.529 Y104.29 E12.66953
G1 X111.691 Y104.069 E12.67865
G1 X111.825 Y103.82 E12.68805
G1 X111.926 Y103.548 E12.6977
G1 X111.979 Y103.284 E12.70666
G1 X112.002 Y103.004 E12.716
G1 X111.983 Y102.731 E12.7251
G1 X111.926 Y102.451 E12.73461
G1 X111.832 Y102.196 E12.74365
G1 X111.701 Y101.944 E12.75309
G1 X111.53 Y101.712 E12.76268
G1 X111.345 Y101.518 E12.7716
G1 X111.12 Y101.341 E12.78112
G1 X110.884 Y101.206 E12.79016
G1 X110.624 Y101.1 E12.7995
G1 X110.359 Y101.032 E12.8086
G1 X110.076 Y101.001 E12.81807
G1 X109.792 Y101.011 E12.82752
G1 X109.526 Y101.055 E12.83649
G1 X109.254 Y101.143 E12.84599
G1 X109.007 Y101.262 E12.85511
G1 X108.772 Y101.42 E12.86453
G1 X108.559 Y101.61 E12.87403
G1 X108.384 Y101.819 E12.88309
G1 X108.232 Y102.062 E12.89263
G1 X108.122 Y102.31 E12.90165
G1 X108.044 Y102.58 E12.911
G1 X108.005 Y102.846 E12.91994
G1 X108.002 Y103.134 E12.92952
G1 X108.044 Y103.418 E12.93907
G1 X108.115 Y103.678 E12.94803
G1 X108.232 Y103.938 E12.95751
G1 X108.375 Y104.169 E12.96655
G1 X108.558 Y104.388 E12.97604
G1 X108.761 Y104.571 E12.98513
G1 X108.993 Y104.728 E12.99445
G1 X109.252 Y104.857 E13.00407
G1 X109.512 Y104.94 E13.01315
G1 X109.789 Y104.989 E13.02251
G1 X110.057 Y104.999 E13.03143
G1 X110.343 Y104.973 E13.04098
G0 F6000 X110.274 Y104.578
;TYPE:WALL-OUTER
G1 F1200 X110.498 Y104.519 E13.04868
G1 X110.697 Y104.441 E13.05579
G1 X110.896 Y104.326 E13.06344
G1 X111.066 Y104.193 E13.07061
G1 X111.223 Y104.031 E13.07812
G1 X111.352 Y103.855 E13.08538
G1 X111.46 Y103.655 E13.09294
G1 X111.54 Y103.439 E13.1006
G1 X111.582 Y103.228 E13.10775
G1 X111.601 Y103.001 E13.11533
G1 X111.586 Y102.785 E13.12253
G1 X111.54 Y102.561 E13.13014
G1 X111.465 Y102.358 E13.13733
G1 X111.36 Y102.156 E13.14491
G1 X111.223 Y101.969 E13.15262
G1 X111.076 Y101.815 E13.1597
G1 X110.896 Y101.674 E13.1673
G1 X110.708 Y101.566 E13.17451
G1 X110.499 Y101.481 E13.18202
G1 X110.287 Y101.427 E13.18929
G1 X110.061 Y101.402 E13.19686
G1 X109.832 Y101.41 E13.20448
G1 X109.62 Y101.445 E13.21162
G1 X109.403 Y101.515 E13.21921
G1 X109.207 Y101.61 E13.22645
G1 X109.018 Y101.737 E13.23403
G1 X108.847 Y101.889 E13.24164
G1 X108.708 Y102.055 E13.24884
G1 X108.586 Y102.25 E13.25649
G1 X108.499 Y102.447 E13.26365
G1 X108.436 Y102.665 E13.2712
G1 X108.405 Y102.878 E13.27836
G1 X108.402 Y103.107 E13.28597
G1 X108.436 Y103.335 E13.29364
G1 X108.493 Y103.542 E13.30078
G1 X108.586 Y103.75 E13.30836
G1 X108.7 Y103.934 E13.31556
G1 X108.847 Y104.11 E13.32319
G1 X109.008 Y104.255 E13.33039
G1 X109.195 Y104.382 E13.33791
G1 X109.403 Y104.485 E13.34563
G1 X109.608 Y104.551 E13.35279
G1 X109.831 Y104.59 E13.36032
G1 X110.047 Y104.598 E13.36751
G1 X110.274 Y104.578 E13.37509
G0 F6000 X110.349 Y105.011
G1 F2700 E8.37509
G0 F6000 X110.063 Y105.19
G0 X110.089 Y107.71
G0 X111.303 Y108.562
G0 X111.65 Y108.978
G0 X111.923 Y109.739
G0 X111.867 Y110.53
G0 X111.483 Y111.249
G0 X111.259 Y111.452
G0 X110.358 Y112.072
;TYPE:WALL-INNER
G1 F2700 E13.37509
G1 F1200 X110.653 Y111.997 E13.38522
G1 X110.915 Y111.892 E13.3946
G1 X111.176 Y111.742 E13.40462
G1 X111.401 Y111.566 E13.41412
G1 X111.606 Y111.354 E13.42393
G1 X111.776 Y111.123 E13.43347
G1 X111.917 Y110.859 E13.44342
G1 X112.022 Y110.575 E13.45349
G1 X112.078 Y110.298 E13.46289
G1 X112.102 Y110.004 E13.4727
G1 X112.082 Y109.716 E13.4823
G1 X112.022 Y109.425 E13.49219
G1 X111.923 Y109.155 E13.50175
G1 X111.786 Y108.892 E13.51161
G1 X111.609 Y108.648 E13.52164
G1 X111.412 Y108.442 E13.53112
G1 X111.176 Y108.259 E13.54105
G1 X110.93 Y108.116 E13.55052
G1 X110.653 Y108.003 E13.56047
G1 X110.374 Y107.934 E13.57003
G1 X110.081 Y107.901 E13.57983
G1 X109.781 Y107.911 E13.58982
G1 X109.5 Y107.958 E13.59929
G1 X109.216 Y108.05 E13.60922
G1 X108.957 Y108.176 E13.6188
G1 X108.711 Y108.342 E13.62867
G1 X108.487 Y108.542 E13.63866
G1 X108.304 Y108.76 E13.64813
G1 X108.144 Y109.014 E13.65811
G1 X108.028 Y109.275 E13.66761
G1 X107.946 Y109.56 E13.67747
G1 X107.906 Y109.842 E13.68695
G1 X107.903 Y110.14 E13.69686
G1 X107.946 Y110.437 E13.70684
G1 X108.022 Y110.712 E13.71633
G1 X108.144 Y110.985 E13.72628
G1 X108.294 Y111.228 E13.73577
G1 X108.486 Y111.457 E13.74571
G1 X108.698 Y111.649 E13.75523
G1 X108.943 Y111.815 E13.76507
G1 X109.215 Y111.95 E13.77517
G1 X109.487 Y112.036 E13.78466
G1 X109.777 Y112.089 E13.79446
G1 X110.061 Y112.099 E13.80391
G1 X110.358 Y112.072 E13.81383
G0 F6000 X110.291 Y111.676
;TYPE:WALL-OUTER
G1 F1200 X110.529 Y111.616 E13.822
G1 X110.74 Y111.531 E13.82956
G1 X110.952 Y111.409 E13.8377
G1 X111.133 Y111.268 E13.84533
G1 X111.3 Y111.095 E13.85333
G1 X111.437 Y110.909 E13.86101
G1 X111.551 Y110.695 E13.86907
G1 X111.636 Y110.465 E13.87723
G1 X111.681 Y110.242 E13.8848
G1 X111.701 Y110.001 E13.89284
G1 X111.685 Y109.771 E13.90051
G1 X111.636 Y109.535 E13.90852
G1 X111.556 Y109.317 E13.91625
G1 X111.445 Y109.103 E13.92427
G1 X111.301 Y108.905 E13.93241
G1 X111.143 Y108.74 E13.94001
G1 X110.952 Y108.591 E13.94806
G1 X110.753 Y108.476 E13.95571
G1 X110.529 Y108.384 E13.96376
G1 X110.304 Y108.329 E13.97147
G1 X110.065 Y108.302 E13.97947
G1 X109.821 Y108.31 E13.98759
G1 X109.595 Y108.348 E13.99521
G1 X109.365 Y108.422 E14.00324
G1 X109.157 Y108.523 E14.01094
G1 X108.957 Y108.658 E14.01896
G1 X108.775 Y108.821 E14.02709
G1 X108.628 Y108.996 E14.03469
G1 X108.498 Y109.203 E14.04282
G1 X108.405 Y109.412 E14.05043
G1 X108.338 Y109.644 E14.05846
G1 X108.306 Y109.872 E14.06612
G1 X108.303 Y110.114 E14.07417
G1 X108.338 Y110.355 E14.08227
G1 X108.399 Y110.576 E14.08989
G1 X108.498 Y110.797 E14.09795
G1 X108.619 Y110.993 E14.10561
G1 X108.775 Y111.179 E14.11368
G1 X108.946 Y111.334 E14.12136
G1 X109.145 Y111.469 E14.12936
G1 X109.365 Y111.578 E14.13752
G1 X109.583 Y111.647 E14.14513
G1 X109.82 Y111.69 E14.15314
G1 X110.05 Y111.698 E14.16079
G1 X110.291 Y111.676 E14.16884
G0 F6000 X110.365 Y112.109
G1 F2700 E9.16884
G0 F6000 X110.067 Y112.29
G0 X110.067 Y114.615
G0 X108.613 Y115.503
G0 X108.132 Y116.181
G0 X107.981 Y116.717
G0 X107.977 Y117.269
G0 X108.125 Y117.803
G0 X108.421 Y118.291
G0 X108.933 Y118.709
G0 X109.846 Y119.195
;TYPE:WALL-INNER
G1 F2700 E14.16884
G1 F1200 X110.148 Y119.195 E14.17889
G1 X110.441 Y119.159 E14.1887
G1 X110.74 Y119.073 E14.19905
G1 X111.005 Y118.958 E14.20866
G1 X111.269 Y118.8 E14.21889
G1 X111.496 Y118.614 E14.22865
G1 X111.704 Y118.393 E14.23875
G1 X111.874 Y118.154 E14.2485
G1 X112.016 Y117.884 E14.25865
G1 X112.121 Y117.592 E14.26897
G1 X112.179 Y117.306 E14.27868
G1 X112.202 Y117.003 E14.28878
G1 X112.182 Y116.71 E14.29855
G1 X112.121 Y116.409 E14.30877
G1 X112.023 Y116.132 E14.31854
G1 X111.884 Y115.86 E14.3287
G1 X111.704 Y115.607 E14.33903
G1 X111.507 Y115.397 E14.3486
G1 X111.27 Y115.201 E14.35883
G1 X111.02 Y115.049 E14.36856
G1 X110.741 Y114.926 E14.3787
G1 X110.457 Y114.848 E14.3885
G1 X110.154 Y114.805 E14.39868
G1 X109.866 Y114.805 E14.40826
G1 X109.561 Y114.84 E14.41847
