;FLAVOR:Marlin
;TIME:383
;Filament used: 0.195124m
;Layer height: 0.2
;MINX:95
;MINY:90
;MINZ:0.2
;MAXX:125
;MAXY:139
;MAXZ:3
;Generated with Cura_SteamEngine 4.6.1
M140 S65
M105
M190 S65
M104 S200
M105
M109 S200
M82 ;absolute extrusion mode
M201 X500.00 Y500.00 Z100.00 E5000.00 ;Setup machine max acceleration
M203 X500.00 Y500.00 Z10.00 E50.00 ;Setup machine max feedrate
M204 P500.00 R1000.00 T500.00 ;Setup Print/Retract/Travel acceleration
M205 X8.00 Y8.00 Z0.40 E5.00 ;Setup Jerk
M220 S100 ;Reset Feedrate
M221 S100 ;Reset Flowrate

G28 ;Home

G92 E0 ;Reset Extruder
G1 Z2.0 F3000 ;Move Z Axis up
G1 X10.1 Y20 Z0.28 F5000.0 ;Move to start position
G1 X10.1 Y200.0 Z0.28 F1500.0 E15 ;Draw the first line
G1 X10.4 Y200.0 Z0.28 F5000.0 ;Move to side a little
G1 X10.4 Y20 Z0.28 F1500.0 E30 ;Draw the second line
G92 E0 ;Reset Extruder
G1 Z2.0 F3000 ;Move Z Axis up

G92 E0
G92 E0
G1 F2700 E-5
;LAYER_COUNT:15
;LAYER:0
M107
G0 F6000 X114.137 Y90.811 Z0.2
;TYPE:SKIRT
G1 F2700 E0
G1 F1200 X115.039 Y90.864 E0.03005
G1 X115.932 Y90.996 E0.06008
G1 X116.81 Y91.207 E0.09011
G1 X117.666 Y91.495 E0.12015
G1 X118.493 Y91.857 E0.15018
G1 X119.285 Y92.292 E0.18023
G1 X120.036 Y92.794 E0.21027
G1 X120.739 Y93.361 E0.24031
G1 X121.389 Y93.988 E0.27035
G1 X121.981 Y94.67 E0.30039
G1 X122.511 Y95.401 E0.33042
G1 X122.973 Y96.177 E0.36046
G1 X123.366 Y96.99 E0.39049
G1 X123.684 Y97.835 E0.42052
G1 X123.927 Y98.705 E0.45056
G1 X124.092 Y99.593 E0.4806
G1 X124.187 Y100.723 E0.51832
G1 X124.2 Y101.33 E0.53851
G1 X124.199 Y127.39 E1.40527
G1 X124.19 Y128.117 E1.42946
G1 X124.139 Y129.019 E1.4595
G1 X124.008 Y129.913 E1.48956
G1 X123.799 Y130.791 E1.51957
G1 X123.513 Y131.648 E1.54962
G1 X123.152 Y132.476 E1.57967
G1 X122.72 Y133.268 E1.60967
G1 X122.219 Y134.02 E1.63973
G1 X121.653 Y134.724 E1.66977
G1 X121.028 Y135.375 E1.69979
G1 X120.347 Y135.969 E1.72984
G1 X119.616 Y136.5 E1.75989
G1 X118.842 Y136.964 E1.78991
G1 X118.029 Y137.358 E1.81996
G1 X117.185 Y137.678 E1.84998
G1 X116.315 Y137.923 E1.88004
G1 X115.428 Y138.089 E1.91005
G1 X114.277 Y138.187 E1.94848
G1 X113.67 Y138.2 E1.96867
G1 X106.575 Y138.199 E2.20465
G1 X105.877 Y138.19 E2.22787
G1 X104.976 Y138.139 E2.25788
G1 X104.082 Y138.007 E2.28794
G1 X103.204 Y137.798 E2.31796
G1 X102.347 Y137.511 E2.34802
G1 X101.52 Y137.15 E2.37803
G1 X100.727 Y136.717 E2.40808
G1 X99.976 Y136.216 E2.43811
G1 X99.272 Y135.65 E2.46815
G1 X98.621 Y135.024 E2.49819
G1 X98.028 Y134.343 E2.52822
G1 X97.498 Y133.612 E2.55826
G1 X97.034 Y132.837 E2.5883
G1 X96.64 Y132.024 E2.61835
G1 X96.32 Y131.18 E2.64837
G1 X96.076 Y130.31 E2.67842
G1 X95.91 Y129.422 E2.70847
G1 X95.813 Y128.267 E2.74702
G1 X95.8 Y127.658 E2.76728
G1 X95.801 Y101.536 E3.6361
G1 X95.81 Y100.871 E3.65822
G1 X95.862 Y99.969 E3.68827
G1 X95.994 Y99.076 E3.71829
G1 X96.204 Y98.198 E3.74832
G1 X96.491 Y97.341 E3.77838
G1 X96.853 Y96.514 E3.80841
G1 X97.286 Y95.722 E3.83843
G1 X97.788 Y94.971 E3.86847
G1 X98.355 Y94.267 E3.89854
G1 X98.981 Y93.617 E3.92855
G1 X99.662 Y93.024 E3.95859
G1 X100.394 Y92.494 E3.98865
G1 X101.169 Y92.031 E4.01867
G1 X101.982 Y91.638 E4.04871
G1 X102.827 Y91.318 E4.07876
G1 X103.696 Y91.075 E4.10877
G1 X104.584 Y90.909 E4.13882
G1 X105.723 Y90.813 E4.17683
G1 X106.33 Y90.8 E4.19703
G1 X113.439 Y90.801 E4.43347
G1 X114.137 Y90.811 E4.45669
G0 F6000 X114.143 Y90.411
G1 F1200 X115.062 Y90.464 E4.48731
G1 X115.973 Y90.597 E4.51793
G1 X116.869 Y90.808 E4.54855
G1 X117.743 Y91.096 E4.57915
G1 X118.59 Y91.459 E4.6098
G1 X119.401 Y91.894 E4.64041
G1 X120.171 Y92.398 E4.67102
G1 X120.895 Y92.967 E4.70165
G1 X121.567 Y93.597 E4.73228
G1 X122.182 Y94.282 E4.7629
G1 X122.735 Y95.018 E4.79352
G1 X123.222 Y95.799 E4.82413
G1 X123.639 Y96.62 E4.85476
G1 X123.984 Y97.474 E4.8854
G1 X124.253 Y98.354 E4.916
G1 X124.445 Y99.255 E4.94664
G1 X124.558 Y100.168 E4.97724
G1 X124.587 Y100.712 E4.99536
G1 X124.6 Y101.33 E5.01592
G1 X124.599 Y127.395 E5.88284
G1 X124.59 Y128.122 E5.90703
G1 X124.539 Y129.041 E5.93764
G1 X124.408 Y129.953 E5.96828
G1 X124.198 Y130.849 E5.99889
G1 X123.912 Y131.724 E6.02951
G1 X123.551 Y132.571 E6.06013
G1 X123.117 Y133.383 E6.09076
G1 X122.615 Y134.155 E6.12138
G1 X122.047 Y134.88 E6.15202
G1 X121.419 Y135.553 E6.18263
G1 X120.735 Y136.169 E6.21325
G1 X120 Y136.723 E6.24386
G1 X119.22 Y137.212 E6.27448
G1 X118.4 Y137.631 E6.30511
G1 X117.547 Y137.977 E6.33572
G1 X116.667 Y138.248 E6.36635
G1 X115.767 Y138.441 E6.39696
G1 X114.853 Y138.556 E6.4276
G1 X114.288 Y138.587 E6.44642
G1 X113.67 Y138.6 E6.46698
G1 X106.57 Y138.599 E6.70313
G1 X105.872 Y138.59 E6.72635
G1 X104.953 Y138.538 E6.75696
G1 X104.042 Y138.407 E6.78757
G1 X103.146 Y138.197 E6.81818
G1 X102.271 Y137.91 E6.84881
G1 X101.424 Y137.548 E6.87945
G1 X100.612 Y137.114 E6.91007
G1 X99.841 Y136.612 E6.94067
G1 X99.116 Y136.044 E6.9713
G1 X98.443 Y135.415 E7.00194
G1 X97.828 Y134.731 E7.03254
G1 X97.274 Y133.996 E7.06315
G1 X96.786 Y133.215 E7.09378
G1 X96.367 Y132.395 E7.12441
G1 X96.021 Y131.542 E7.15502
G1 X95.751 Y130.662 E7.18564
G1 X95.558 Y129.761 E7.21629
G1 X95.444 Y128.848 E7.24689
G1 X95.413 Y128.277 E7.26591
G1 X95.4 Y127.658 E7.2865
G1 X95.401 Y101.531 E8.15549
G1 X95.41 Y100.866 E8.17761
G1 X95.462 Y99.946 E8.20826
G1 X95.594 Y99.035 E8.23887
G1 X95.805 Y98.139 E8.26949
G1 X96.092 Y97.264 E8.30012
G1 X96.455 Y96.418 E8.33073
G1 X96.889 Y95.606 E8.36136
G1 X97.392 Y94.835 E8.39198
G1 X97.961 Y94.111 E8.4226
G1 X98.589 Y93.439 E8.45319
G1 X99.274 Y92.823 E8.48384
G1 X100.01 Y92.27 E8.51445
G1 X100.791 Y91.782 E8.54508
G1 X101.611 Y91.364 E8.5757
G1 X102.465 Y91.019 E8.60633
G1 X103.345 Y90.749 E8.63695
G1 X104.245 Y90.557 E8.66755
G1 X105.159 Y90.443 E8.69819
G1 X105.712 Y90.413 E8.71661
G1 X106.33 Y90.4 E8.73717
G1 X113.445 Y90.401 E8.97381
G1 X114.143 Y90.411 E8.99703
G0 F6000 X114.149 Y90.011
G1 F1200 X115.085 Y90.065 E9.02822
G1 X116.013 Y90.197 E9.05939
G1 X116.927 Y90.409 E9.0906
G1 X117.819 Y90.698 E9.12179
G1 X118.684 Y91.061 E9.15299
G1 X119.514 Y91.497 E9.18417
G1 X120.305 Y92.002 E9.21538
G1 X121.049 Y92.573 E9.24658
G1 X121.742 Y93.205 E9.27777
G1 X122.379 Y93.893 E9.30896
G1 X122.954 Y94.634 E9.34015
G1 X123.465 Y95.42 E9.37133
G1 X123.907 Y96.248 E9.40255
G1 X124.276 Y97.11 E9.43374
G1 X124.571 Y98 E9.46492
G1 X124.789 Y98.912 E9.49611
G1 X124.929 Y99.84 E9.52732
G1 X124.987 Y100.701 E9.55603
G1 X125 Y101.33 E9.57695
G1 X124.999 Y127.4 E10.44404
G1 X124.99 Y128.127 E10.46823
G1 X124.939 Y129.064 E10.49944
G1 X124.807 Y129.992 E10.53061
G1 X124.598 Y130.906 E10.5618
G1 X124.311 Y131.799 E10.59299
G1 X123.949 Y132.665 E10.62421
G1 X123.515 Y133.496 E10.65539
G1 X123.011 Y134.287 E10.68659
G1 X122.442 Y135.032 E10.71777
G1 X121.811 Y135.727 E10.74899
G1 X121.124 Y136.365 E10.78017
G1 X120.385 Y136.942 E10.81136
G1 X119.599 Y137.454 E10.84256
G1 X118.773 Y137.897 E10.87373
G1 X117.911 Y138.269 E10.90496
G1 X117.022 Y138.565 E10.93612
G1 X116.11 Y138.785 E10.96733
G1 X115.183 Y138.926 E10.99851
G1 X114.299 Y138.987 E11.02798
G1 X113.67 Y139 E11.04891
G1 X106.565 Y138.999 E11.28522
G1 X105.867 Y138.99 E11.30844
G1 X104.931 Y138.938 E11.33962
G1 X104.002 Y138.806 E11.37083
G1 X103.088 Y138.596 E11.40202
G1 X102.195 Y138.309 E11.43322
G1 X101.33 Y137.946 E11.46442
G1 X100.499 Y137.512 E11.4956
G1 X99.708 Y137.008 E11.5268
G1 X98.963 Y136.438 E11.558
G1 X98.269 Y135.807 E11.58919
G1 X97.632 Y135.12 E11.62035
G1 X97.055 Y134.38 E11.65156
G1 X96.543 Y133.594 E11.68276
G1 X96.1 Y132.767 E11.71397
G1 X95.729 Y131.906 E11.74515
G1 X95.433 Y131.016 E11.77635
G1 X95.214 Y130.104 E11.80754
G1 X95.073 Y129.177 E11.83873
G1 X95.013 Y128.288 E11.86836
G1 X95 Y127.658 E11.88932
G1 X95.001 Y101.525 E12.75851
G1 X95.01 Y100.86 E12.78063
G1 X95.063 Y99.924 E12.81181
G1 X95.195 Y98.995 E12.84302
G1 X95.406 Y98.081 E12.87422
G1 X95.694 Y97.189 E12.90539
G1 X96.057 Y96.324 E12.93659
G1 X96.492 Y95.493 E12.96779
G1 X96.996 Y94.703 E12.99896
G1 X97.566 Y93.958 E13.03016
G1 X98.198 Y93.264 E13.06138
G1 X98.886 Y92.627 E13.09256
G1 X99.626 Y92.051 E13.12375
G1 X100.412 Y91.539 E13.15495
G1 X101.239 Y91.097 E13.18614
G1 X102.101 Y90.727 E13.21734
G1 X102.991 Y90.431 E13.24854
G1 X103.903 Y90.213 E13.27972
G1 X104.83 Y90.072 E13.31091
G1 X105.701 Y90.013 E13.33995
G1 X106.33 Y90 E13.36087
G1 X113.451 Y90.001 E13.59772
G1 X114.149 Y90.011 E13.62094
G1 F2700 E8.62094
;MESH:M3NutInsertionTestPlate.stl
G0 F6000 X113.586 Y100.335
G0 X113.586 Y101.414
G0 X113.218 Y127.218
G0 X106.6 Y127.4
;TYPE:WALL-INNER
G1 F2700 E13.62094
G1 F1200 X106.6 Y101.6 E14.47905
G1 X113.4 Y101.6 E14.70522
G1 X113.4 Y127.4 E15.56333
G1 X106.6 Y127.4 E15.7895
G0 F6000 X106.2 Y127.8
;TYPE:WALL-OUTER
G1 F1200 X106.2 Y101.2 E16.67422
G1 X113.8 Y101.2 E16.92699
G1 X113.8 Y127.8 E17.81171
G1 X106.2 Y127.8 E18.06449
G0 F6000 X106.47 Y127.53
G0 X106.71 Y127.01
G0 X106.99 Y127.01
;TYPE:SKIN
G1 F1200 X106.99 Y101.99 E18.89666
G1 X113.01 Y101.99 E19.09688
G1 X113.01 Y127.01 E19.92905
G1 X106.99 Y127.01 E20.12928
G0 F6000 X107.615 Y126.849
G1 F1200 X107.149 Y126.382 E20.15122
G0 F6000 X107.149 Y125.816
G1 F1200 X108.181 Y126.849 E20.19979
G0 F6000 X108.747 Y126.849
G1 F1200 X107.149 Y125.251 E20.27495
G0 F6000 X107.149 Y124.685
G1 F1200 X109.313 Y126.849 E20.37674
G0 F6000 X109.878 Y126.849
G1 F1200 X107.149 Y124.119 E20.50513
G0 F6000 X107.149 Y123.554
G1 F1200 X110.444 Y126.849 E20.66011
G0 F6000 X111.01 Y126.849
G1 F1200 X107.149 Y122.988 E20.84172
G0 F6000 X107.149 Y122.422
G1 F1200 X111.575 Y126.849 E21.04993
G0 F6000 X112.141 Y126.849
G1 F1200 X107.149 Y121.857 E21.28474
G0 F6000 X107.149 Y121.291
G1 F1200 X112.707 Y126.849 E21.54617
G0 F6000 X112.849 Y126.426
G1 F1200 X107.149 Y120.725 E21.81431
G0 F6000 X107.149 Y120.16
G1 F1200 X112.849 Y125.86 E22.08242
G0 F6000 X112.849 Y125.295
G1 F1200 X107.149 Y119.594 E22.35055
G0 F6000 X107.149 Y119.028
G1 F1200 X112.849 Y124.729 E22.61868
G0 F6000 X112.849 Y124.163
G1 F1200 X107.149 Y118.463 E22.8868
G0 F6000 X107.149 Y117.897
G1 F1200 X112.849 Y123.598 E23.15493
G0 F6000 X112.849 Y123.032
G1 F1200 X107.149 Y117.331 E23.42306
G0 F6000 X107.149 Y116.765
G1 F1200 X112.849 Y122.466 E23.6912
G0 F6000 X112.849 Y121.9
G1 F1200 X107.149 Y116.2 E23.95931
G0 F6000 X107.149 Y115.634
G1 F1200 X112.849 Y121.335 E24.22744
G0 F6000 X112.849 Y120.769
G1 F1200 X107.149 Y115.068 E24.49558
G0 F6000 X107.149 Y114.503
G1 F1200 X112.849 Y120.203 E24.76369
G0 F6000 X112.849 Y119.638
G1 F1200 X107.149 Y113.937 E25.03182
G0 F6000 X107.149 Y113.371
G1 F1200 X112.849 Y119.072 E25.29995
G0 F6000 X112.849 Y118.506
G1 F1200 X107.149 Y112.806 E25.56807
G0 F6000 X107.149 Y112.24
G1 F1200 X112.849 Y117.941 E25.8362
G0 F6000 X112.849 Y117.375
G1 F1200 X107.149 Y111.674 E26.10433
G0 F6000 X107.149 Y111.109
G1 F1200 X112.849 Y116.809 E26.37244
G0 F6000 X112.849 Y116.244
G1 F1200 X107.149 Y110.543 E26.64058
G0 F6000 X107.149 Y109.977
G1 F1200 X112.849 Y115.678 E26.90871
G0 F6000 X112.849 Y115.112
G1 F1200 X107.149 Y109.412 E27.17682
G0 F6000 X107.149 Y108.846
G1 F1200 X112.849 Y114.547 E27.44496
G0 F6000 X112.849 Y113.981
G1 F1200 X107.149 Y108.28 E27.71309
G0 F6000 X107.149 Y107.714
G1 F1200 X112.849 Y113.415 E27.98122
G0 F6000 X112.849 Y112.849
G1 F1200 X107.149 Y107.149 E28.24934
G0 F6000 X107.149 Y106.583
G1 F1200 X112.849 Y112.284 E28.51747
G0 F6000 X112.849 Y111.718
G1 F1200 X107.149 Y106.017 E28.7856
G0 F6000 X107.149 Y105.452
G1 F1200 X112.849 Y111.152 E29.05371
G0 F6000 X112.849 Y110.587
G1 F1200 X107.149 Y104.886 E29.32185
G0 F6000 X107.149 Y104.32
G1 F1200 X112.849 Y110.021 E29.58998
G0 F6000 X112.849 Y109.455
G1 F1200 X107.149 Y103.755 E29.85809
G0 F6000 X107.149 Y103.189
G1 F1200 X112.849 Y108.89 E30.12623
G0 F6000 X112.849 Y108.324
G1 F1200 X107.149 Y102.623 E30.39436
G0 F6000 X107.241 Y102.15
G1 F1200 X112.849 Y107.758 E30.65814
G0 F6000 X112.849 Y107.193
G1 F1200 X107.806 Y102.15 E30.89535
G0 F6000 X108.372 Y102.15
G1 F1200 X112.849 Y106.627 E31.10594
G0 F6000 X112.849 Y106.061
G1 F1200 X108.938 Y102.15 E31.2899
G0 F6000 X109.503 Y102.15
G1 F1200 X112.849 Y105.496 E31.44728
G0 F6000 X112.849 Y104.93
G1 F1200 X110.069 Y102.15 E31.57804
G0 F6000 X110.635 Y102.15
G1 F1200 X112.849 Y104.364 E31.68218
G0 F6000 X112.849 Y103.799
G1 F1200 X111.201 Y102.15 E31.75972
G0 F6000 X111.766 Y102.15
G1 F1200 X112.849 Y103.233 E31.81067
G0 F6000 X112.849 Y102.667
G1 F1200 X112.332 Y102.15 E31.83498
G0 F6000 X112.332 Y101.8
G1 F2700 E26.83498
;MESH:NONMESH
G0 F300 X112.332 Y101.8 Z0.4
G0 F6000 X112.332 Y101.71
G0 X106.782 Y101.782
G0 X106.6 Y127.4
;TIME_ELAPSED:58.512746
;LAYER:1
M140 S65
M106 S85
;TYPE:WALL-INNER
;MESH:M3NutInsertionTestPlate.stl
G1 F2700 E31.83498
G1 F1800 X106.6 Y101.6 E32.6931
G1 X113.4 Y101.6 E32.91926
G1 X113.4 Y127.4 E33.77738
G1 X106.6 Y127.4 E34.00354
G0 F9000 X106.2 Y127.8
;TYPE:WALL-OUTER
G1 F1800 X106.2 Y101.2 E34.88826
G1 X113.8 Y101.2 E35.14104
G1 X113.8 Y127.8 E36.02576
G1 X106.2 Y127.8 E36.27854
G0 F9000 X106.47 Y127.53
G0 X106.71 Y127.01
G0 X106.99 Y127.01
;TYPE:SKIN
G1 F1800 X106.99 Y101.99 E37.11071
G1 X113.01 Y101.99 E37.31093
G1 X113.01 Y127.01 E38.1431
G1 X106.99 Y127.01 E38.34333
G0 F9000 X106.71 Y127.01
G0 X106.774 Y127.197
G0 X112.435 Y127.29
G0 X112.435 Y126.849
G1 F1800 X112.849 Y126.435 E38.3628
G0 F9000 X112.849 Y125.869
G1 F1800 X111.869 Y126.849 E38.4089
G0 F9000 X111.304 Y126.849
G1 F1800 X112.849 Y125.304 E38.48157
G0 F9000 X112.849 Y124.738
G1 F1800 X110.738 Y126.849 E38.58086
G0 F9000 X110.172 Y126.849
G1 F1800 X112.849 Y124.172 E38.70678
G0 F9000 X112.849 Y123.607
G1 F1800 X109.607 Y126.849 E38.85928
G0 F9000 X109.041 Y126.849
G1 F1800 X112.849 Y123.041 E39.03839
G0 F9000 X112.849 Y122.475
G1 F1800 X108.475 Y126.849 E39.24413
G0 F9000 X107.91 Y126.849
G1 F1800 X112.849 Y121.91 E39.47645
G0 F9000 X112.849 Y121.344
G1 F1800 X107.344 Y126.849 E39.73539
G0 F9000 X107.149 Y126.478
G1 F1800 X112.849 Y120.778 E40.0035
G0 F9000 X112.849 Y120.213
G1 F1800 X107.149 Y125.913 E40.27161
G0 F9000 X107.149 Y125.347
G1 F1800 X112.849 Y119.647 E40.53972
G0 F9000 X112.849 Y119.081
G1 F1800 X107.149 Y124.781 E40.80783
G0 F9000 X107.149 Y124.216
G1 F1800 X112.849 Y118.516 E41.07594
G0 F9000 X112.849 Y117.95
G1 F1800 X107.149 Y123.65 E41.34405
G0 F9000 X107.149 Y123.084
G1 F1800 X112.849 Y117.384 E41.61216
G0 F9000 X112.849 Y116.818
G1 F1800 X107.149 Y122.518 E41.88027
G0 F9000 X107.149 Y121.953
G1 F1800 X112.849 Y116.253 E42.14838
G0 F9000 X112.849 Y115.687
G1 F1800 X107.149 Y121.387 E42.41649
G0 F9000 X107.149 Y120.821
G1 F1800 X112.849 Y115.121 E42.6846
G0 F9000 X112.849 Y114.556
G1 F1800 X107.149 Y120.256 E42.95271
G0 F9000 X107.149 Y119.69
G1 F1800 X112.849 Y113.99 E43.22082
G0 F9000 X112.849 Y113.424
G1 F1800 X107.149 Y119.124 E43.48893
G0 F9000 X107.149 Y118.559
G1 F1800 X112.849 Y112.859 E43.75704
G0 F9000 X112.849 Y112.293
G1 F1800 X107.149 Y117.993 E44.02515
G0 F9000 X107.149 Y117.427
G1 F1800 X112.849 Y111.727 E44.29326
G0 F9000 X112.849 Y111.162
G1 F1800 X107.149 Y116.862 E44.56137
G0 F9000 X107.149 Y116.296
G1 F1800 X112.849 Y110.596 E44.82949
G0 F9000 X112.849 Y110.03
G1 F1800 X107.149 Y115.73 E45.0976
G0 F9000 X107.149 Y115.165
G1 F1800 X112.849 Y109.465 E45.36571
G0 F9000 X112.849 Y108.899
G1 F1800 X107.149 Y114.599 E45.63382
G0 F9000 X107.149 Y114.033
G1 F1800 X112.849 Y108.333 E45.90193
G0 F9000 X112.849 Y107.768
G1 F1800 X107.149 Y113.468 E46.17004
G0 F9000 X107.149 Y112.902
G1 F1800 X112.849 Y107.202 E46.43815
G0 F9000 X112.849 Y106.636
G1 F1800 X107.149 Y112.336 E46.70626
G0 F9000 X107.149 Y111.77
G1 F1800 X112.849 Y106.07 E46.97437
G0 F9000 X112.849 Y105.505
