;FLAVOR:Marlin
;TIME:6594
;Filament used: 5.83891m
;Layer height: 0.2
;MINX:14.2
;MINY:83.7
;MINZ:0.2
;MAXX:205.8
;MAXY:136.3
;MAXZ:33
;Generated with Cura_SteamEngine 4.6.1
M140 S65
M105
M190 S65
M104 S200
M105
M109 S200
M82 ;absolute extrusion mode
M201 X500.00 Y500.00 Z100.00 E5000.00 ;Setup machine max acceleration
M203 X500.00 Y500.00 Z10.00 E50.00 ;Setup machine max feedrate
M204 P500.00 R1000.00 T500.00 ;Setup Print/Retract/Travel acceleration
M205 X8.00 Y8.00 Z0.40 E5.00 ;Setup Jerk
M220 S100 ;Reset Feedrate
M221 S100 ;Reset Flowrate

G28 ;Home

G92 E0 ;Reset Extruder
G1 Z2.0 F3000 ;Move Z Axis up
G1 X10.1 Y20 Z0.28 F5000.0 ;Move to start position
G1 X10.1 Y200.0 Z0.28 F1500.0 E15 ;Draw the first line
G1 X10.4 Y200.0 Z0.28 F5000.0 ;Move to side a little
G1 X10.4 Y20 Z0.28 F1500.0 E30 ;Draw the second line
G92 E0 ;Reset Extruder
G1 Z2.0 F3000 ;Move Z Axis up

G92 E0
G92 E0
G1 F2700 E-5
;LAYER_COUNT:165
;LAYER:0
M107
G0 F6000 X18.459 Y83.783 Z0.2
;TYPE:SKIRT
G1 F2700 E0
G1 F1200 X19 Y83.7 E0.0182
G1 X29 Y83.7 E0.35081
G1 X29.377 Y83.74 E0.36342
G1 X29.737 Y83.858 E0.37602
G1 X30.064 Y84.048 E0.38859
G1 X30.345 Y84.303 E0.40121
G1 X30.565 Y84.612 E0.41383
G1 X30.717 Y84.959 E0.42643
G1 X30.8 Y85.5 E0.44464
G1 X30.8 Y98.7 E0.88367
G1 X189.2 Y98.7 E6.15207
G1 X189.2 Y85.5 E6.59111
G1 X189.24 Y85.123 E6.60372
G1 X189.358 Y84.763 E6.61632
G1 X189.548 Y84.436 E6.6289
G1 X189.803 Y84.155 E6.64152
G1 X190.112 Y83.935 E6.65413
G1 X190.459 Y83.783 E6.66673
G1 X191 Y83.7 E6.68494
G1 X201 Y83.7 E7.01754
G1 X201.377 Y83.74 E7.03015
G1 X201.737 Y83.858 E7.04275
G1 X202.064 Y84.048 E7.05533
G1 X202.345 Y84.303 E7.06795
G1 X202.565 Y84.612 E7.08056
G1 X202.717 Y84.959 E7.09316
G1 X202.8 Y85.5 E7.11137
G1 X202.8 Y98.7 E7.5504
G1 X204 Y98.7 E7.59031
G1 X204.377 Y98.74 E7.60292
G1 X204.737 Y98.858 E7.61552
G1 X205.064 Y99.048 E7.6281
G1 X205.345 Y99.303 E7.64072
G1 X205.565 Y99.612 E7.65334
G1 X205.717 Y99.959 E7.66594
G1 X205.8 Y100.5 E7.68414
G1 X205.8 Y119.5 E8.31609
G1 X205.76 Y119.877 E8.3287
G1 X205.642 Y120.237 E8.3413
G1 X205.452 Y120.564 E8.35388
G1 X205.197 Y120.845 E8.3665
G1 X204.888 Y121.065 E8.37911
G1 X204.541 Y121.217 E8.39171
G1 X204 Y121.3 E8.40992
G1 X202.8 Y121.3 E8.44983
G1 X202.8 Y134.5 E8.88886
G1 X202.76 Y134.877 E8.90147
G1 X202.642 Y135.237 E8.91407
G1 X202.452 Y135.564 E8.92665
G1 X202.197 Y135.845 E8.93927
G1 X201.888 Y136.065 E8.95189
G1 X201.541 Y136.217 E8.96449
G1 X201 Y136.3 E8.98269
G1 X191 Y136.3 E9.31529
G1 X190.623 Y136.26 E9.3279
G1 X190.263 Y136.142 E9.3405
G1 X189.936 Y135.952 E9.35308
G1 X189.655 Y135.697 E9.3657
G1 X189.435 Y135.388 E9.37832
G1 X189.283 Y135.041 E9.39092
G1 X189.2 Y134.5 E9.40912
G1 X189.2 Y121.3 E9.84816
G1 X30.8 Y121.3 E15.11656
G1 X30.8 Y134.5 E15.5556
G1 X30.76 Y134.877 E15.56821
G1 X30.642 Y135.237 E15.58081
G1 X30.452 Y135.564 E15.59339
G1 X30.197 Y135.845 E15.60601
G1 X29.888 Y136.065 E15.61862
G1 X29.541 Y136.217 E15.63122
G1 X29 Y136.3 E15.64943
G1 X19 Y136.3 E15.98203
G1 X18.623 Y136.26 E15.99464
G1 X18.263 Y136.142 E16.00724
G1 X17.936 Y135.952 E16.01982
G1 X17.655 Y135.697 E16.03244
G1 X17.435 Y135.388 E16.04505
G1 X17.283 Y135.041 E16.05765
G1 X17.2 Y134.5 E16.07586
G1 X17.2 Y121.3 E16.51489
G1 X16 Y121.3 E16.5548
G1 X15.623 Y121.26 E16.56741
G1 X15.263 Y121.142 E16.58001
G1 X14.936 Y120.952 E16.59259
G1 X14.655 Y120.697 E16.60521
G1 X14.435 Y120.388 E16.61783
G1 X14.283 Y120.041 E16.63043
G1 X14.2 Y119.5 E16.64863
G1 X14.2 Y100.5 E17.28058
G1 X14.24 Y100.123 E17.29318
G1 X14.358 Y99.763 E17.30579
G1 X14.548 Y99.436 E17.31836
G1 X14.803 Y99.155 E17.33098
G1 X15.112 Y98.935 E17.3436
G1 X15.459 Y98.783 E17.3562
G1 X16 Y98.7 E17.37441
G1 X17.2 Y98.7 E17.41432
G1 X17.2 Y85.5 E17.85335
G1 X17.24 Y85.123 E17.86596
G1 X17.358 Y84.763 E17.87856
G1 X17.548 Y84.436 E17.89114
G1 X17.803 Y84.155 E17.90376
G1 X18.112 Y83.935 E17.91638
G1 X18.459 Y83.783 E17.92898
G0 F6000 X18.487 Y84.197
G1 F1200 X18.811 Y84.113 E17.94011
G1 X19 Y84.1 E17.94641
G1 X29 Y84.1 E18.27901
G1 X29.332 Y84.14 E18.29013
G1 X29.644 Y84.257 E18.30122
G1 X29.921 Y84.445 E18.31235
G1 X30.144 Y84.693 E18.32344
G1 X30.303 Y84.987 E18.33456
G1 X30.387 Y85.311 E18.34569
G1 X30.4 Y85.5 E18.35199
G1 X30.4 Y99.1 E18.80433
G1 X189.6 Y99.1 E24.09935
G1 X189.6 Y85.5 E24.55168
G1 X189.64 Y85.168 E24.56281
G1 X189.757 Y84.856 E24.57389
G1 X189.945 Y84.579 E24.58502
G1 X190.193 Y84.356 E24.59612
G1 X190.487 Y84.197 E24.60723
G1 X190.811 Y84.113 E24.61837
G1 X191 Y84.1 E24.62467
G1 X201 Y84.1 E24.95727
G1 X201.332 Y84.14 E24.96839
G1 X201.644 Y84.257 E24.97947
G1 X201.921 Y84.445 E24.99061
G1 X202.144 Y84.693 E25.0017
G1 X202.303 Y84.987 E25.01282
G1 X202.387 Y85.311 E25.02395
G1 X202.4 Y85.5 E25.03025
G1 X202.4 Y99.1 E25.48259
G1 X204 Y99.1 E25.5358
G1 X204.332 Y99.14 E25.54693
G1 X204.644 Y99.257 E25.55801
G1 X204.921 Y99.445 E25.56914
G1 X205.144 Y99.693 E25.58024
G1 X205.303 Y99.987 E25.59135
G1 X205.387 Y100.311 E25.60249
G1 X205.4 Y100.5 E25.60879
G1 X205.4 Y119.5 E26.24073
G1 X205.36 Y119.832 E26.25185
G1 X205.243 Y120.144 E26.26294
G1 X205.055 Y120.421 E26.27407
G1 X204.807 Y120.644 E26.28516
G1 X204.513 Y120.803 E26.29628
G1 X204.189 Y120.887 E26.30741
G1 X204 Y120.9 E26.31371
G1 X202.4 Y120.9 E26.36693
G1 X202.4 Y134.5 E26.81927
G1 X202.36 Y134.832 E26.83039
G1 X202.243 Y135.144 E26.84147
G1 X202.055 Y135.421 E26.85261
G1 X201.807 Y135.644 E26.8637
G1 X201.513 Y135.803 E26.87482
G1 X201.189 Y135.887 E26.88595
G1 X201 Y135.9 E26.89225
G1 X191 Y135.9 E27.22485
G1 X190.668 Y135.86 E27.23597
G1 X190.356 Y135.743 E27.24706
G1 X190.079 Y135.555 E27.25819
G1 X189.856 Y135.307 E27.26928
G1 X189.697 Y135.013 E27.2804
G1 X189.613 Y134.689 E27.29153
G1 X189.6 Y134.5 E27.29783
G1 X189.6 Y120.9 E27.75017
G1 X30.4 Y120.9 E33.04519
G1 X30.4 Y134.5 E33.49752
G1 X30.36 Y134.832 E33.50865
G1 X30.243 Y135.144 E33.51973
G1 X30.055 Y135.421 E33.53086
G1 X29.807 Y135.644 E33.54196
G1 X29.513 Y135.803 E33.55307
G1 X29.189 Y135.887 E33.56421
G1 X29 Y135.9 E33.57051
G1 X19 Y135.9 E33.90311
G1 X18.668 Y135.86 E33.91423
G1 X18.356 Y135.743 E33.92531
G1 X18.079 Y135.555 E33.93645
G1 X17.856 Y135.307 E33.94754
G1 X17.697 Y135.013 E33.95866
G1 X17.613 Y134.689 E33.96979
G1 X17.6 Y134.5 E33.97609
G1 X17.6 Y120.9 E34.42843
G1 X16 Y120.9 E34.48164
G1 X15.668 Y120.86 E34.49277
G1 X15.356 Y120.743 E34.50385
G1 X15.079 Y120.555 E34.51498
G1 X14.856 Y120.307 E34.52608
G1 X14.697 Y120.013 E34.53719
G1 X14.613 Y119.689 E34.54833
G1 X14.6 Y119.5 E34.55463
G1 X14.6 Y100.5 E35.18657
G1 X14.64 Y100.168 E35.19769
G1 X14.757 Y99.856 E35.20878
G1 X14.945 Y99.579 E35.21991
G1 X15.193 Y99.356 E35.231
G1 X15.487 Y99.197 E35.24212
G1 X15.811 Y99.113 E35.25325
G1 X16 Y99.1 E35.25955
G1 X17.6 Y99.1 E35.31277
G1 X17.6 Y85.5 E35.76511
G1 X17.64 Y85.168 E35.77623
G1 X17.757 Y84.856 E35.78731
G1 X17.945 Y84.579 E35.79845
G1 X18.193 Y84.356 E35.80954
G1 X18.487 Y84.197 E35.82066
G0 F6000 X18.575 Y84.595
G1 F1200 X18.845 Y84.512 E35.83005
G1 X19 Y84.5 E35.83522
G1 X29 Y84.5 E36.16782
G1 X29.279 Y84.54 E36.1772
G1 X29.536 Y84.656 E36.18658
G1 X29.751 Y84.839 E36.19597
G1 X29.905 Y85.075 E36.20534
G1 X29.988 Y85.345 E36.21473
G1 X30 Y85.5 E36.21991
G1 X30 Y99.5 E36.68555
G1 X190 Y99.5 E42.00717
G1 X190 Y85.5 E42.47281
G1 X190.04 Y85.221 E42.48219
G1 X190.156 Y84.964 E42.49156
G1 X190.339 Y84.749 E42.50095
G1 X190.575 Y84.595 E42.51033
G1 X190.845 Y84.512 E42.51972
G1 X191 Y84.5 E42.52489
G1 X201 Y84.5 E42.85749
G1 X201.279 Y84.54 E42.86687
G1 X201.536 Y84.656 E42.87625
G1 X201.751 Y84.839 E42.88564
G1 X201.905 Y85.075 E42.89501
G1 X201.988 Y85.345 E42.9044
G1 X202 Y85.5 E42.90958
G1 X202 Y99.5 E43.37522
G1 X204 Y99.5 E43.44174
G1 X204.279 Y99.54 E43.45111
G1 X204.536 Y99.656 E43.46049
G1 X204.751 Y99.839 E43.46988
G1 X204.905 Y100.075 E43.47925
G1 X204.988 Y100.345 E43.48865
G1 X205 Y100.5 E43.49382
G1 X205 Y119.5 E44.12576
G1 X204.96 Y119.779 E44.13514
G1 X204.844 Y120.036 E44.14451
G1 X204.661 Y120.251 E44.15391
G1 X204.425 Y120.405 E44.16328
G1 X204.155 Y120.488 E44.17267
G1 X204 Y120.5 E44.17784
G1 X202 Y120.5 E44.24436
G1 X202 Y134.5 E44.71001
G1 X201.96 Y134.779 E44.71938
G1 X201.844 Y135.036 E44.72876
G1 X201.661 Y135.251 E44.73815
G1 X201.425 Y135.405 E44.74752
G1 X201.155 Y135.488 E44.75692
G1 X201 Y135.5 E44.76209
G1 X191 Y135.5 E45.09469
G1 X190.721 Y135.46 E45.10406
G1 X190.464 Y135.344 E45.11344
G1 X190.249 Y135.161 E45.12283
G1 X190.095 Y134.925 E45.1322
G1 X190.012 Y134.655 E45.1416
G1 X190 Y134.5 E45.14677
G1 X190 Y120.5 E45.61241
G1 X30 Y120.5 E50.93403
G1 X30 Y134.5 E51.39968
G1 X29.96 Y134.779 E51.40905
G1 X29.844 Y135.036 E51.41843
G1 X29.661 Y135.251 E51.42782
G1 X29.425 Y135.405 E51.43719
G1 X29.155 Y135.488 E51.44659
G1 X29 Y135.5 E51.45176
G1 X19 Y135.5 E51.78436
G1 X18.721 Y135.46 E51.79373
G1 X18.464 Y135.344 E51.80311
G1 X18.249 Y135.161 E51.8125
G1 X18.095 Y134.925 E51.82188
G1 X18.012 Y134.655 E51.83127
G1 X18 Y134.5 E51.83644
G1 X18 Y120.5 E52.30208
G1 X16 Y120.5 E52.3686
G1 X15.721 Y120.46 E52.37798
G1 X15.464 Y120.344 E52.38736
G1 X15.249 Y120.161 E52.39675
G1 X15.095 Y119.925 E52.40612
G1 X15.012 Y119.655 E52.41551
G1 X15 Y119.5 E52.42068
G1 X15 Y100.5 E53.05263
G1 X15.04 Y100.221 E53.062
G1 X15.156 Y99.964 E53.07138
G1 X15.339 Y99.749 E53.08077
G1 X15.575 Y99.595 E53.09014
G1 X15.845 Y99.512 E53.09954
G1 X16 Y99.5 E53.10471
G1 X18 Y99.5 E53.17123
G1 X18 Y85.5 E53.63687
G1 X18.04 Y85.221 E53.64625
G1 X18.156 Y84.964 E53.65562
G1 X18.339 Y84.749 E53.66501
G1 X18.575 Y84.595 E53.67439
G0 F6000 X18.726 Y84.966
G1 F1200 X19 Y84.9 E53.68376
G1 X29 Y84.9 E54.01636
G1 X29.215 Y84.94 E54.02364
G1 X29.401 Y85.053 E54.03087
G1 X29.534 Y85.226 E54.03813
G1 X29.6 Y85.5 E54.04751
G1 X29.6 Y99.9 E54.52645
G1 X190.4 Y99.9 E59.87468
G1 X190.4 Y85.5 E60.35363
G1 X190.44 Y85.285 E60.3609
G1 X190.553 Y85.099 E60.36814
G1 X190.726 Y84.966 E60.3754
G1 X191 Y84.9 E60.38477
G1 X201 Y84.9 E60.71737
G1 X201.215 Y84.94 E60.72465
G1 X201.401 Y85.053 E60.73189
G1 X201.534 Y85.226 E60.73914
G1 X201.6 Y85.5 E60.74852
G1 X201.6 Y99.9 E61.22746
G1 X204 Y99.9 E61.30729
G1 X204.215 Y99.94 E61.31456
G1 X204.401 Y100.053 E61.3218
G1 X204.534 Y100.226 E61.32906
G1 X204.6 Y100.5 E61.33843
G1 X204.6 Y119.5 E61.97037
G1 X204.56 Y119.715 E61.97765
G1 X204.447 Y119.901 E61.98489
G1 X204.274 Y120.034 E61.99214
G1 X204 Y120.1 E62.00152
G1 X201.6 Y120.1 E62.08134
G1 X201.6 Y134.5 E62.56029
G1 X201.56 Y134.715 E62.56756
G1 X201.447 Y134.901 E62.5748
G1 X201.274 Y135.034 E62.58206
G1 X201 Y135.1 E62.59143
G1 X191 Y135.1 E62.92403
G1 X190.785 Y135.06 E62.93131
G1 X190.599 Y134.947 E62.93855
G1 X190.466 Y134.774 E62.9458
G1 X190.4 Y134.5 E62.95518
G1 X190.4 Y120.1 E63.43412
G1 X29.6 Y120.1 E68.78235
G1 X29.6 Y134.5 E69.2613
G1 X29.56 Y134.715 E69.26857
G1 X29.447 Y134.901 E69.27581
G1 X29.274 Y135.034 E69.28307
G1 X29 Y135.1 E69.29244
G1 X19 Y135.1 E69.62504
G1 X18.785 Y135.06 E69.63232
G1 X18.599 Y134.947 E69.63956
G1 X18.466 Y134.774 E69.64681
G1 X18.4 Y134.5 E69.65619
G1 X18.4 Y120.1 E70.13513
G1 X16 Y120.1 E70.21496
G1 X15.785 Y120.06 E70.22223
G1 X15.599 Y119.947 E70.22947
G1 X15.466 Y119.774 E70.23673
G1 X15.4 Y119.5 E70.2461
G1 X15.4 Y100.5 E70.87805
G1 X15.44 Y100.285 E70.88532
G1 X15.553 Y100.099 E70.89256
G1 X15.726 Y99.966 E70.89982
G1 X16 Y99.9 E70.90919
G1 X18.4 Y99.9 E70.98901
G1 X18.4 Y85.5 E71.46796
G1 X18.44 Y85.285 E71.47523
G1 X18.553 Y85.099 E71.48247
G1 X18.726 Y84.966 E71.48973
G0 F6000 X19 Y85.3
G1 F1200 X29 Y85.3 E71.82233
G1 X29.119 Y85.339 E71.8265
G1 X29.2 Y85.5 E71.83249
G1 X29.2 Y100.3 E72.32474
G1 X190.8 Y100.3 E77.69958
G1 X190.8 Y85.5 E78.19183
G1 X190.839 Y85.381 E78.19599
G1 X191 Y85.3 E78.20199
G1 X201 Y85.3 E78.53459
G1 X201.119 Y85.339 E78.53875
G1 X201.2 Y85.5 E78.54475
G1 X201.2 Y100.3 E79.037
G1 X204 Y100.3 E79.13013
G1 X204.119 Y100.339 E79.13429
G1 X204.2 Y100.5 E79.14029
G1 X204.2 Y119.5 E79.77223
G1 X204.161 Y119.619 E79.77639
G1 X204 Y119.7 E79.78239
G1 X201.2 Y119.7 E79.87552
G1 X201.2 Y134.5 E80.36777
G1 X201.161 Y134.619 E80.37193
G1 X201 Y134.7 E80.37793
G1 X191 Y134.7 E80.71053
G1 X190.881 Y134.661 E80.71469
G1 X190.8 Y134.5 E80.72069
G1 X190.8 Y119.7 E81.21294
G1 X29.2 Y119.7 E86.58778
G1 X29.2 Y134.5 E87.08003
G1 X29.161 Y134.619 E87.08419
G1 X29 Y134.7 E87.09019
G1 X19 Y134.7 E87.42279
G1 X18.881 Y134.661 E87.42695
G1 X18.8 Y134.5 E87.43295
G1 X18.8 Y119.7 E87.9252
G1 X16 Y119.7 E88.01832
G1 X15.881 Y119.661 E88.02249
G1 X15.8 Y119.5 E88.02848
G1 X15.8 Y100.5 E88.66043
G1 X15.839 Y100.381 E88.66459
G1 X16 Y100.3 E88.67059
G1 X18.8 Y100.3 E88.76371
G1 X18.8 Y85.5 E89.25596
G1 X18.839 Y85.381 E89.26013
G1 X19 Y85.3 E89.26612
G1 F2700 E84.26612
;MESH:mimax3Holder.stl
G0 F6000 X19 Y84.835
G0 X28.586 Y84.835
G0 X28.586 Y85.914
G0 X28.572 Y100.928
G0 X191.782 Y101.282
G0 X191.782 Y86.282
G0 X200.218 Y86.282
G0 X200.218 Y101.282
G0 X203.218 Y101.282
G0 X203.218 Y118.718
G0 X200.218 Y118.718
G0 X200.218 Y133.718
G0 X191.5 Y134.03
G0 X191.2 Y134.3
;TYPE:WALL-OUTER
G1 F2700 E89.26612
G1 F1200 X191.2 Y119.3 E89.76503
G1 X28.8 Y119.3 E95.16647
G1 X28.8 Y134.3 E95.66537
G1 X19.2 Y134.3 E95.98467
G1 X19.2 Y119.3 E96.48357
G1 X16.2 Y119.3 E96.58335
G1 X16.2 Y100.7 E97.20199
G1 X19.2 Y100.7 E97.30177
G1 X19.2 Y85.7 E97.80067
G1 X28.8 Y85.7 E98.11997
G1 X28.8 Y100.7 E98.61887
G1 X191.2 Y100.7 E104.02032
G1 X191.2 Y85.7 E104.51922
G1 X200.8 Y85.7 E104.83852
G1 X200.8 Y100.7 E105.33742
G1 X203.8 Y100.7 E105.4372
G1 X203.8 Y119.3 E106.05584
G1 X200.8 Y119.3 E106.15562
G1 X200.8 Y134.3 E106.65452
G1 X191.2 Y134.3 E106.97382
G0 F6000 X191.6 Y133.9
;TYPE:WALL-INNER
G1 F1200 X191.6 Y118.9 E107.47272
G1 X28.4 Y118.9 E112.90078
G1 X28.4 Y133.9 E113.39968
G1 X19.6 Y133.9 E113.69237
G1 X19.6 Y118.9 E114.19127
G1 X16.6 Y118.9 E114.29105
G1 X16.6 Y101.1 E114.88308
G1 X19.6 Y101.1 E114.98286
G1 X19.6 Y86.1 E115.48176
G1 X28.4 Y86.1 E115.77445
G1 X28.4 Y101.1 E116.27335
G1 X191.6 Y101.1 E121.70141
G1 X191.6 Y86.1 E122.20031
G1 X200.4 Y86.1 E122.493
G1 X200.4 Y101.1 E122.9919
G1 X203.4 Y101.1 E123.09168
G1 X203.4 Y118.9 E123.68371
G1 X200.4 Y118.9 E123.78349
G1 X200.4 Y133.9 E124.28239
G1 X191.6 Y133.9 E124.57508
G0 F6000 X191.99 Y133.51
;TYPE:SKIN
G1 F1200 X191.99 Y118.51 E125.07399
G1 X28.01 Y118.51 E130.52798
G1 X28.01 Y133.51 E131.02688
G1 X19.99 Y133.51 E131.29363
G1 X19.99 Y118.51 E131.79253
G1 X16.99 Y118.51 E131.89231
G1 X16.99 Y101.49 E132.4584
G1 X19.99 Y101.49 E132.55818
G1 X19.99 Y86.49 E133.05708
G1 X28.01 Y86.49 E133.32383
G1 X28.01 Y101.49 E133.82273
G1 X191.99 Y101.49 E139.27673
G1 X191.99 Y86.49 E139.77563
G1 X200.01 Y86.49 E140.04238
G1 X200.01 Y101.49 E140.54128
G1 X203.01 Y101.49 E140.64106
G1 X203.01 Y118.51 E141.20715
G1 X200.01 Y118.51 E141.30693
G1 X200.01 Y133.51 E141.80583
G1 X191.99 Y133.51 E142.07257
G1 F2700 E137.07257
G0 F6000 X191.71 Y133.51
G0 X191.782 Y133.718
G0 X200.218 Y133.718
G0 X200.218 Y118.718
G0 X203.218 Y118.718
G0 X203.218 Y101.282
G0 X200.518 Y101.282
G0 X200.29 Y86.712
G0 X199.849 Y86.712
G1 F2700 E142.07257
G1 F1200 X199.787 Y86.65 E142.07549
G0 F6000 X199.221 Y86.65
G1 F1200 X199.849 Y87.278 E142.10503
G0 F6000 X199.849 Y87.843
G1 F1200 X198.655 Y86.65 E142.16117
G0 F6000 X198.09 Y86.65
G1 F1200 X199.849 Y88.409 E142.24391
G0 F6000 X199.849 Y88.975
G1 F1200 X197.524 Y86.65 E142.35327
G0 F6000 X196.958 Y86.65
G1 F1200 X199.849 Y89.54 E142.48923
G0 F6000 X199.849 Y90.106
G1 F1200 X196.393 Y86.65 E142.65179
G0 F6000 X195.827 Y86.65
G1 F1200 X199.849 Y90.672 E142.84097
G0 F6000 X199.849 Y91.237
G1 F1200 X195.261 Y86.65 E143.05675
