;FLAVOR:Marlin
;TIME:3198
;Filament used: 3.6447m
;Layer height: 0.2
;MINX:72.851
;MINY:72.846
;MINZ:0.24
;MAXX:147.127
;MAXY:147.154
;MAXZ:24.89
;Generated with Cura_SteamEngine 4.6.1
M140 S65
M105
M190 S65
M104 S200
M105
M109 S200
M82 ;absolute extrusion mode
M201 X500.00 Y500.00 Z100.00 E5000.00 ;Setup machine max acceleration
M203 X500.00 Y500.00 Z10.00 E50.00 ;Setup machine max feedrate
M204 P500.00 R1000.00 T500.00 ;Setup Print/Retract/Travel acceleration
M205 X8.00 Y8.00 Z0.40 E5.00 ;Setup Jerk
M220 S100 ;Reset Feedrate
M221 S100 ;Reset Flowrate

G28 ;Home

G92 E0 ;Reset Extruder
G1 Z2.0 F3000 ;Move Z Axis up
G1 X10.1 Y20 Z0.28 F5000.0 ;Move to start position
G1 X10.1 Y200.0 Z0.28 F1500.0 E15 ;Draw the first line
G1 X10.4 Y200.0 Z0.28 F5000.0 ;Move to side a little
G1 X10.4 Y20 Z0.28 F1500.0 E30 ;Draw the second line
G92 E0 ;Reset Extruder
G1 Z2.0 F3000 ;Move Z Axis up

G92 E0
G92 E0
G1 F2700 E-5
;LAYER_COUNT:119
;LAYER:-6
M107
G0 F12000 X84.304 Y84.649 Z0.24
;TYPE:SUPPORT-INTERFACE
G1 F2700 E0
G1 F1800 X85.426 Y83.561 E0.12476
G1 X87.094 Y82.104 E0.30155
G1 X87.945 Y81.416 E0.3889
G1 X88.484 Y81.028 E0.44191
G1 X90.758 Y79.46 E0.6624
G1 X90.911 Y79.363 E0.67686
G1 X91.647 Y78.926 E0.74519
G1 X93.493 Y77.901 E0.91374
G1 X94.954 Y77.194 E1.0433
G1 X96.931 Y76.362 E1.21452
G1 X98.346 Y75.849 E1.33466
G1 X100.657 Y75.143 E1.52755
G1 X101.699 Y74.867 E1.6136
G1 X102.228 Y74.758 E1.65671
G1 X104.564 Y74.324 E1.84637
G1 X106.071 Y74.126 E1.9677
G1 X108.203 Y73.955 E2.13843
G1 X109.413 Y73.908 E2.23509
G1 X109.961 Y73.913 E2.27884
G1 X112.071 Y73.969 E2.44733
G1 X113.668 Y74.1 E2.57524
G1 X115.903 Y74.401 E2.75525
G1 X117.411 Y74.686 E2.87776
G1 X119.693 Y75.244 E3.06529
G1 X121.216 Y75.705 E3.19231
G1 X123.368 Y76.486 E3.37505
G1 X124.818 Y77.104 E3.50087
G1 X126.7 Y78.02 E3.66795
G1 X126.861 Y78.104 E3.68244
G1 X128.196 Y78.846 E3.80436
G1 X130.116 Y80.051 E3.98531
G1 X131.399 Y80.955 E4.11059
G1 X133.199 Y82.372 E4.29346
G1 X134.353 Y83.381 E4.41582
G1 X135.997 Y84.986 E4.59922
G1 X137.045 Y86.124 E4.72271
G1 X138.498 Y87.88 E4.90465
G1 X139.431 Y89.138 E5.02967
G1 X140.691 Y91.044 E5.21206
G1 X141.489 Y92.405 E5.338
G1 X142.547 Y94.443 E5.52129
G1 X143.196 Y95.878 E5.64701
G1 X143.991 Y97.917 E5.82171
G1 X144.497 Y99.455 E5.95095
G1 X145.096 Y101.662 E6.1335
G1 X145.422 Y103.175 E6.25704
G1 X145.776 Y105.353 E6.43318
G1 X145.945 Y106.988 E6.56439
G1 X146.063 Y109.282 E6.74775
G1 X146.06 Y110.866 E6.87419
G1 X145.933 Y113.119 E7.05432
G1 X145.767 Y114.645 E7.17685
G1 X145.406 Y116.89 E7.35836
G1 X145.219 Y117.835 E7.43525
G1 X145.183 Y117.989 E7.44788
G1 X145.047 Y118.513 E7.49109
G1 X144.47 Y120.624 E7.66578
G1 X143.971 Y122.128 E7.79227
G1 X143.15 Y124.226 E7.97211
G1 X142.486 Y125.682 E8.09985
G1 X141.518 Y127.547 E8.26758
G1 X140.71 Y128.927 E8.39523
G1 X140.623 Y129.064 E8.40819
G1 X139.356 Y130.962 E8.59035
G1 X138.442 Y132.187 E8.71235
G1 X136.975 Y133.951 E8.89549
G1 X135.919 Y135.091 E9.01954
G1 X134.303 Y136.66 E9.19933
G1 X133.115 Y137.697 E9.32521
G1 X131.299 Y139.121 E9.50942
G1 X129.968 Y140.049 E9.63894
G1 X128.083 Y141.222 E9.81617
G1 X126.683 Y141.99 E9.94363
G1 X124.637 Y142.977 E10.12496
G1 X123.367 Y143.514 E10.23503
G1 X123.198 Y143.579 E10.24948
G1 X121.148 Y144.319 E10.42346
G1 X119.582 Y144.786 E10.5539
G1 X117.289 Y145.339 E10.74219
G1 X115.763 Y145.622 E10.86608
G1 X113.755 Y145.891 E11.0278
G1 X112.982 Y145.974 E11.08985
G1 X111.972 Y146.032 E11.17061
G1 X109.949 Y146.087 E11.33215
G1 X109.333 Y146.09 E11.38133
G1 X108.151 Y146.041 E11.47576
G1 X105.961 Y145.861 E11.65116
G1 X104.43 Y145.652 E11.77451
G1 X102.141 Y145.222 E11.96042
G1 X101.056 Y144.974 E12.04927
G1 X100.553 Y144.83 E12.09103
G1 X98.334 Y144.147 E12.27636
G1 X96.939 Y143.639 E12.39487
G1 X94.836 Y142.748 E12.57719
G1 X93.552 Y142.124 E12.69114
G1 X93.399 Y142.044 E12.70492
G1 X91.46 Y140.968 E12.88194
G1 X90.117 Y140.124 E13.00855
G1 X88.291 Y138.838 E13.18683
G1 X87.557 Y138.282 E13.26034
G1 X87.417 Y138.169 E13.2747
G1 X86.976 Y137.791 E13.32106
G1 X85.362 Y136.378 E13.4923
G1 X84.297 Y135.343 E13.61084
G1 X84.186 Y135.227 E13.62366
G1 X82.668 Y133.578 E13.80257
G1 X81.666 Y132.364 E13.92822
G1 X80.317 Y130.543 E14.10912
G1 X79.451 Y129.231 E14.23461
G1 X78.375 Y127.41 E14.40345
G1 X78.293 Y127.26 E14.41709
G1 X77.568 Y125.856 E14.54323
G1 X76.631 Y123.771 E14.7257
G1 X76.07 Y122.322 E14.84973
G1 X75.364 Y120.171 E15.03044
G1 X74.957 Y118.666 E15.15489
G1 X74.495 Y116.517 E15.33036
G1 X74.246 Y114.942 E15.45764
G1 X73.996 Y112.577 E15.64748
G1 X73.915 Y111.028 E15.77129
G1 X73.918 Y108.804 E15.94882
G1 X73.999 Y107.291 E16.06977
G1 X74.244 Y104.989 E16.25456
G1 X74.503 Y103.394 E16.38355
G1 X74.973 Y101.25 E16.55876
G1 X75.381 Y99.762 E16.68192
G1 X76.132 Y97.507 E16.87164
G1 X76.704 Y96.053 E16.99637
G1 X77.66 Y93.961 E17.17997
G1 X78.308 Y92.716 E17.29201
G1 X78.392 Y92.566 E17.30573
G1 X79.521 Y90.657 E17.48277
G1 X80.386 Y89.356 E17.60748
G1 X81.735 Y87.541 E17.788
G1 X82.765 Y86.306 E17.91637
G1 X84.304 Y84.649 E18.09688
G0 F12000 X84.8 Y84.168
G1 F1800 X84.8 Y135.831 E22.22085
G0 F12000 X86.4 Y137.286
G1 F1800 X86.4 Y82.71 E26.57734
G0 F12000 X88 Y81.376
G1 F1800 X88 Y138.617 E31.14657
G0 F12000 X89.6 Y139.759
G1 F1800 X89.6 Y80.258 E35.89619
G0 F12000 X91.2 Y79.191
G1 F1800 X91.2 Y140.804 E40.81441
G0 F12000 X92.8 Y141.711
G1 F1800 X92.8 Y78.285 E45.87735
G0 F12000 X94.4 Y77.462
G1 F1800 X94.4 Y142.536 E51.07183
G0 F12000 X96 Y143.241
G1 F1800 X96 Y76.753 E56.37919
G0 F12000 X97.6 Y76.119
G1 F1800 X97.6 Y143.879 E61.78809
G0 F12000 X99.2 Y144.413
G1 F1800 X99.2 Y75.588 E67.282
G0 F12000 X100.8 Y75.105
G1 F1800 X100.8 Y144.9 E72.85334
G0 F12000 X102.4 Y145.27
G1 F1800 X102.4 Y74.726 E78.48446
G0 F12000 X104 Y74.428
G1 F1800 X104 Y145.571 E84.16341
G0 F12000 X105.6 Y145.811
G1 F1800 X105.6 Y74.187 E89.88074
G0 F12000 X107.2 Y74.035
G1 F1800 X107.2 Y145.962 E95.62227
G0 F12000 X108.8 Y146.067
G1 F1800 X108.8 Y73.931 E101.38048
G0 F12000 X110.4 Y73.925
G1 F1800 X110.4 Y146.075 E107.1398
G0 F12000 X112 Y146.031
G1 F1800 X112 Y73.968 E112.89218
G0 F12000 X113.6 Y74.095
G1 F1800 X113.6 Y145.908 E118.62461
G0 F12000 X115.2 Y145.698
G1 F1800 X115.2 Y74.307 E124.32334
G0 F12000 X116.8 Y74.571
G1 F1800 X116.8 Y145.43 E129.97962
G0 F12000 X118.4 Y145.072
G1 F1800 X118.4 Y74.928 E135.57881
G0 F12000 X120 Y75.337
G1 F1800 X120 Y144.662 E141.11263
G0 F12000 X121.6 Y144.156
G1 F1800 X121.6 Y75.845 E146.56551
G0 F12000 X123.2 Y76.426
G1 F1800 X123.2 Y143.579 E151.92596
G0 F12000 X124.8 Y142.899
G1 F1800 X124.8 Y77.097 E157.17856
G0 F12000 X126.4 Y77.874
G1 F1800 X126.4 Y142.127 E162.30751
G0 F12000 X128 Y141.268
G1 F1800 X128 Y78.738 E167.29892
G0 F12000 X129.6 Y79.728
G1 F1800 X129.6 Y140.278 E172.13229
G0 F12000 X131.2 Y139.191
G1 F1800 X131.2 Y80.815 E176.79211
G0 F12000 X132.8 Y82.058
G1 F1800 X132.8 Y137.945 E181.25325
G0 F12000 X134.4 Y136.566
G1 F1800 X134.4 Y83.427 E185.49504
G0 F12000 X136 Y84.99
G1 F1800 X136 Y135.004 E189.48737
G0 F12000 X137.6 Y133.2
G1 F1800 X137.6 Y86.795 E193.19162
G0 F12000 X139.2 Y88.827
G1 F1800 X139.2 Y131.172 E196.57178
G0 F12000 X140.8 Y128.774
G1 F1800 X140.8 Y91.23 E199.5687
G0 F12000 X142.4 Y94.16
G1 F1800 X142.4 Y125.848 E202.09818
G0 F12000 X144 Y122.041
G1 F1800 X144 Y97.945 E204.02162
G1 F2700 E199.02162
G0 F12000 X145.01 Y97.61
G0 X145.522 Y99.166
G0 X146.134 Y101.429
G0 X146.651 Y104.099
G0 X145.6 Y104.271
G1 F2700 E204.02162
G1 F1800 X145.6 Y115.684 E204.93266
G1 F2700 E199.93266
G0 F12000 X146.652 Y115.852
G0 X146.213 Y118.253
G0 X145.484 Y120.949
G0 X144.966 Y122.506
G0 X144.123 Y124.656
G0 X143.44 Y126.154
G0 X142.362 Y128.22
G0 X141.514 Y129.647
G0 X140.216 Y131.59
G0 X139.275 Y132.851
G0 X137.77 Y134.659
G0 X136.667 Y135.849
G0 X135.011 Y137.455
G0 X133.786 Y138.524
G0 X131.917 Y139.988
G0 X130.538 Y140.948
G0 X128.604 Y142.15
G0 X127.154 Y142.944
G0 X125.057 Y143.954
G0 X123.578 Y144.574
G0 X121.475 Y145.333
G0 X119.851 Y145.816
G0 X117.493 Y146.384
G0 X115.924 Y146.674
G0 X113.051 Y147.036
G0 X109.297 Y147.154
G0 X105.842 Y146.919
G0 X104.253 Y146.702
G0 X100.775 Y146.001
G0 X97.986 Y145.153
G0 X96.529 Y144.622
G0 X94.385 Y143.713
G0 X92.9 Y142.985
G0 X90.903 Y141.875
G0 X89.524 Y141.008
G0 X86.742 Y138.992
G0 X84.628 Y137.149
G0 X84.284 Y136.812
G0 X82.416 Y134.88
G0 X83.2 Y134.155
G1 F2700 E204.93266
G1 F1800 X83.2 Y85.837 E208.78961
G0 F12000 X81.6 Y87.722
G1 F1800 X81.6 Y132.274 E212.34594
G0 F12000 X80 Y130.062
G1 F1800 X80 Y89.936 E215.54898
G0 F12000 X78.4 Y92.552
G1 F1800 X78.4 Y127.452 E218.33484
G0 F12000 X76.8 Y124.147
G1 F1800 X76.8 Y95.842 E220.59427
G1 F2700 E215.59427
G0 F12000 X75.682 Y95.737
G0 X75.344 Y96.605
G0 X74.334 Y99.55
G0 X75.2 Y100.422
G1 F2700 E220.59427
G1 F1800 X75.2 Y119.564 E222.12227
G1 F2700 E217.12227
G0 F300 X75.2 Y119.564 Z0.54
G0 F12000 X74.342 Y120.471
G0 X75.124 Y122.836
G0 X75.704 Y124.315
G0 X76.668 Y126.439
G0 X77.449 Y127.933
G0 X78.612 Y129.898
G0 X79.505 Y131.239
G0 X80.932 Y133.153
G0 X81.225 Y133.504
G0 X83.404 Y135.949
G0 X84.186 Y135.226
;TIME_ELAPSED:106.996401
;LAYER:-5
M140 S65
;TYPE:SUPPORT
G1 F2700 E222.12227
G1 F1800 X84.297 Y135.341 E222.13822
G1 X85.361 Y136.376 E222.28633
G1 X86.191 Y137.103 E222.39642
G1 X82.701 Y133.612 E222.88897
G1 X82.668 Y133.577 E222.89377
G1 X81.666 Y132.363 E223.05083
G1 X80.316 Y130.542 E223.27702
G1 X79.451 Y129.23 E223.43382
G1 X79.044 Y128.542 E223.51358
G1 X91.481 Y140.979 E225.26858
G1 X93.398 Y142.043 E225.48735
G1 X93.552 Y142.123 E225.50466
G1 X94.5 Y142.583 E225.6098
G1 X77.401 Y125.484 E228.02266
G1 X76.63 Y123.77 E228.21019
G1 X76.332 Y123.001 E228.29248
G1 X96.986 Y143.655 E231.20698
G1 X98.333 Y144.145 E231.35
G1 X99.138 Y144.393 E231.43405
G1 X75.582 Y120.837 E234.75805
G1 X75.364 Y120.17 E234.82807
G1 X75.006 Y118.846 E234.96493
G1 X101.155 Y144.995 E238.65483
G1 X102.141 Y145.221 E238.75577
G1 X102.945 Y145.371 E238.83737
G1 X74.605 Y117.031 E242.83645
G1 X74.494 Y116.516 E242.88902
G1 X74.304 Y115.317 E243.01015
G1 X104.671 Y145.683 E247.29519
G1 X105.961 Y145.86 E247.42512
G1 X106.289 Y145.887 E247.45795
G1 X74.116 Y113.714 E251.99791
G1 X73.996 Y112.576 E252.11209
G1 X73.973 Y112.157 E252.15396
G1 X107.829 Y146.013 E256.93141
G1 X108.15 Y146.04 E256.96355
G1 X109.319 Y146.088 E257.08029
G1 X73.915 Y110.684 E262.07618
G1 X73.916 Y109.272 E262.21707
G1 X110.71 Y146.065 E267.40903
G1 X111.971 Y146.031 E267.5349
G1 X112.083 Y146.024 E267.5461
G1 X73.965 Y107.906 E272.92496
G1 X73.999 Y107.29 E272.98652
G1 X74.072 Y106.599 E273.05585
G1 X113.4 Y145.927 E278.60545
G1 X113.755 Y145.89 E278.64107
G1 X114.656 Y145.769 E278.73178
G1 X74.208 Y105.32 E284.4395
G1 X74.244 Y104.987 E284.47292
G1 X74.389 Y104.088 E284.56378
G1 X115.897 Y145.596 E290.42101
G1 X117.09 Y145.374 E290.54209
G1 X74.611 Y102.896 E296.53626
G1 X74.865 Y101.735 E296.65485
G1 X118.238 Y145.108 E302.77525
G1 X119.378 Y144.833 E302.89226
G1 X75.149 Y100.605 E309.13338
G1 X75.381 Y99.76 E309.22081
G1 X75.465 Y99.506 E309.24751
G1 X120.476 Y144.517 E315.59905
G1 X121.147 Y144.318 E315.66888
G1 X121.546 Y144.174 E315.71121
G1 X75.818 Y98.446 E322.16392
G1 X76.132 Y97.506 E322.26281
G1 X76.177 Y97.39 E322.27523
G1 X122.585 Y143.798 E328.8239
G1 X123.197 Y143.578 E328.88879
G1 X123.366 Y143.513 E328.90685
G1 X123.61 Y143.409 E328.93332
G1 X76.576 Y96.375 E335.57033
G1 X76.704 Y96.051 E335.60509
G1 X77.006 Y95.39 E335.6776
G1 X124.604 Y142.989 E342.39426
G1 X124.636 Y142.976 E342.39771
G1 X125.56 Y142.53 E342.50008
G1 X77.449 Y94.419 E349.28906
G1 X77.66 Y93.96 E349.33947
G1 X77.914 Y93.471 E349.39445
G1 X126.514 Y142.07 E356.25237
G1 X126.683 Y141.989 E356.27107
G1 X127.434 Y141.576 E356.35659
G1 X78.403 Y92.545 E363.27539
G1 X78.928 Y91.656 E363.37841
G1 X128.335 Y141.063 E370.35027
G1 X129.207 Y140.521 E370.45272
G1 X79.454 Y90.768 E377.4734
G1 X79.521 Y90.656 E377.48642
G1 X80.014 Y89.913 E377.5754
G1 X130.073 Y139.973 E384.63933
G1 X130.907 Y139.392 E384.74075
G1 X80.591 Y89.077 E391.84081
G1 X81.194 Y88.266 E391.94165
G1 X131.719 Y138.79 E399.0712
G1 X132.511 Y138.168 E399.17169
G1 X81.802 Y87.459 E406.32728
G1 X82.445 Y86.687 E406.42752
G1 X133.295 Y137.538 E413.60308
G1 X134.05 Y136.878 E413.70314
G1 X83.107 Y85.936 E420.89168
G1 X83.788 Y85.202 E420.99158
G1 X134.78 Y136.195 E428.18718
G1 X135.498 Y135.498 E428.28702
G1 X84.478 Y84.478 E435.4865
G1 X85.197 Y83.782 E435.58635
G1 X136.2 Y134.786 E442.78349
G1 X136.881 Y134.052 E442.8834
G1 X85.94 Y83.111 E450.07172
G1 X86.695 Y82.452 E450.17172
G1 X137.528 Y133.285 E457.3448
G1 X138.17 Y132.513 E457.44499
G1 X87.462 Y81.805 E464.60043
G1 X87.944 Y81.416 E464.66224
G1 X88.26 Y81.189 E464.70106
G1 X138.79 Y131.719 E471.83139
G1 X139.355 Y130.961 E471.92572
G1 X139.392 Y130.907 E471.93225
G1 X89.093 Y80.608 E479.02999
G1 X89.93 Y80.031 E479.13142
G1 X139.958 Y130.058 E486.19084
G1 X140.524 Y129.211 E486.29249
G1 X90.767 Y79.454 E493.31374
G1 X90.909 Y79.362 E493.33062
G1 X91.646 Y78.925 E493.41612
G1 X91.651 Y78.923 E493.41665
G1 X141.058 Y128.33 E500.38852
G1 X141.516 Y127.547 E500.47903
G1 X141.576 Y127.434 E500.49179
G1 X92.56 Y78.418 E507.40848
G1 X93.469 Y77.913 E507.51224
G1 X142.059 Y126.503 E514.36881
G1 X142.485 Y125.681 E514.46119
G1 X142.537 Y125.567 E514.4737
G1 X94.422 Y77.451 E521.26331
G1 X94.953 Y77.194 E521.32217
G1 X95.394 Y77.009 E521.36989
G1 X142.981 Y124.596 E528.08493
G1 X143.149 Y124.225 E528.12557
G1 X143.396 Y123.597 E528.1929
G1 X96.389 Y76.59 E534.8261
G1 X96.93 Y76.361 E534.88472
G1 X97.403 Y76.19 E534.9349
G1 X143.793 Y122.58 E541.48103
G1 X143.97 Y122.127 E541.52956
G1 X144.166 Y121.538 E541.5915
G1 X98.446 Y75.818 E548.04309
G1 X99.529 Y75.487 E548.15608
G1 X144.511 Y120.469 E554.50353
G1 X144.815 Y119.359 E554.61836
G1 X100.612 Y75.156 E560.85589
G1 X100.656 Y75.142 E560.86049
G1 X101.698 Y74.867 E560.96802
G1 X101.73 Y74.86 E560.97129
G1 X145.115 Y118.245 E567.09338
G1 X145.182 Y117.988 E567.11989
G1 X145.218 Y117.835 E567.13557
G1 X145.367 Y117.083 E567.21206
G1 X102.915 Y74.63 E573.20257
G1 X104.107 Y74.408 E573.32355
G1 X145.569 Y115.871 E579.17436
G1 X145.765 Y114.653 E579.29745
G1 X105.335 Y74.222 E585.00263
G1 X106.07 Y74.126 E585.0766
G1 X106.61 Y74.083 E585.13065
G1 X145.905 Y113.378 E590.6756
G1 X145.932 Y113.118 E590.70168
G1 X145.992 Y112.051 E590.80831
G1 X107.919 Y73.978 E596.18083
G1 X108.202 Y73.955 E596.20916
G1 X109.269 Y73.913 E596.3157
G1 X146.059 Y110.704 E601.50724
G1 X146.062 Y109.293 E601.64803
G1 X110.702 Y73.932 E606.63778
G1 X112.07 Y73.969 E606.77433
G1 X112.16 Y73.976 E606.78334
G1 X145.986 Y107.802 E611.55655
G1 X145.944 Y106.988 E611.63788
G1 X145.87 Y106.272 E611.7097
G1 X113.703 Y74.105 E616.24881
G1 X115.337 Y74.325 E616.41333
G1 X145.661 Y104.649 E620.69237
G1 X145.421 Y103.174 E620.84148
G1 X145.372 Y102.946 E620.86475
G1 X117.043 Y74.616 E624.86235
G1 X117.41 Y74.686 E624.89963
G1 X118.887 Y75.047 E625.05134
G1 X144.944 Y101.103 E628.7282
G1 X144.496 Y99.455 E628.8986
G1 X144.391 Y99.137 E628.93202
G1 X120.848 Y75.593 E632.25426
G1 X121.215 Y75.704 E632.29252
G1 X123.034 Y76.365 E632.48563
G1 X143.609 Y96.94 E635.38899
G1 X143.194 Y95.878 E635.50276
G1 X142.563 Y94.48 E635.6558
G1 X125.539 Y77.455 E638.05814
G1 X126.698 Y78.02 E638.1868
G1 X126.86 Y78.104 E638.205
G1 X128.194 Y78.845 E638.35727
G1 X128.593 Y79.096 E638.4043
G1 X140.9 Y91.403 E640.14095
G1 X140.69 Y91.044 E640.18245
G1 X139.43 Y89.137 E640.41052
G1 X138.497 Y87.879 E640.5668
G1 X137.085 Y86.173 E640.78776
G1 X133.877 Y82.965 E641.24045
G1 X134.352 Y83.381 E641.30345
G1 X135.996 Y84.985 E641.53263
G1 X137.044 Y86.124 E641.68707
G1 F2700 E636.68707
G0 F300 X137.044 Y86.124 Z0.74
G0 F12000 X137.785 Y85.354
G0 X136.654 Y84.134
G0 X135.024 Y82.553
G0 X133.758 Y81.453
G0 X131.945 Y80.035
G0 X130.626 Y79.112
G0 X128.637 Y77.871
G0 X127.183 Y77.072
G0 X125.1 Y76.063
G0 X123.606 Y75.436
G0 X121.432 Y74.654
G0 X119.831 Y74.178
G0 X117.523 Y73.621
G0 X114.541 Y73.142
G0 X114.428 Y74
;TIME_ELAPSED:252.633091
;LAYER:-4
;TYPE:SUPPORT-INTERFACE
G1 F2700 E641.68707
G1 F2400 X105.499 Y74 E641.98405
