;FLAVOR:Marlin
;TIME:1196
;Filament used: 0.940624m
;Layer height: 0.2
;MINX:86.412
;MINY:86.414
;MINZ:0.24
;MAXX:133.596
;MAXY:133.586
;MAXZ:13.09
;Generated with Cura_SteamEngine 4.6.1
M140 S65
M105
M190 S65
M104 S200
M105
M109 S200
M82 ;absolute extrusion mode
M201 X500.00 Y500.00 Z100.00 E5000.00 ;Setup machine max acceleration
M203 X500.00 Y500.00 Z10.00 E50.00 ;Setup machine max feedrate
M204 P500.00 R1000.00 T500.00 ;Setup Print/Retract/Travel acceleration
M205 X8.00 Y8.00 Z0.40 E5.00 ;Setup Jerk
M220 S100 ;Reset Feedrate
M221 S100 ;Reset Flowrate

G28 ;Home

G92 E0 ;Reset Extruder
G1 Z2.0 F3000 ;Move Z Axis up
G1 X10.1 Y20 Z0.28 F5000.0 ;Move to start position
G1 X10.1 Y200.0 Z0.28 F1500.0 E15 ;Draw the first line
G1 X10.4 Y200.0 Z0.28 F5000.0 ;Move to side a little
G1 X10.4 Y20 Z0.28 F1500.0 E30 ;Draw the second line
G92 E0 ;Reset Extruder
G1 Z2.0 F3000 ;Move Z Axis up

G92 E0
G92 E0
G1 F2700 E-5
;LAYER_COUNT:60
;LAYER:-6
M107
G0 F12000 X94.554 Y93.62 Z0.24
;TYPE:SUPPORT-INTERFACE
G1 F2700 E0
G1 F1800 X95.372 Y92.862 E0.08902
G1 X95.804 Y92.502 E0.13391
G1 X96.093 Y92.273 E0.16334
G1 X97.191 Y91.474 E0.27174
G1 X97.998 Y90.941 E0.34894
G1 X99.177 Y90.238 E0.45851
G1 X99.565 Y90.032 E0.49358
G1 X100.704 Y89.483 E0.59451
G1 X101.54 Y89.125 E0.6671
G1 X102.743 Y88.671 E0.76974
G1 X103.262 Y88.501 E0.81334
G1 X104.596 Y88.13 E0.92387
G1 X105.37 Y87.953 E0.98724
G1 X106.672 Y87.716 E1.09288
G1 X107.284 Y87.633 E1.14218
G1 X108.649 Y87.511 E1.25158
G1 X109.336 Y87.481 E1.30647
G1 X110.705 Y87.482 E1.41575
G1 X111.43 Y87.516 E1.47369
G1 X112.738 Y87.636 E1.57853
G1 X113.323 Y87.716 E1.62567
G1 X114.704 Y87.969 E1.73774
G1 X115.484 Y88.151 E1.80167
G1 X116.665 Y88.477 E1.89947
G1 X117.237 Y88.665 E1.94753
G1 X118.5 Y89.139 E2.05522
G1 X119.316 Y89.491 E2.12616
G1 X120.463 Y90.044 E2.2278
G1 X120.851 Y90.254 E2.26302
G1 X122.057 Y90.975 E2.37518
G1 X122.863 Y91.511 E2.45244
G1 X123.885 Y92.254 E2.55331
G1 X124.182 Y92.492 E2.58369
G1 X125.233 Y93.409 E2.69503
G1 X125.97 Y94.118 E2.77666
G1 X126.646 Y94.814 E2.85411
G1 X126.749 Y94.929 E2.86643
G1 X127.506 Y95.846 E2.96135
G1 X128.365 Y96.979 E3.07485
G1 X128.924 Y97.775 E3.15249
G1 X129.022 Y97.927 E3.16693
G1 X129.555 Y98.822 E3.25008
G1 X129.799 Y99.291 E3.29228
G1 X130.453 Y100.598 E3.40894
G1 X130.908 Y101.608 E3.49737
G1 X131.279 Y102.621 E3.58348
G1 X131.43 Y103.112 E3.62449
G1 X131.832 Y104.511 E3.74068
G1 X132.058 Y105.42 E3.81545
G1 X132.097 Y105.609 E3.83086
G1 X132.267 Y106.608 E3.91175
G1 X132.327 Y107.116 E3.95258
G1 X132.468 Y108.573 E4.06943
G1 X132.531 Y109.705 E4.15993
G1 X132.513 Y110.785 E4.24615
G1 X132.475 Y111.316 E4.28865
G1 X132.353 Y112.69 E4.39876
G1 X132.244 Y113.574 E4.46985
G1 X132.21 Y113.778 E4.48636
G1 X131.906 Y115.185 E4.60127
G1 X131.569 Y116.452 E4.70592
G1 X131.298 Y117.347 E4.78057
G1 X131.225 Y117.551 E4.79786
G1 X130.744 Y118.746 E4.90069
G1 X130.667 Y118.923 E4.9161
G1 X130.11 Y120.122 E5.02163
G1 X129.705 Y120.92 E5.09307
G1 X129.595 Y121.116 E5.11101
G1 X128.831 Y122.337 E5.22598
G1 X128.055 Y123.448 E5.33416
G1 X127.505 Y124.183 E5.40743
G1 X127.373 Y124.344 E5.42405
G1 X126.408 Y125.415 E5.53913
G1 X125.461 Y126.366 E5.64626
G1 X124.628 Y127.138 E5.73692
G1 X123.918 Y127.719 E5.81015
G1 X122.869 Y128.486 E5.91388
G1 X122.05 Y129.03 E5.99237
G1 X120.812 Y129.768 E6.10742
G1 X120.401 Y129.985 E6.14452
G1 X119.283 Y130.524 E6.24359
G1 X118.472 Y130.87 E6.31397
G1 X117.258 Y131.329 E6.41757
G1 X116.731 Y131.501 E6.46183
G1 X115.404 Y131.87 E6.57177
G1 X114.629 Y132.047 E6.63523
G1 X113.328 Y132.284 E6.74079
G1 X112.716 Y132.367 E6.79009
G1 X111.351 Y132.489 E6.89948
G1 X110.664 Y132.519 E6.95438
G1 X109.295 Y132.518 E7.06365
G1 X108.57 Y132.484 E7.12159
G1 X107.262 Y132.364 E7.22644
G1 X106.677 Y132.284 E7.27357
G1 X105.296 Y132.031 E7.38564
G1 X104.517 Y131.849 E7.4495
G1 X103.335 Y131.523 E7.54738
G1 X102.763 Y131.335 E7.59544
G1 X101.497 Y130.86 E7.70338
G1 X100.684 Y130.508 E7.77409
G1 X99.534 Y129.954 E7.87599
G1 X99.139 Y129.74 E7.91185
G1 X97.939 Y129.023 E8.02343
G1 X97.13 Y128.484 E8.10103
G1 X96.115 Y127.746 E8.20121
G1 X95.796 Y127.49 E8.23386
G1 X94.767 Y126.591 E8.34293
G1 X94.024 Y125.876 E8.42524
G1 X93.354 Y125.186 E8.50201
G1 X93.251 Y125.071 E8.51434
G1 X92.494 Y124.154 E8.60925
G1 X91.635 Y123.021 E8.72275
G1 X91.075 Y122.223 E8.80057
G1 X90.971 Y122.062 E8.81587
G1 X90.445 Y121.178 E8.89798
G1 X90.201 Y120.709 E8.94018
G1 X89.543 Y119.394 E9.05756
G1 X89.138 Y118.504 E9.13561
G1 X89.087 Y118.379 E9.14639
G1 X88.718 Y117.37 E9.23215
G1 X88.569 Y116.883 E9.2728
G1 X88.168 Y115.489 E9.38859
G1 X87.942 Y114.58 E9.46336
G1 X87.903 Y114.391 E9.47876
G1 X87.729 Y113.361 E9.56215
G1 X87.669 Y112.834 E9.60449
G1 X87.531 Y111.373 E9.72163
G1 X87.476 Y110.458 E9.7948
G1 X87.473 Y110.274 E9.80949
G1 X87.523 Y108.722 E9.93344
G1 X87.639 Y107.376 E10.04128
G1 X87.748 Y106.471 E10.11405
G1 X87.783 Y106.259 E10.1312
G1 X88.081 Y104.855 E10.24577
G1 X88.444 Y103.498 E10.3579
G1 X88.706 Y102.644 E10.42921
G1 X88.778 Y102.44 E10.44647
G1 X89.256 Y101.254 E10.54855
G1 X89.333 Y101.077 E10.56395
G1 X89.89 Y99.878 E10.66949
G1 X90.295 Y99.08 E10.74092
G1 X90.409 Y98.877 E10.7595
G1 X91.169 Y97.663 E10.87383
G1 X91.945 Y96.552 E10.98201
G1 X92.501 Y95.81 E11.05602
G1 X92.627 Y95.656 E11.07191
G1 X93.592 Y94.585 E11.18698
G1 X94.554 Y93.62 E11.29575
G0 F12000 X94.4 Y93.774
G1 F1800 X94.4 Y126.237 E13.88709
G0 F12000 X96 Y127.653
G1 F1800 X96 Y92.346 E16.70545
G0 F12000 X97.6 Y91.203
G1 F1800 X97.6 Y128.797 E19.70636
G0 F12000 X99.2 Y129.773
G1 F1800 X99.2 Y90.225 E22.86325
G0 F12000 X100.8 Y89.441
G1 F1800 X100.8 Y130.558 E26.14539
G0 F12000 X102.4 Y131.198
G1 F1800 X102.4 Y88.8 E29.52978
G0 F12000 X104 Y88.295
G1 F1800 X104 Y131.706 E32.99504
G0 F12000 X105.6 Y132.086
G1 F1800 X105.6 Y87.911 E36.52128
G0 F12000 X107.2 Y87.644
G1 F1800 X107.2 Y132.355 E40.0903
G0 F12000 X108.8 Y132.494
G1 F1800 X108.8 Y87.504 E43.6816
G0 F12000 X110.4 Y87.482
G1 F1800 X110.4 Y132.518 E47.27657
G0 F12000 X112 Y132.431
G1 F1800 X112 Y87.569 E50.85764
G0 F12000 X113.6 Y87.767
G1 F1800 X113.6 Y132.235 E54.40727
G0 F12000 X115.2 Y131.917
G1 F1800 X115.2 Y88.085 E57.90613
G0 F12000 X116.8 Y88.522
G1 F1800 X116.8 Y131.479 E61.33515
G0 F12000 X118.4 Y130.898
G1 F1800 X118.4 Y89.102 E64.67148
G0 F12000 X120 Y89.821
G1 F1800 X120 Y130.179 E67.89303
G0 F12000 X121.6 Y129.299
G1 F1800 X121.6 Y90.702 E70.97401
G0 F12000 X123.2 Y91.757
G1 F1800 X123.2 Y128.244 E73.88656
G0 F12000 X124.8 Y126.979
G1 F1800 X124.8 Y93.032 E76.59636
G0 F12000 X126.4 Y94.561
G1 F1800 X126.4 Y125.424 E79.05998
G0 F12000 X128 Y123.522
G1 F1800 X128 Y96.498 E81.21715
G0 F12000 X129.6 Y98.909
G1 F1800 X129.6 Y121.108 E82.98917
G0 F12000 X131.2 Y117.614
G1 F1800 X131.2 Y102.406 E84.20314
G1 F2700 E79.20314
G0 F12000 X132.2 Y102.036
G0 X131.37 Y100.052
G0 X130.412 Y98.176
G0 X129.221 Y96.346
G0 X127.42 Y94.082
G0 X125.899 Y92.577
G0 X124.435 Y91.335
G0 X122.537 Y90.019
G0 X120.836 Y89.041
G0 X118.796 Y88.111
G0 X116.911 Y87.439
G0 X114.782 Y86.898
G0 X112.681 Y86.559
G0 X110.602 Y86.414
G0 X108.411 Y86.461
G0 X106.422 Y86.678
G0 X104.236 Y87.123
G0 X102.307 Y87.696
G0 X100.211 Y88.537
G0 X98.546 Y89.373
G0 X96.46 Y90.685
G0 X94.565 Y92.154
G0 X93.534 Y93.16
G0 X92.008 Y94.753
G0 X92.8 Y95.463
G1 F2700 E84.20314
G1 F1800 X92.8 Y124.524 E86.52291
G0 F12000 X91.2 Y122.401
G1 F1800 X91.2 Y97.618 E88.5012
G0 F12000 X89.6 Y100.502
G1 F1800 X89.6 Y119.507 E90.01826
G1 F2700 E85.01826
G0 F12000 X88.581 Y119.849
G0 X87.843 Y118.06
G0 X87.137 Y115.755
G0 X88 Y114.813
G1 F2700 E90.01826
G1 F1800 X88 Y105.236 E90.78274
G1 F2700 E85.78274
G0 F300 X88 Y105.236 Z0.54
G0 F12000 X86.957 Y105.017
G0 X86.695 Y106.313
G0 X86.454 Y108.8
G0 X86.412 Y110.49
G0 X86.7 Y113.681
G0 X87.137 Y115.755
G0 X87.761 Y117.861
G0 X88.581 Y119.849
G0 X89.151 Y120.968
G0 X90.071 Y122.63
G0 X91.075 Y122.221
;TIME_ELAPSED:48.778729
;LAYER:-5
M140 S65
;TYPE:SUPPORT
G1 F2700 E90.78274
G1 F1800 X91.634 Y123.02 E90.88004
G1 X92.493 Y124.153 E91.02191
G1 X93.25 Y125.07 E91.14055
G1 X93.354 Y125.185 E91.15603
G1 X94.023 Y125.874 E91.25185
G1 X94.767 Y126.589 E91.35481
G1 X95.795 Y127.489 E91.49114
G1 X96.114 Y127.745 E91.53195
G1 X97.13 Y128.483 E91.65725
G1 X97.85 Y128.962 E91.74354
G1 X91.012 Y122.125 E92.70839
G1 X90.971 Y122.061 E92.71597
G1 X90.445 Y121.177 E92.81861
G1 X90.2 Y120.708 E92.87141
G1 X89.543 Y119.392 E93.01817
G1 X89.416 Y119.114 E93.04867
G1 X100.903 Y130.601 E94.66961
G1 X101.497 Y130.859 E94.73423
G1 X102.763 Y131.334 E94.86915
G1 X103.189 Y131.473 E94.91386
G1 X88.556 Y116.84 E96.97873
G1 X88.168 Y115.488 E97.11908
G1 X88.019 Y114.889 E97.18067
G1 X105.118 Y131.988 E99.59353
G1 X105.295 Y132.03 E99.61168
G1 X106.676 Y132.282 E99.75175
G1 X106.85 Y132.306 E99.76928
G1 X87.706 Y113.162 E102.4707
G1 X87.669 Y112.833 E102.50374
G1 X87.551 Y111.593 E102.62802
G1 X108.427 Y132.469 E105.57385
G1 X108.569 Y132.482 E105.58808
G1 X109.294 Y132.517 E105.6605
G1 X109.89 Y132.517 E105.71997
G1 X87.478 Y110.105 E108.88255
G1 X87.522 Y108.736 E109.01922
G1 X111.277 Y132.49 E112.37124
G1 X111.35 Y132.487 E112.37853
G1 X112.579 Y132.378 E112.50164
G1 X87.633 Y107.432 E116.02179
G1 X87.638 Y107.375 E116.0275
G1 X87.747 Y106.47 E116.11845
G1 X87.783 Y106.258 E116.13991
G1 X87.798 Y106.183 E116.14754
G1 X113.81 Y132.195 E119.81811
G1 X114.629 Y132.046 E119.90117
G1 X114.992 Y131.963 E119.93833
G1 X88.046 Y105.016 E123.74077
G1 X88.08 Y104.854 E123.75729
G1 X88.337 Y103.893 E123.85655
G1 X116.114 Y131.671 E127.77625
G1 X116.731 Y131.499 E127.84016
G1 X117.203 Y131.345 E127.8897
G1 X88.657 Y102.799 E131.91785
G1 X88.705 Y102.642 E131.93423
G1 X88.777 Y102.439 E131.95573
G1 X89.045 Y101.773 E132.02736
G1 X118.231 Y130.959 E136.14582
G1 X118.472 Y130.869 E136.17149
G1 X119.231 Y130.545 E136.25383
G1 X89.468 Y100.782 E140.45371
G1 X89.89 Y99.877 E140.55335
G1 X89.919 Y99.818 E140.55991
G1 X120.186 Y130.086 E144.83098
G1 X120.401 Y129.983 E144.85477
G1 X120.812 Y129.766 E144.90114
G1 X121.106 Y129.591 E144.93528
G1 X90.402 Y98.887 E149.26795
G1 X90.409 Y98.876 E149.26925
G1 X90.946 Y98.017 E149.37033
G1 X121.992 Y129.063 E153.75126
G1 X122.05 Y129.029 E153.75796
G1 X122.844 Y128.501 E153.85311
G1 X91.513 Y97.169 E158.27432
G1 X91.945 Y96.551 E158.34956
G1 X92.1 Y96.343 E158.37544
G1 X123.662 Y127.905 E162.82918
G1 X123.918 Y127.718 E162.86081
G1 X124.452 Y127.28 E162.92973
G1 X92.721 Y95.549 E167.40731
G1 X93.391 Y94.806 E167.50714
G1 X125.196 Y126.61 E171.9951
G1 X125.461 Y126.364 E172.03118
G1 X125.912 Y125.912 E172.09489
G1 X94.086 Y94.086 E176.58588
G1 X94.553 Y93.62 E176.65171
G1 X94.803 Y93.389 E176.68567
G1 X126.607 Y125.193 E181.17356
G1 X127.277 Y124.449 E181.27346
G1 X95.545 Y92.717 E185.75119
G1 X95.803 Y92.502 E185.7847
G1 X96.092 Y92.272 E185.82156
G1 X96.337 Y92.095 E185.85171
G1 X127.899 Y123.656 E190.30538
G1 X128.054 Y123.448 E190.33127
G1 X128.486 Y122.829 E190.40658
G1 X97.156 Y91.499 E194.82759
G1 X97.19 Y91.474 E194.8318
G1 X97.997 Y90.941 E194.9283
G1 X98.007 Y90.936 E194.92941
G1 X129.052 Y121.981 E199.3102
G1 X129.594 Y121.116 E199.41205
G1 X129.597 Y121.111 E199.41263
G1 X98.893 Y90.407 E203.7453
G1 X99.175 Y90.238 E203.7781
G1 X99.564 Y90.032 E203.82202
G1 X99.812 Y89.912 E203.84951
G1 X130.08 Y120.18 E208.12066
G1 X130.109 Y120.121 E208.12722
G1 X130.53 Y119.216 E208.22681
G1 X100.769 Y89.455 E212.42641
G1 X101.539 Y89.125 E212.51
G1 X101.767 Y89.039 E212.53431
G1 X130.953 Y118.225 E216.65277
G1 X131.224 Y117.551 E216.72526
G1 X131.297 Y117.347 E216.74688
G1 X131.342 Y117.2 E216.76222
G1 X102.796 Y88.654 E220.79037
G1 X103.26 Y88.5 E220.83915
G1 X103.883 Y88.327 E220.90366
G1 X131.661 Y116.104 E224.82337
G1 X131.905 Y115.184 E224.91834
G1 X131.949 Y114.979 E224.93926
G1 X105.006 Y88.036 E228.74121
G1 X105.369 Y87.953 E228.77836
G1 X106.189 Y87.804 E228.86152
G1 X132.201 Y113.816 E232.5321
G1 X132.209 Y113.777 E232.53607
G1 X132.243 Y113.574 E232.55661
G1 X132.352 Y112.69 E232.64548
G1 X132.363 Y112.564 E232.6581
G1 X107.42 Y87.621 E236.17783
G1 X108.648 Y87.511 E236.30085
G1 X108.721 Y87.508 E236.30814
G1 X132.478 Y111.265 E239.66051
G1 X132.512 Y110.784 E239.70862
G1 X132.527 Y109.899 E239.79694
G1 X110.109 Y87.481 E242.96036
G1 X110.704 Y87.481 E243.01973
G1 X111.429 Y87.516 E243.09216
G1 X111.571 Y87.529 E243.10639
G1 X132.451 Y108.41 E246.05285
G1 X132.325 Y107.116 E246.18258
G1 X132.293 Y106.837 E246.2106
G1 X113.149 Y87.693 E248.91202
G1 X113.322 Y87.716 E248.92944
G1 X114.703 Y87.969 E249.06953
G1 X114.88 Y88.01 E249.08766
G1 X131.98 Y105.11 E251.50065
G1 X131.83 Y104.511 E251.56226
G1 X131.442 Y103.158 E251.70271
G1 X116.809 Y88.525 E253.76758
G1 X117.236 Y88.664 E253.81239
G1 X118.499 Y89.138 E253.94699
G1 X119.093 Y89.395 E254.01157
G1 X130.579 Y100.881 E255.63237
G1 X130.452 Y100.597 E255.66341
G1 X129.798 Y99.291 E255.80915
G1 X129.553 Y98.821 E255.86204
G1 X129.021 Y97.927 E255.96584
G1 X128.988 Y97.875 E255.97199
G1 X122.149 Y91.037 E256.93697
G1 X122.862 Y91.51 E257.02235
G1 X123.884 Y92.254 E257.14848
G1 X124.181 Y92.491 E257.1864
G1 X125.232 Y93.409 E257.32564
G1 X125.968 Y94.118 E257.42761
G1 X126.644 Y94.813 E257.52435
G1 X126.748 Y94.929 E257.53989
G1 X127.505 Y95.845 E257.65847
G1 X128.364 Y96.978 E257.80034
G1 X128.923 Y97.775 E257.89747
G0 F300 X128.923 Y97.775 Z0.74
G0 F12000 X129.979 Y99.2
;TIME_ELAPSED:107.747616
;LAYER:-4
;TYPE:SUPPORT-INTERFACE
G1 F2400 X90.01 Y99.2 E259.22685
G1 X90.12 Y98.982 E259.23497
G1 X90.223 Y98.8 E259.24192
G1 X129.77 Y98.8 E260.55726
G1 X129.732 Y98.728 E260.55997
G1 X129.538 Y98.4 E260.57264
G1 X90.472 Y98.4 E261.87198
G1 X90.722 Y98 E261.88767
G1 X129.3 Y98 E263.17078
G1 X129.194 Y97.823 E263.17764
G1 X129.096 Y97.672 E263.18363
G1 X129.046 Y97.6 E263.18655
G1 X90.972 Y97.6 E264.45289
G1 X91 Y97.555 E264.45466
G1 X91.248 Y97.2 E264.46906
G1 X128.765 Y97.2 E265.71688
G1 X128.52 Y96.851 E265.73106
G1 X128.482 Y96.8 E265.73318
G1 X91.528 Y96.8 E266.96227
G1 X91.782 Y96.435 E266.97706
G1 X91.809 Y96.4 E266.97853
G1 X128.178 Y96.4 E268.18817
G1 X127.875 Y96 E268.20486
G1 X92.109 Y96 E269.39444
G1 X92.341 Y95.69 E269.40732
G1 X92.415 Y95.6 E269.4112
G1 X127.563 Y95.6 E270.58022
G1 X127.233 Y95.2 E270.59747
G1 X92.769 Y95.2 E271.74375
G1 X93.13 Y94.8 E271.76167
G1 X126.903 Y94.8 E272.88496
G1 X126.784 Y94.667 E272.8909
G1 X126.525 Y94.4 E272.90327
G1 X93.494 Y94.4 E274.00189
G1 X93.893 Y94 E274.02068
G1 X126.137 Y94 E275.09312
G1 X126.114 Y93.977 E275.0942
G1 X125.723 Y93.6 E275.11227
G1 X94.291 Y93.6 E276.1577
G1 X94.417 Y93.473 E276.16365
G1 X94.712 Y93.2 E276.17702
G1 X125.3 Y93.2 E277.19438
G1 X124.841 Y92.8 E277.21463
G1 X95.145 Y92.8 E278.20232
G1 X95.236 Y92.715 E278.20646
G1 X95.622 Y92.4 E278.22303
G1 X124.383 Y92.4 E279.17963
G1 X124.318 Y92.344 E279.18248
G1 X124.003 Y92.091 E279.19592
G1 X123.878 Y92 E279.20106
G1 X96.128 Y92 E280.12403
G1 X96.677 Y91.6 E280.14662
G1 X123.328 Y91.6 E281.03304
G1 X122.981 Y91.348 E281.0473
G1 X122.759 Y91.2 E281.05618
G1 X97.243 Y91.2 E281.90484
G1 X97.85 Y90.8 E281.92902
G1 X122.156 Y90.8 E282.73744
G1 X121.487 Y90.4 E282.76337
G1 X98.517 Y90.4 E283.52735
G1 X99.083 Y90.062 E283.54928
G1 X99.2 Y90 E283.55368
G1 X120.805 Y90 E284.27227
G1 X120.547 Y89.861 E284.28201
G1 X120.005 Y89.6 E284.30202
G1 X99.999 Y89.6 E284.96743
G1 X100.578 Y89.32 E284.98882
G1 X100.858 Y89.2 E284.99895
G1 X119.146 Y89.2 E285.60721
G1 X118.583 Y88.958 E285.62759
G1 X118.164 Y88.8 E285.64249
G1 X101.834 Y88.8 E286.18562
G1 X102.672 Y88.483 E286.21542
G1 X102.928 Y88.4 E286.22437
G1 X117.083 Y88.4 E286.69517
G1 X116.73 Y88.288 E286.70749
G1 X115.689 Y88 E286.74341
G1 X104.318 Y88 E287.12161
G1 X104.551 Y87.935 E287.12966
G1 X105.329 Y87.758 E287.1562
G1 X106.193 Y87.6 E287.18541
G1 X113.8 Y87.6 E287.43842
G0 F12000 X113.363 Y87.52
G1 F2400 X112.767 Y87.439 E287.45843
G1 X111.443 Y87.317 E287.50265
G1 X110.714 Y87.282 E287.52692
G1 X109.33 Y87.281 E287.57296
G1 X108.643 Y87.312 E287.59583
G1 X108.476 Y87.322 E287.60139
G1 X107.27 Y87.434 E287.64168
G1 X106.635 Y87.519 E287.66299
G1 X106.193 Y87.6 E287.67793
