;FLAVOR:Marlin
;TIME:5889
;Filament used: 5.09485m
;Layer height: 0.2
;MINX:25.2
;MINY:84.7
;MINZ:0.2
;MAXX:194.8
;MAXY:135.3
;MAXZ:33
;Generated with Cura_SteamEngine 4.6.1
M140 S65
M105
M190 S65
M104 S200
M105
M109 S200
M82 ;absolute extrusion mode
M201 X500.00 Y500.00 Z100.00 E5000.00 ;Setup machine max acceleration
M203 X500.00 Y500.00 Z10.00 E50.00 ;Setup machine max feedrate
M204 P500.00 R1000.00 T500.00 ;Setup Print/Retract/Travel acceleration
M205 X8.00 Y8.00 Z0.40 E5.00 ;Setup Jerk
M220 S100 ;Reset Feedrate
M221 S100 ;Reset Flowrate

G28 ;Home

G92 E0 ;Reset Extruder
G1 Z2.0 F3000 ;Move Z Axis up
G1 X10.1 Y20 Z0.28 F5000.0 ;Move to start position
G1 X10.1 Y200.0 Z0.28 F1500.0 E15 ;Draw the first line
G1 X10.4 Y200.0 Z0.28 F5000.0 ;Move to side a little
G1 X10.4 Y20 Z0.28 F1500.0 E30 ;Draw the second line
G92 E0 ;Reset Extruder
G1 Z2.0 F3000 ;Move Z Axis up

G92 E0
G92 E0
G1 F2700 E-5
;LAYER_COUNT:165
;LAYER:0
M107
G0 F6000 X29.459 Y84.783 Z0.2
;TYPE:SKIRT
G1 F2700 E0
G1 F1200 X30 Y84.7 E0.0182
G1 X40 Y84.7 E0.35081
G1 X40.377 Y84.74 E0.36342
G1 X40.737 Y84.858 E0.37602
G1 X41.064 Y85.048 E0.38859
G1 X41.345 Y85.303 E0.40121
G1 X41.565 Y85.612 E0.41383
G1 X41.717 Y85.959 E0.42643
G1 X41.8 Y86.5 E0.44464
G1 X41.8 Y99.7 E0.88367
G1 X178.2 Y99.7 E5.42035
G1 X178.2 Y86.5 E5.85939
G1 X178.24 Y86.123 E5.87199
G1 X178.358 Y85.763 E5.8846
G1 X178.548 Y85.436 E5.89717
G1 X178.803 Y85.155 E5.90979
G1 X179.112 Y84.935 E5.92241
G1 X179.459 Y84.783 E5.93501
G1 X180 Y84.7 E5.95321
G1 X190 Y84.7 E6.28582
G1 X190.377 Y84.74 E6.29843
G1 X190.737 Y84.858 E6.31103
G1 X191.064 Y85.048 E6.3236
G1 X191.345 Y85.303 E6.33623
G1 X191.565 Y85.612 E6.34884
G1 X191.717 Y85.959 E6.36144
G1 X191.8 Y86.5 E6.37965
G1 X191.8 Y99.7 E6.81868
G1 X193 Y99.7 E6.85859
G1 X193.377 Y99.74 E6.8712
G1 X193.737 Y99.858 E6.8838
G1 X194.064 Y100.048 E6.89638
G1 X194.345 Y100.303 E6.909
G1 X194.565 Y100.612 E6.92162
G1 X194.717 Y100.959 E6.93422
G1 X194.8 Y101.5 E6.95242
G1 X194.8 Y118.5 E7.51784
G1 X194.76 Y118.877 E7.53045
G1 X194.642 Y119.237 E7.54305
G1 X194.452 Y119.564 E7.55563
G1 X194.197 Y119.845 E7.56825
G1 X193.888 Y120.065 E7.58087
G1 X193.541 Y120.217 E7.59347
G1 X193 Y120.3 E7.61167
G1 X191.8 Y120.3 E7.65159
G1 X191.8 Y133.5 E8.09062
G1 X191.76 Y133.877 E8.10323
G1 X191.642 Y134.237 E8.11583
G1 X191.452 Y134.564 E8.12841
G1 X191.197 Y134.845 E8.14103
G1 X190.888 Y135.065 E8.15365
G1 X190.541 Y135.217 E8.16625
G1 X190 Y135.3 E8.18445
G1 X180 Y135.3 E8.51705
G1 X179.623 Y135.26 E8.52966
G1 X179.263 Y135.142 E8.54226
G1 X178.936 Y134.952 E8.55484
G1 X178.655 Y134.697 E8.56746
G1 X178.435 Y134.388 E8.58008
G1 X178.283 Y134.041 E8.59268
G1 X178.2 Y133.5 E8.61088
G1 X178.2 Y120.3 E9.04991
G1 X41.8 Y120.3 E13.5866
G1 X41.8 Y133.5 E14.02563
G1 X41.76 Y133.877 E14.03824
G1 X41.642 Y134.237 E14.05084
G1 X41.452 Y134.564 E14.06342
G1 X41.197 Y134.845 E14.07604
G1 X40.888 Y135.065 E14.08866
G1 X40.541 Y135.217 E14.10126
G1 X40 Y135.3 E14.11946
G1 X30 Y135.3 E14.45206
G1 X29.623 Y135.26 E14.46467
G1 X29.263 Y135.142 E14.47727
G1 X28.936 Y134.952 E14.48985
G1 X28.655 Y134.697 E14.50247
G1 X28.435 Y134.388 E14.51509
G1 X28.283 Y134.041 E14.52769
G1 X28.2 Y133.5 E14.54589
G1 X28.2 Y120.3 E14.98492
G1 X27 Y120.3 E15.02484
G1 X26.623 Y120.26 E15.03745
G1 X26.263 Y120.142 E15.05005
G1 X25.936 Y119.952 E15.06263
G1 X25.655 Y119.697 E15.07525
G1 X25.435 Y119.388 E15.08786
G1 X25.283 Y119.041 E15.10046
G1 X25.2 Y118.5 E15.11867
G1 X25.2 Y101.5 E15.68409
G1 X25.24 Y101.123 E15.6967
G1 X25.358 Y100.763 E15.7093
G1 X25.548 Y100.436 E15.72188
G1 X25.803 Y100.155 E15.7345
G1 X26.112 Y99.935 E15.74711
G1 X26.459 Y99.783 E15.75971
G1 X27 Y99.7 E15.77792
G1 X28.2 Y99.7 E15.81783
G1 X28.2 Y86.5 E16.25686
G1 X28.24 Y86.123 E16.26947
G1 X28.358 Y85.763 E16.28207
G1 X28.548 Y85.436 E16.29465
G1 X28.803 Y85.155 E16.30727
G1 X29.112 Y84.935 E16.31989
G1 X29.459 Y84.783 E16.33249
G0 F6000 X29.487 Y85.197
G1 F1200 X29.811 Y85.113 E16.34362
G1 X30 Y85.1 E16.34992
G1 X40 Y85.1 E16.68253
G1 X40.332 Y85.14 E16.69365
G1 X40.644 Y85.257 E16.70473
G1 X40.921 Y85.445 E16.71586
G1 X41.144 Y85.693 E16.72696
G1 X41.303 Y85.987 E16.73807
G1 X41.387 Y86.311 E16.74921
G1 X41.4 Y86.5 E16.75551
G1 X41.4 Y100.1 E17.20785
G1 X178.6 Y100.1 E21.77114
G1 X178.6 Y86.5 E22.22347
G1 X178.64 Y86.168 E22.2346
G1 X178.757 Y85.856 E22.24568
G1 X178.945 Y85.579 E22.25681
G1 X179.193 Y85.356 E22.26791
G1 X179.487 Y85.197 E22.27902
G1 X179.811 Y85.113 E22.29016
G1 X180 Y85.1 E22.29646
G1 X190 Y85.1 E22.62906
G1 X190.332 Y85.14 E22.64018
G1 X190.644 Y85.257 E22.65126
G1 X190.921 Y85.445 E22.6624
G1 X191.144 Y85.693 E22.67349
G1 X191.303 Y85.987 E22.68461
G1 X191.387 Y86.311 E22.69574
G1 X191.4 Y86.5 E22.70204
G1 X191.4 Y100.1 E23.15438
G1 X193 Y100.1 E23.2076
G1 X193.332 Y100.14 E23.21872
G1 X193.644 Y100.257 E23.2298
G1 X193.921 Y100.445 E23.24093
G1 X194.144 Y100.693 E23.25203
G1 X194.303 Y100.987 E23.26314
G1 X194.387 Y101.311 E23.27428
G1 X194.4 Y101.5 E23.28058
G1 X194.4 Y118.5 E23.846
G1 X194.36 Y118.832 E23.85712
G1 X194.243 Y119.144 E23.86821
G1 X194.055 Y119.421 E23.87934
G1 X193.807 Y119.644 E23.89043
G1 X193.513 Y119.803 E23.90155
G1 X193.189 Y119.887 E23.91268
G1 X193 Y119.9 E23.91898
G1 X191.4 Y119.9 E23.9722
G1 X191.4 Y133.5 E24.42454
G1 X191.36 Y133.832 E24.43566
G1 X191.243 Y134.144 E24.44674
G1 X191.055 Y134.421 E24.45788
G1 X190.807 Y134.644 E24.46897
G1 X190.513 Y134.803 E24.48009
G1 X190.189 Y134.887 E24.49122
G1 X190 Y134.9 E24.49752
G1 X180 Y134.9 E24.83012
G1 X179.668 Y134.86 E24.84124
G1 X179.356 Y134.743 E24.85233
G1 X179.079 Y134.555 E24.86346
G1 X178.856 Y134.307 E24.87455
G1 X178.697 Y134.013 E24.88567
G1 X178.613 Y133.689 E24.8968
G1 X178.6 Y133.5 E24.9031
G1 X178.6 Y119.9 E25.35544
G1 X41.4 Y119.9 E29.91873
G1 X41.4 Y133.5 E30.37107
G1 X41.36 Y133.832 E30.38219
G1 X41.243 Y134.144 E30.39328
G1 X41.055 Y134.421 E30.40441
G1 X40.807 Y134.644 E30.4155
G1 X40.513 Y134.803 E30.42662
G1 X40.189 Y134.887 E30.43775
G1 X40 Y134.9 E30.44405
G1 X30 Y134.9 E30.77666
G1 X29.668 Y134.86 E30.78778
G1 X29.356 Y134.743 E30.79886
G1 X29.079 Y134.555 E30.80999
G1 X28.856 Y134.307 E30.82109
G1 X28.697 Y134.013 E30.8322
G1 X28.613 Y133.689 E30.84334
G1 X28.6 Y133.5 E30.84964
G1 X28.6 Y119.9 E31.30198
G1 X27 Y119.9 E31.35519
G1 X26.668 Y119.86 E31.36631
G1 X26.356 Y119.743 E31.3774
G1 X26.079 Y119.555 E31.38853
G1 X25.856 Y119.307 E31.39962
G1 X25.697 Y119.013 E31.41074
G1 X25.613 Y118.689 E31.42187
G1 X25.6 Y118.5 E31.42817
G1 X25.6 Y101.5 E31.9936
G1 X25.64 Y101.168 E32.00472
G1 X25.757 Y100.856 E32.0158
G1 X25.945 Y100.579 E32.02694
G1 X26.193 Y100.356 E32.03803
G1 X26.487 Y100.197 E32.04915
G1 X26.811 Y100.113 E32.06028
G1 X27 Y100.1 E32.06658
G1 X28.6 Y100.1 E32.1198
G1 X28.6 Y86.5 E32.57213
G1 X28.64 Y86.168 E32.58326
G1 X28.757 Y85.856 E32.59434
G1 X28.945 Y85.579 E32.60547
G1 X29.193 Y85.356 E32.61657
G1 X29.487 Y85.197 E32.62768
G0 F6000 X29.575 Y85.595
G1 F1200 X29.845 Y85.512 E32.63708
G1 X30 Y85.5 E32.64225
G1 X40 Y85.5 E32.97485
G1 X40.279 Y85.54 E32.98423
G1 X40.536 Y85.656 E32.9936
G1 X40.751 Y85.839 E33.00299
G1 X40.905 Y86.075 E33.01237
G1 X40.988 Y86.345 E33.02176
G1 X41 Y86.5 E33.02693
G1 X41 Y100.5 E33.49257
G1 X179 Y100.5 E38.08247
G1 X179 Y86.5 E38.54811
G1 X179.04 Y86.221 E38.55749
G1 X179.156 Y85.964 E38.56687
G1 X179.339 Y85.749 E38.57626
G1 X179.575 Y85.595 E38.58563
G1 X179.845 Y85.512 E38.59503
G1 X180 Y85.5 E38.6002
G1 X190 Y85.5 E38.9328
G1 X190.279 Y85.54 E38.94217
G1 X190.536 Y85.656 E38.95155
G1 X190.751 Y85.839 E38.96094
G1 X190.905 Y86.075 E38.97031
G1 X190.988 Y86.345 E38.97971
G1 X191 Y86.5 E38.98488
G1 X191 Y100.5 E39.45052
G1 X193 Y100.5 E39.51704
G1 X193.279 Y100.54 E39.52642
G1 X193.536 Y100.656 E39.53579
G1 X193.751 Y100.839 E39.54518
G1 X193.905 Y101.075 E39.55456
G1 X193.988 Y101.345 E39.56395
G1 X194 Y101.5 E39.56912
G1 X194 Y118.5 E40.13455
G1 X193.96 Y118.779 E40.14392
G1 X193.844 Y119.036 E40.1533
G1 X193.661 Y119.251 E40.16269
G1 X193.425 Y119.405 E40.17206
G1 X193.155 Y119.488 E40.18146
G1 X193 Y119.5 E40.18663
G1 X191 Y119.5 E40.25315
G1 X191 Y133.5 E40.71879
G1 X190.96 Y133.779 E40.72816
G1 X190.844 Y134.036 E40.73754
G1 X190.661 Y134.251 E40.74693
G1 X190.425 Y134.405 E40.75631
G1 X190.155 Y134.488 E40.7657
G1 X190 Y134.5 E40.77087
G1 X180 Y134.5 E41.10347
G1 X179.721 Y134.46 E41.11285
G1 X179.464 Y134.344 E41.12223
G1 X179.249 Y134.161 E41.13162
G1 X179.095 Y133.925 E41.14099
G1 X179.012 Y133.655 E41.15038
G1 X179 Y133.5 E41.15555
G1 X179 Y119.5 E41.6212
G1 X41 Y119.5 E46.21109
G1 X41 Y133.5 E46.67674
G1 X40.96 Y133.779 E46.68611
G1 X40.844 Y134.036 E46.69549
G1 X40.661 Y134.251 E46.70488
G1 X40.425 Y134.405 E46.71425
G1 X40.155 Y134.488 E46.72365
G1 X40 Y134.5 E46.72882
G1 X30 Y134.5 E47.06142
G1 X29.721 Y134.46 E47.07079
G1 X29.464 Y134.344 E47.08017
G1 X29.249 Y134.161 E47.08956
G1 X29.095 Y133.925 E47.09894
G1 X29.012 Y133.655 E47.10833
G1 X29 Y133.5 E47.1135
G1 X29 Y119.5 E47.57914
G1 X27 Y119.5 E47.64566
G1 X26.721 Y119.46 E47.65504
G1 X26.464 Y119.344 E47.66442
G1 X26.249 Y119.161 E47.67381
G1 X26.095 Y118.925 E47.68318
G1 X26.012 Y118.655 E47.69257
G1 X26 Y118.5 E47.69775
G1 X26 Y101.5 E48.26317
G1 X26.04 Y101.221 E48.27254
G1 X26.156 Y100.964 E48.28192
G1 X26.339 Y100.749 E48.29131
G1 X26.575 Y100.595 E48.30068
G1 X26.845 Y100.512 E48.31008
G1 X27 Y100.5 E48.31525
G1 X29 Y100.5 E48.38177
G1 X29 Y86.5 E48.84741
G1 X29.04 Y86.221 E48.85679
G1 X29.156 Y85.964 E48.86616
G1 X29.339 Y85.749 E48.87555
G1 X29.575 Y85.595 E48.88493
G0 F6000 X29.726 Y85.966
G1 F1200 X30 Y85.9 E48.8943
G1 X40 Y85.9 E49.2269
G1 X40.215 Y85.94 E49.23418
G1 X40.401 Y86.053 E49.24142
G1 X40.534 Y86.226 E49.24867
G1 X40.6 Y86.5 E49.25805
G1 X40.6 Y100.9 E49.73699
G1 X179.4 Y100.9 E54.3535
G1 X179.4 Y86.5 E54.83245
G1 X179.44 Y86.285 E54.83972
G1 X179.553 Y86.099 E54.84696
G1 X179.726 Y85.966 E54.85422
G1 X180 Y85.9 E54.86359
G1 X190 Y85.9 E55.19619
G1 X190.215 Y85.94 E55.20346
G1 X190.401 Y86.053 E55.2107
G1 X190.534 Y86.226 E55.21796
G1 X190.6 Y86.5 E55.22733
G1 X190.6 Y100.9 E55.70628
G1 X193 Y100.9 E55.78611
G1 X193.215 Y100.94 E55.79338
G1 X193.401 Y101.053 E55.80062
G1 X193.534 Y101.226 E55.80788
G1 X193.6 Y101.5 E55.81725
G1 X193.6 Y118.5 E56.38267
G1 X193.56 Y118.715 E56.38995
G1 X193.447 Y118.901 E56.39718
G1 X193.274 Y119.034 E56.40444
G1 X193 Y119.1 E56.41382
G1 X190.6 Y119.1 E56.49364
G1 X190.6 Y133.5 E56.97259
G1 X190.56 Y133.715 E56.97986
G1 X190.447 Y133.901 E56.9871
G1 X190.274 Y134.034 E56.99436
G1 X190 Y134.1 E57.00373
G1 X180 Y134.1 E57.33633
G1 X179.785 Y134.06 E57.3436
G1 X179.599 Y133.947 E57.35084
G1 X179.466 Y133.774 E57.3581
G1 X179.4 Y133.5 E57.36748
G1 X179.4 Y119.1 E57.84642
G1 X40.6 Y119.1 E62.46293
G1 X40.6 Y133.5 E62.94187
G1 X40.56 Y133.715 E62.94915
G1 X40.447 Y133.901 E62.95639
G1 X40.274 Y134.034 E62.96364
G1 X40 Y134.1 E62.97302
G1 X30 Y134.1 E63.30562
G1 X29.785 Y134.06 E63.31289
G1 X29.599 Y133.947 E63.32013
G1 X29.466 Y133.774 E63.32739
G1 X29.4 Y133.5 E63.33676
G1 X29.4 Y119.1 E63.81571
G1 X27 Y119.1 E63.89553
G1 X26.785 Y119.06 E63.90281
G1 X26.599 Y118.947 E63.91005
G1 X26.466 Y118.774 E63.9173
G1 X26.4 Y118.5 E63.92668
G1 X26.4 Y101.5 E64.4921
G1 X26.44 Y101.285 E64.49937
G1 X26.553 Y101.099 E64.50661
G1 X26.726 Y100.966 E64.51387
G1 X27 Y100.9 E64.52324
G1 X29.4 Y100.9 E64.60307
G1 X29.4 Y86.5 E65.08201
G1 X29.44 Y86.285 E65.08929
G1 X29.553 Y86.099 E65.09653
G1 X29.726 Y85.966 E65.10378
G0 F6000 X30 Y86.3
G1 F1200 X40 Y86.3 E65.43639
G1 X40.119 Y86.339 E65.44055
G1 X40.2 Y86.5 E65.44655
G1 X40.2 Y101.3 E65.9388
G1 X179.8 Y101.3 E70.58191
G1 X179.8 Y86.5 E71.07416
G1 X179.839 Y86.381 E71.07832
G1 X180 Y86.3 E71.08432
G1 X190 Y86.3 E71.41692
G1 X190.119 Y86.339 E71.42109
G1 X190.2 Y86.5 E71.42708
G1 X190.2 Y101.3 E71.91933
G1 X193 Y101.3 E72.01246
G1 X193.119 Y101.339 E72.01662
G1 X193.2 Y101.5 E72.02262
G1 X193.2 Y118.5 E72.58804
G1 X193.161 Y118.619 E72.59221
G1 X193 Y118.7 E72.5982
G1 X190.2 Y118.7 E72.69133
G1 X190.2 Y133.5 E73.18358
G1 X190.161 Y133.619 E73.18774
G1 X190 Y133.7 E73.19374
G1 X180 Y133.7 E73.52634
G1 X179.881 Y133.661 E73.5305
G1 X179.8 Y133.5 E73.5365
G1 X179.8 Y118.7 E74.02875
G1 X40.2 Y118.7 E78.67186
G1 X40.2 Y133.5 E79.16411
G1 X40.161 Y133.619 E79.16828
G1 X40 Y133.7 E79.17427
G1 X30 Y133.7 E79.50687
G1 X29.881 Y133.661 E79.51104
G1 X29.8 Y133.5 E79.51703
G1 X29.8 Y118.7 E80.00928
G1 X27 Y118.7 E80.10241
G1 X26.881 Y118.661 E80.10658
G1 X26.8 Y118.5 E80.11257
G1 X26.8 Y101.5 E80.67799
G1 X26.839 Y101.381 E80.68216
G1 X27 Y101.3 E80.68815
G1 X29.8 Y101.3 E80.78128
G1 X29.8 Y86.5 E81.27353
G1 X29.839 Y86.381 E81.2777
G1 X30 Y86.3 E81.28369
G1 F2700 E76.28369
;MESH:redminote5Holder.stl
G0 F6000 X30 Y85.835
G0 X39.586 Y85.835
G0 X39.586 Y86.914
G0 X39.572 Y101.928
G0 X180.782 Y102.282
G0 X180.782 Y87.282
G0 X189.218 Y87.282
G0 X189.218 Y102.282
G0 X192.218 Y102.282
G0 X192.218 Y117.718
G0 X189.218 Y117.718
G0 X189.218 Y132.718
G0 X180.5 Y133.03
G0 X180.2 Y133.3
;TYPE:WALL-OUTER
G1 F2700 E81.28369
G1 F1200 X180.2 Y118.3 E81.78259
G1 X39.8 Y118.3 E86.45232
G1 X39.8 Y133.3 E86.95122
G1 X30.2 Y133.3 E87.27052
G1 X30.2 Y118.3 E87.76942
G1 X27.2 Y118.3 E87.8692
G1 X27.2 Y101.7 E88.42132
G1 X30.2 Y101.7 E88.5211
G1 X30.2 Y86.7 E89.02
G1 X39.8 Y86.7 E89.3393
G1 X39.8 Y101.7 E89.8382
G1 X180.2 Y101.7 E94.50792
G1 X180.2 Y86.7 E95.00682
G1 X189.8 Y86.7 E95.32612
G1 X189.8 Y101.7 E95.82502
G1 X192.8 Y101.7 E95.9248
G1 X192.8 Y118.3 E96.47692
G1 X189.8 Y118.3 E96.5767
G1 X189.8 Y133.3 E97.0756
G1 X180.2 Y133.3 E97.3949
G0 F6000 X180.6 Y132.9
;TYPE:WALL-INNER
G1 F1200 X180.6 Y117.9 E97.8938
G1 X39.4 Y117.9 E102.59013
G1 X39.4 Y132.9 E103.08904
G1 X30.6 Y132.9 E103.38172
G1 X30.6 Y117.9 E103.88063
G1 X27.6 Y117.9 E103.98041
G1 X27.6 Y102.1 E104.50592
G1 X30.6 Y102.1 E104.6057
G1 X30.6 Y87.1 E105.1046
G1 X39.4 Y87.1 E105.39729
G1 X39.4 Y102.1 E105.89619
G1 X180.6 Y102.1 E110.59252
G1 X180.6 Y87.1 E111.09142
G1 X189.4 Y87.1 E111.38411
G1 X189.4 Y102.1 E111.88302
G1 X192.4 Y102.1 E111.9828
G1 X192.4 Y117.9 E112.50831
G1 X189.4 Y117.9 E112.60809
G1 X189.4 Y132.9 E113.10699
G1 X180.6 Y132.9 E113.39968
G0 F6000 X180.99 Y132.51
;TYPE:SKIN
G1 F1200 X180.99 Y117.51 E113.89858
G1 X39.01 Y117.51 E118.62085
G1 X39.01 Y132.51 E119.11976
G1 X30.99 Y132.51 E119.3865
G1 X30.99 Y117.51 E119.8854
G1 X27.99 Y117.51 E119.98518
G1 X27.99 Y102.49 E120.48475
G1 X30.99 Y102.49 E120.58453
G1 X30.99 Y87.49 E121.08343
G1 X39.01 Y87.49 E121.35018
G1 X39.01 Y102.49 E121.84908
G1 X180.99 Y102.49 E126.57136
G1 X180.99 Y87.49 E127.07026
G1 X189.01 Y87.49 E127.337
G1 X189.01 Y102.49 E127.83591
G1 X192.01 Y102.49 E127.93569
G1 X192.01 Y117.51 E128.43525
G1 X189.01 Y117.51 E128.53503
G1 X189.01 Y132.51 E129.03394
G1 X180.99 Y132.51 E129.30068
G1 F2700 E124.30068
G0 F6000 X180.71 Y132.51
G0 X180.782 Y132.718
G0 X189.218 Y132.718
G0 X189.218 Y117.718
G0 X192.218 Y117.718
G0 X192.218 Y102.282
G0 X189.518 Y102.282
G0 X189.29 Y88.157
G0 X188.849 Y88.157
G1 F2700 E129.30068
G1 F1200 X188.342 Y87.65 E129.32453
G0 F6000 X187.776 Y87.65
G1 F1200 X188.849 Y88.723 E129.375
G0 F6000 X188.849 Y89.289
G1 F1200 X187.21 Y87.65 E129.45209
G0 F6000 X186.645 Y87.65
G1 F1200 X188.849 Y89.854 E129.55576
G0 F6000 X188.849 Y90.42
G1 F1200 X186.079 Y87.65 E129.68606
G0 F6000 X185.513 Y87.65
G1 F1200 X188.849 Y90.986 E129.84297
G0 F6000 X188.849 Y91.551
G1 F1200 X184.948 Y87.65 E130.02646
G0 F6000 X184.382 Y87.65
G1 F1200 X188.849 Y92.117 E130.23658
G0 F6000 X188.849 Y92.683
