;FLAVOR:Marlin
;TIME:1857
;Filament used: 1.4644m
;Layer height: 0.2
;MINX:84.507
;MINY:77
;MINZ:0.2
;MAXX:135.5
;MAXY:127
;MAXZ:16
;Generated with Cura_SteamEngine 4.6.1
M140 S65
M105
M190 S65
M104 S200
M105
M109 S200
M82 ;absolute extrusion mode
M201 X500.00 Y500.00 Z100.00 E5000.00 ;Setup machine max acceleration
M203 X500.00 Y500.00 Z10.00 E50.00 ;Setup machine max feedrate
M204 P500.00 R1000.00 T500.00 ;Setup Print/Retract/Travel acceleration
M205 X8.00 Y8.00 Z0.40 E5.00 ;Setup Jerk
M220 S100 ;Reset Feedrate
M221 S100 ;Reset Flowrate

G28 ;Home

G92 E0 ;Reset Extruder
G1 Z2.0 F3000 ;Move Z Axis up
G1 X10.1 Y20 Z0.28 F5000.0 ;Move to start position
G1 X10.1 Y200.0 Z0.28 F1500.0 E15 ;Draw the first line
G1 X10.4 Y200.0 Z0.28 F5000.0 ;Move to side a little
G1 X10.4 Y20 Z0.28 F1500.0 E30 ;Draw the second line
G92 E0 ;Reset Extruder
G1 Z2.0 F3000 ;Move Z Axis up

G92 E0
G92 E0
G1 F2700 E-5
;LAYER_COUNT:80
;LAYER:0
M107
G0 F6000 X124.637 Y77.811 Z0.2
;TYPE:SKIRT
G1 F2700 E0
G1 F1200 X125.539 Y77.864 E0.03005
G1 X126.432 Y77.996 E0.06008
G1 X127.31 Y78.207 E0.09011
G1 X128.166 Y78.495 E0.12015
G1 X128.993 Y78.857 E0.15018
G1 X129.785 Y79.292 E0.18023
G1 X130.536 Y79.794 E0.21027
G1 X131.239 Y80.361 E0.24031
G1 X131.889 Y80.988 E0.27035
G1 X132.481 Y81.67 E0.30039
G1 X133.011 Y82.401 E0.33042
G1 X133.473 Y83.177 E0.36046
G1 X133.866 Y83.99 E0.39049
G1 X134.184 Y84.835 E0.42052
G1 X134.427 Y85.705 E0.45056
G1 X134.592 Y86.593 E0.4806
G1 X134.687 Y87.723 E0.51832
G1 X134.7 Y88.33 E0.53851
G1 X134.699 Y115.39 E1.43853
G1 X134.69 Y116.117 E1.46272
G1 X134.639 Y117.019 E1.49276
G1 X134.508 Y117.913 E1.52282
G1 X134.299 Y118.791 E1.55283
G1 X134.013 Y119.648 E1.58288
G1 X133.652 Y120.476 E1.61293
G1 X133.22 Y121.268 E1.64293
G1 X132.719 Y122.02 E1.67299
G1 X132.153 Y122.724 E1.70303
G1 X131.528 Y123.375 E1.73305
G1 X130.847 Y123.969 E1.7631
G1 X130.116 Y124.5 E1.79315
G1 X129.342 Y124.964 E1.82317
G1 X128.529 Y125.358 E1.85322
G1 X127.685 Y125.678 E1.88324
G1 X126.815 Y125.923 E1.9133
G1 X125.928 Y126.089 E1.94331
G1 X124.777 Y126.187 E1.98174
G1 X124.17 Y126.2 E2.00193
G1 X97.261 Y126.199 E2.89693
G1 X96.564 Y126.189 E2.92011
G1 X95.628 Y126.132 E2.9513
G1 X95.375 Y126.105 E2.95976
G1 X94.482 Y125.97 E2.9898
G1 X93.199 Y125.629 E3.03396
G1 X92.929 Y125.538 E3.04343
G1 X92.087 Y125.212 E3.07346
G1 X91.277 Y124.812 E3.10351
G1 X90.813 Y124.541 E3.12138
G1 X90.592 Y124.404 E3.13003
G1 X89.846 Y123.895 E3.16007
G1 X89.148 Y123.322 E3.1901
G1 X88.81 Y123.003 E3.20556
G1 X88.615 Y122.811 E3.21466
G1 X88 Y122.15 E3.24469
G1 X87.446 Y121.436 E3.27475
G1 X87.13 Y120.963 E3.29367
G1 X86.987 Y120.735 E3.30262
G1 X86.541 Y119.949 E3.33268
G1 X86.167 Y119.127 E3.36272
G1 X85.995 Y118.667 E3.37905
G1 X85.908 Y118.417 E3.38785
G1 X85.649 Y117.552 E3.41789
G1 X85.411 Y116.255 E3.46174
G1 X85.38 Y115.991 E3.47059
G1 X85.311 Y114.938 E3.50568
G1 X85.307 Y114.366 E3.52471
G1 X85.311 Y114.071 E3.53452
G1 X85.358 Y113.225 E3.5627
G1 X85.435 Y112.435 E3.5891
G1 X85.624 Y110.747 E3.6456
G1 X85.834 Y108.237 E3.72937
G1 X85.974 Y105.708 E3.81362
G1 X86.043 Y103.169 E3.89809
G1 X86.039 Y100.641 E3.98218
G1 X85.963 Y98.063 E4.06796
G1 X85.818 Y95.55 E4.15168
G1 X85.597 Y93.001 E4.23678
G1 X85.467 Y91.854 E4.27517
G1 X85.366 Y90.863 E4.3083
G1 X85.315 Y90.027 E4.33616
G1 X85.308 Y89.667 E4.34814
G1 X85.31 Y89.095 E4.36716
G1 X85.368 Y88.121 E4.39961
G1 X85.398 Y87.843 E4.40891
G1 X85.534 Y86.95 E4.43896
G1 X85.883 Y85.651 E4.48369
G1 X85.964 Y85.413 E4.49206
G1 X86.292 Y84.571 E4.52211
G1 X86.694 Y83.763 E4.55213
G1 X86.933 Y83.353 E4.56791
G1 X87.077 Y83.119 E4.57705
G1 X87.584 Y82.372 E4.60708
G1 X88.155 Y81.672 E4.63712
G1 X88.532 Y81.272 E4.65541
G1 X88.719 Y81.084 E4.66422
G1 X89.384 Y80.472 E4.69428
G1 X90.475 Y79.672 E4.73928
G1 X90.695 Y79.532 E4.74795
G1 X91.478 Y79.081 E4.77801
G1 X92.67 Y78.556 E4.82133
G1 X92.93 Y78.461 E4.83054
G1 X93.792 Y78.189 E4.8606
G1 X94.673 Y77.995 E4.8906
G1 X95.212 Y77.915 E4.90873
G1 X95.453 Y77.886 E4.9168
G1 X96.396 Y77.817 E4.94825
G1 X97.152 Y77.8 E4.9734
G1 X123.939 Y77.801 E5.86434
G1 X124.637 Y77.811 E5.88756
G0 F6000 X124.643 Y77.411
G1 F1200 X125.562 Y77.464 E5.91817
G1 X126.473 Y77.597 E5.9488
G1 X127.369 Y77.808 E5.97941
G1 X128.243 Y78.096 E6.01002
G1 X129.09 Y78.459 E6.04067
G1 X129.901 Y78.894 E6.07128
G1 X130.671 Y79.398 E6.10189
G1 X131.395 Y79.967 E6.13251
G1 X132.067 Y80.597 E6.16315
G1 X132.682 Y81.282 E6.19377
G1 X133.235 Y82.018 E6.22439
G1 X133.722 Y82.799 E6.255
G1 X134.139 Y83.62 E6.28563
G1 X134.484 Y84.474 E6.31626
G1 X134.753 Y85.354 E6.34687
G1 X134.945 Y86.255 E6.37751
G1 X135.058 Y87.168 E6.40811
G1 X135.087 Y87.712 E6.42622
G1 X135.1 Y88.33 E6.44678
G1 X135.099 Y115.395 E7.34697
G1 X135.09 Y116.122 E7.37115
G1 X135.039 Y117.041 E7.40176
G1 X134.908 Y117.953 E7.43241
G1 X134.698 Y118.849 E7.46302
G1 X134.412 Y119.724 E7.49364
G1 X134.051 Y120.571 E7.52426
G1 X133.617 Y121.383 E7.55488
G1 X133.115 Y122.155 E7.58551
G1 X132.547 Y122.88 E7.61614
G1 X131.919 Y123.553 E7.64676
G1 X131.235 Y124.169 E7.67737
G1 X130.5 Y124.723 E7.70799
G1 X129.72 Y125.212 E7.73861
G1 X128.9 Y125.631 E7.76923
G1 X128.047 Y125.977 E7.79985
G1 X127.167 Y126.248 E7.83048
G1 X126.267 Y126.441 E7.86109
G1 X125.353 Y126.556 E7.89173
G1 X124.788 Y126.587 E7.91055
G1 X124.17 Y126.6 E7.93111
G1 X97.255 Y126.599 E8.82631
G1 X96.558 Y126.589 E8.84949
G1 X95.585 Y126.53 E8.88191
G1 X95.332 Y126.503 E8.89037
G1 X94.422 Y126.366 E8.92098
G1 X93.527 Y126.15 E8.9516
G1 X93.072 Y126.008 E8.96746
G1 X92.802 Y125.917 E8.97693
G1 X91.943 Y125.585 E9.00756
G1 X91.116 Y125.18 E9.03819
G1 X90.602 Y124.881 E9.05797
G1 X90.381 Y124.744 E9.06662
G1 X89.62 Y124.226 E9.09724
G1 X88.908 Y123.643 E9.12784
G1 X88.529 Y123.288 E9.14512
G1 X88.334 Y123.096 E9.15422
G1 X87.707 Y122.422 E9.18483
G1 X87.14 Y121.697 E9.21545
G1 X86.791 Y121.175 E9.23633
G1 X86.648 Y120.947 E9.24528
G1 X86.193 Y120.147 E9.27589
G1 X85.81 Y119.31 E9.30651
G1 X85.617 Y118.799 E9.32468
G1 X85.53 Y118.549 E9.33348
G1 X85.265 Y117.667 E9.36411
G1 X85.078 Y116.766 E9.39472
G1 X85.013 Y116.301 E9.41033
G1 X84.982 Y116.037 E9.41917
G1 X84.911 Y114.944 E9.4556
G1 X84.907 Y114.36 E9.47503
G1 X84.911 Y114.065 E9.48484
G1 X84.959 Y113.187 E9.51409
G1 X85.038 Y112.391 E9.54069
G1 X85.223 Y110.741 E9.59592
G1 X85.434 Y108.217 E9.68016
G1 X85.574 Y105.676 E9.7648
G1 X85.643 Y103.159 E9.84855
G1 X85.639 Y100.618 E9.93306
G1 X85.564 Y98.098 E10.01691
G1 X85.42 Y95.606 E10.09994
G1 X85.199 Y93.045 E10.18543
G1 X85.069 Y91.895 E10.22392
G1 X84.968 Y90.904 E10.25706
G1 X84.915 Y90.035 E10.28601
G1 X84.908 Y89.675 E10.29799
G1 X84.91 Y89.09 E10.31745
G1 X84.97 Y88.078 E10.35116
G1 X85 Y87.8 E10.36046
G1 X85.139 Y86.89 E10.39108
G1 X85.356 Y85.995 E10.42171
G1 X85.504 Y85.522 E10.4382
G1 X85.585 Y85.284 E10.44656
G1 X85.919 Y84.426 E10.47718
G1 X86.327 Y83.6 E10.50782
G1 X86.592 Y83.144 E10.52536
G1 X86.736 Y82.91 E10.5345
G1 X87.253 Y82.147 E10.56516
G1 X87.833 Y81.432 E10.59578
G1 X88.249 Y80.99 E10.61597
G1 X88.436 Y80.802 E10.62479
G1 X89.113 Y80.178 E10.65541
G1 X89.841 Y79.615 E10.68602
G1 X90.26 Y79.334 E10.7028
G1 X90.48 Y79.194 E10.71147
G1 X91.278 Y78.734 E10.74211
G1 X92.533 Y78.181 E10.78772
G1 X92.793 Y78.086 E10.79693
G1 X93.671 Y77.808 E10.82756
G1 X94.569 Y77.607 E10.85817
G1 X95.165 Y77.518 E10.87821
G1 X95.406 Y77.489 E10.88628
G1 X96.385 Y77.417 E10.91893
G1 X97.152 Y77.4 E10.94445
G1 X123.945 Y77.401 E11.83559
G1 X124.643 Y77.411 E11.85881
G0 F6000 X124.649 Y77.011
G1 F1200 X125.585 Y77.065 E11.88999
G1 X126.513 Y77.197 E11.92117
G1 X127.427 Y77.409 E11.95237
G1 X128.319 Y77.698 E11.98356
G1 X129.184 Y78.061 E12.01476
G1 X130.014 Y78.497 E12.04594
G1 X130.805 Y79.002 E12.07716
G1 X131.549 Y79.573 E12.10835
G1 X132.242 Y80.205 E12.13954
G1 X132.879 Y80.893 E12.17073
G1 X133.454 Y81.634 E12.20192
G1 X133.965 Y82.42 E12.23311
G1 X134.407 Y83.248 E12.26432
G1 X134.776 Y84.11 E12.29551
G1 X135.071 Y85 E12.3267
G1 X135.289 Y85.912 E12.35788
G1 X135.429 Y86.84 E12.3891
G1 X135.487 Y87.701 E12.4178
G1 X135.5 Y88.33 E12.43872
G1 X135.499 Y115.4 E13.33908
G1 X135.49 Y116.127 E13.36326
G1 X135.439 Y117.064 E13.39447
G1 X135.307 Y117.992 E13.42565
G1 X135.098 Y118.906 E13.45683
G1 X134.811 Y119.799 E13.48803
G1 X134.449 Y120.665 E13.51925
G1 X134.015 Y121.496 E13.55043
G1 X133.511 Y122.287 E13.58162
G1 X132.942 Y123.032 E13.6128
G1 X132.311 Y123.727 E13.64402
G1 X131.624 Y124.365 E13.67521
G1 X130.885 Y124.942 E13.70639
G1 X130.099 Y125.454 E13.73759
G1 X129.273 Y125.897 E13.76877
G1 X128.411 Y126.269 E13.79999
G1 X127.522 Y126.565 E13.83116
G1 X126.61 Y126.785 E13.86236
G1 X125.683 Y126.926 E13.89355
G1 X124.799 Y126.987 E13.92302
G1 X124.17 Y127 E13.94394
G1 X97.249 Y126.999 E14.83934
G1 X96.552 Y126.989 E14.86252
G1 X95.543 Y126.928 E14.89614
G1 X95.29 Y126.901 E14.90461
G1 X94.362 Y126.762 E14.93582
G1 X93.45 Y126.544 E14.967
G1 X92.944 Y126.387 E14.98463
G1 X92.674 Y126.296 E14.9941
G1 X91.799 Y125.959 E15.02529
G1 X90.955 Y125.548 E15.05651
G1 X90.391 Y125.221 E15.0782
G1 X90.17 Y125.084 E15.08684
G1 X89.395 Y124.557 E15.11802
G1 X88.667 Y123.965 E15.14922
G1 X88.248 Y123.573 E15.16831
G1 X88.053 Y123.381 E15.17741
G1 X87.414 Y122.695 E15.20859
G1 X86.835 Y121.957 E15.23979
G1 X86.452 Y121.388 E15.2626
G1 X86.309 Y121.16 E15.27155
G1 X85.845 Y120.345 E15.30275
G1 X85.452 Y119.493 E15.33395
G1 X85.239 Y118.93 E15.35397
G1 X85.152 Y118.68 E15.36278
G1 X84.882 Y117.782 E15.39397
G1 X84.689 Y116.864 E15.42517
G1 X84.616 Y116.348 E15.4425
G1 X84.585 Y116.084 E15.45134
G1 X84.511 Y114.949 E15.48917
G1 X84.507 Y114.355 E15.50893
G1 X84.511 Y114.06 E15.51874
G1 X84.561 Y113.148 E15.54912
G1 X84.64 Y112.346 E15.57592
G1 X84.824 Y110.699 E15.63104
G1 X85.037 Y108.16 E15.71579
G1 X85.174 Y105.678 E15.79847
G1 X85.243 Y103.149 E15.88261
G1 X85.239 Y100.631 E15.96636
G1 X85.165 Y98.133 E16.04948
G1 X85.019 Y95.596 E16.134
G1 X84.801 Y93.085 E16.21783
G1 X84.671 Y91.935 E16.25633
G1 X84.57 Y90.944 E16.28946
G1 X84.515 Y90.043 E16.31948
G1 X84.508 Y89.683 E16.33146
G1 X84.51 Y89.085 E16.35135
G1 X84.572 Y88.035 E16.38633
G1 X84.602 Y87.757 E16.39563
G1 X84.743 Y86.829 E16.42685
G1 X84.962 Y85.917 E16.45804
G1 X85.126 Y85.393 E16.47631
G1 X85.207 Y85.155 E16.48467
G1 X85.546 Y84.281 E16.51585
G1 X85.959 Y83.439 E16.54704
G1 X86.252 Y82.934 E16.56646
G1 X86.396 Y82.7 E16.5756
G1 X86.921 Y81.923 E16.60679
G1 X87.51 Y81.193 E16.63798
G1 X87.965 Y80.708 E16.6601
G1 X88.152 Y80.52 E16.66892
G1 X88.841 Y79.883 E16.70013
G1 X89.582 Y79.308 E16.73133
G1 X90.045 Y78.997 E16.74988
G1 X90.265 Y78.857 E16.75855
G1 X91.077 Y78.387 E16.78976
G1 X91.926 Y77.989 E16.82094
G1 X92.396 Y77.805 E16.83773
G1 X92.656 Y77.71 E16.84694
G1 X93.55 Y77.426 E16.87814
G1 X94.464 Y77.219 E16.90931
G1 X95.117 Y77.121 E16.93127
G1 X95.358 Y77.092 E16.93934
G1 X96.374 Y77.017 E16.97323
G1 X97.152 Y77 E16.99911
G1 X123.951 Y77.001 E17.89045
G1 X124.649 Y77.011 E17.91366
G1 F2700 E12.91366
;MESH:CableHolderLaptop.stl
G0 F6000 X124.086 Y87.335
G0 X124.086 Y88.414
G0 X123.9 Y115.4
;TYPE:WALL-INNER
G1 F2700 E17.91366
G1 F1200 X96.739 Y115.4 E18.81704
G1 X96.565 Y115.381 E18.82287
G1 X96.444 Y115.338 E18.82714
G1 X96.326 Y115.264 E18.83177
G1 X96.236 Y115.174 E18.836
G1 X96.162 Y115.056 E18.84063
G1 X96.119 Y114.935 E18.84491
G1 X96.1 Y114.761 E18.85073
G1 X96.1 Y114.239 E18.86809
G1 X96.119 Y114.065 E18.87391
G1 X96.162 Y113.944 E18.87818
G1 X96.236 Y113.826 E18.88281
G1 X96.326 Y113.736 E18.88705
G1 X96.444 Y113.662 E18.89168
G1 X96.565 Y113.619 E18.89595
G1 X96.739 Y113.6 E18.90177
G1 X115.1 Y113.6 E19.51246
G1 X115.1 Y90.4 E20.2841
G1 X96.732 Y90.4 E20.89502
G1 X96.566 Y90.381 E20.90058
G1 X96.443 Y90.339 E20.9049
G1 X96.33 Y90.268 E20.90934
G1 X96.238 Y90.176 E20.91367
G1 X96.165 Y90.059 E20.91825
G1 X96.12 Y89.932 E20.92273
G1 X96.101 Y89.769 E20.92819
G1 X96.1 Y89.239 E20.94582
G1 X96.119 Y89.064 E20.95167
G1 X96.161 Y88.943 E20.95593
G1 X96.232 Y88.83 E20.96037
G1 X96.324 Y88.738 E20.9647
G1 X96.441 Y88.665 E20.96929
G1 X96.568 Y88.62 E20.97377
G1 X96.732 Y88.601 E20.97926
G1 X96.84 Y88.6 E20.98285
G1 X123.9 Y88.6 E21.88287
G1 X123.9 Y115.4 E22.77424
G0 F6000 X124.3 Y115.8
;TYPE:WALL-OUTER
G1 F1200 X96.713 Y115.8 E23.69179
G1 X96.478 Y115.774 E23.69965
G1 X96.266 Y115.699 E23.70713
G1 X96.075 Y115.579 E23.71464
G1 X95.921 Y115.425 E23.72188
G1 X95.801 Y115.234 E23.72938
G1 X95.726 Y115.022 E23.73686
G1 X95.7 Y114.787 E23.74473
G1 X95.7 Y114.213 E23.76382
G1 X95.726 Y113.978 E23.77168
G1 X95.801 Y113.766 E23.77916
G1 X95.921 Y113.575 E23.78666
G1 X96.075 Y113.421 E23.79391
G1 X96.266 Y113.301 E23.80141
G1 X96.478 Y113.226 E23.80889
G1 X96.713 Y113.2 E23.81675
G1 X114.7 Y113.2 E24.415
G1 X114.7 Y90.8 E25.16003
G1 X96.713 Y90.8 E25.75828
G1 X96.476 Y90.773 E25.76621
G1 X96.267 Y90.701 E25.77357
G1 X96.079 Y90.583 E25.78095
G1 X95.923 Y90.427 E25.78829
G1 X95.803 Y90.236 E25.79579
G1 X95.728 Y90.025 E25.80324
G1 X95.701 Y89.788 E25.81117
G1 X95.7 Y89.213 E25.83029
G1 X95.726 Y88.979 E25.83812
G1 X95.799 Y88.767 E25.84558
G1 X95.917 Y88.579 E25.85296
G1 X96.073 Y88.423 E25.8603
G1 X96.264 Y88.303 E25.86781
G1 X96.475 Y88.228 E25.87525
G1 X96.712 Y88.201 E25.88319
G1 X96.837 Y88.2 E25.88734
G1 X124.3 Y88.2 E26.80077
G1 X124.3 Y115.8 E27.71875
G0 F6000 X124.03 Y115.53
G0 X123.79 Y115.01
G0 X123.51 Y115.01
;TYPE:SKIN
G1 F1200 X96.764 Y115.01 E28.60832
G1 X96.65 Y114.997 E28.61214
G1 X96.614 Y114.985 E28.6134
G1 X96.568 Y114.956 E28.61521
G1 X96.544 Y114.932 E28.61634
G1 X96.515 Y114.886 E28.61815
G1 X96.503 Y114.85 E28.61941
G1 X96.49 Y114.736 E28.62323
G1 X96.49 Y114.264 E28.63892
G1 X96.503 Y114.15 E28.64274
G1 X96.515 Y114.114 E28.644
G1 X96.544 Y114.068 E28.64581
G1 X96.568 Y114.044 E28.64694
G1 X96.614 Y114.015 E28.64875
G1 X96.65 Y114.003 E28.65001
G1 X96.764 Y113.99 E28.65383
G1 X115.49 Y113.99 E29.27666
G1 X115.49 Y90.01 E30.07423
G1 X96.759 Y90.01 E30.69723
G1 X96.649 Y89.997 E30.70091
G1 X96.61 Y89.984 E30.70228
G1 X96.572 Y89.96 E30.70378
G1 X96.547 Y89.935 E30.70495
G1 X96.52 Y89.891 E30.70667
G1 X96.503 Y89.842 E30.70839
G1 X96.491 Y89.74 E30.71181
G1 X96.49 Y89.264 E30.72764
G1 X96.503 Y89.151 E30.73143
G1 X96.517 Y89.108 E30.73293
G1 X96.54 Y89.072 E30.73435
G1 X96.565 Y89.047 E30.73553
G1 X96.609 Y89.02 E30.73724
G1 X96.657 Y89.002 E30.73895
G1 X96.76 Y88.991 E30.74239
G1 X96.844 Y88.99 E30.74519
G1 X123.51 Y88.99 E31.6321
G1 X123.51 Y115.01 E32.49753
G0 F6000 X123.79 Y115.01
G0 X123.79 Y89.407
G0 X123.349 Y89.407
G1 F1200 X123.091 Y89.149 E32.50967
G0 F6000 X122.525 Y89.149
G1 F1200 X123.349 Y89.973 E32.54843
G0 F6000 X123.349 Y90.539
G1 F1200 X121.959 Y89.149 E32.61381
G0 F6000 X121.393 Y89.149
G1 F1200 X123.349 Y91.105 E32.70581
G0 F6000 X123.349 Y91.67
G1 F1200 X120.828 Y89.149 E32.82439
G0 F6000 X120.262 Y89.149
G1 F1200 X123.349 Y92.236 E32.96959
G0 F6000 X123.349 Y92.802
G1 F1200 X119.696 Y89.149 E33.14142
G0 F6000 X119.131 Y89.149
G1 F1200 X123.349 Y93.367 E33.33982
G0 F6000 X123.349 Y93.933
G1 F1200 X118.565 Y89.149 E33.56485
G0 F6000 X117.999 Y89.149
G1 F1200 X123.349 Y94.499 E33.81649
G0 F6000 X123.349 Y95.064
G1 F1200 X117.434 Y89.149 E34.09472
G0 F6000 X116.868 Y89.149
G1 F1200 X123.349 Y95.63 E34.39956
G0 F6000 X123.349 Y96.196
G1 F1200 X116.302 Y89.149 E34.73103
G0 F6000 X115.737 Y89.149
G1 F1200 X123.349 Y96.761 E35.08908
G0 F6000 X123.349 Y97.327
G1 F1200 X115.171 Y89.149 E35.47375
G0 F6000 X114.605 Y89.149
G1 F1200 X115.305 Y89.849 E35.50667
G0 F6000 X115.649 Y90.193
G1 F1200 X123.349 Y97.893 E35.86886
G0 F6000 X123.349 Y98.458
G1 F1200 X115.649 Y90.759 E36.23102
G0 F6000 X115.649 Y91.324
G1 F1200 X123.349 Y99.024 E36.5932
G0 F6000 X123.349 Y99.59
G1 F1200 X115.649 Y91.89 E36.95539
G0 F6000 X115.649 Y92.456
G1 F1200 X123.349 Y100.156 E37.31757
G0 F6000 X123.349 Y100.721
G1 F1200 X115.649 Y93.022 E37.67973
G0 F6000 X115.649 Y93.587
G1 F1200 X123.349 Y101.287 E38.04192
G0 F6000 X123.349 Y101.853
G1 F1200 X115.649 Y94.153 E38.4041
G0 F6000 X115.649 Y94.719
G1 F1200 X123.349 Y102.418 E38.76626
G0 F6000 X123.349 Y102.984
G1 F1200 X115.649 Y95.284 E39.12845
