;FLAVOR:Marlin
;TIME:1972
;Filament used: 0.512145m
;Layer height: 0.2
;MINX:96.001
;MINY:91
;MINZ:0.2
;MAXX:123.999
;MAXY:128.998
;MAXZ:28
;Generated with Cura_SteamEngine 4.6.1
M140 S65
M105
M190 S65
M104 S200
M105
M109 S200
M82 ;absolute extrusion mode
M201 X500.00 Y500.00 Z100.00 E5000.00 ;Setup machine max acceleration
M203 X500.00 Y500.00 Z10.00 E50.00 ;Setup machine max feedrate
M204 P500.00 R1000.00 T500.00 ;Setup Print/Retract/Travel acceleration
M205 X8.00 Y8.00 Z0.40 E5.00 ;Setup Jerk
M220 S100 ;Reset Feedrate
M221 S100 ;Reset Flowrate

G28 ;Home

G92 E0 ;Reset Extruder
G1 Z2.0 F3000 ;Move Z Axis up
G1 X10.1 Y20 Z0.28 F5000.0 ;Move to start position
G1 X10.1 Y200.0 Z0.28 F1500.0 E15 ;Draw the first line
G1 X10.4 Y200.0 Z0.28 F5000.0 ;Move to side a little
G1 X10.4 Y20 Z0.28 F1500.0 E30 ;Draw the second line
G92 E0 ;Reset Extruder
G1 Z2.0 F3000 ;Move Z Axis up

G92 E0
G92 E0
G1 F2700 E-5
;LAYER_COUNT:140
;LAYER:0
M107
G0 F6000 X113.137 Y91.811 Z0.2
;TYPE:SKIRT
G1 F2700 E0
G1 F1200 X114.039 Y91.864 E0.03005
G1 X114.932 Y91.996 E0.06008
G1 X115.81 Y92.207 E0.09011
G1 X116.666 Y92.495 E0.12015
G1 X117.493 Y92.857 E0.15018
G1 X118.285 Y93.292 E0.18023
G1 X119.036 Y93.794 E0.21027
G1 X119.739 Y94.361 E0.24031
G1 X120.389 Y94.988 E0.27035
G1 X120.981 Y95.67 E0.30039
G1 X121.511 Y96.401 E0.33042
G1 X121.973 Y97.177 E0.36046
G1 X122.366 Y97.99 E0.39049
G1 X122.684 Y98.835 E0.42052
G1 X122.927 Y99.705 E0.45056
G1 X123.092 Y100.593 E0.4806
G1 X123.187 Y101.709 E0.51786
G1 X123.193 Y101.912 E0.52461
G1 X123.196 Y102.358 E0.53945
G1 X123.186 Y103.061 E0.56283
G1 X123.186 Y105.711 E0.65097
G1 X123.199 Y106.622 E0.68127
G1 X123.195 Y111.558 E0.84544
G1 X123.171 Y113.244 E0.90153
G1 X123.176 Y116.27 E1.00217
G1 X123.196 Y117.673 E1.04884
G1 X123.19 Y118.11 E1.06338
G1 X123.138 Y119.012 E1.09343
G1 X123.006 Y119.905 E1.12345
G1 X122.795 Y120.783 E1.15349
G1 X122.508 Y121.639 E1.18351
G1 X122.146 Y122.467 E1.21357
G1 X121.713 Y123.259 E1.24359
G1 X121.211 Y124.01 E1.27364
G1 X120.644 Y124.713 E1.30368
G1 X120.018 Y125.364 E1.33372
G1 X119.336 Y125.956 E1.36375
G1 X118.605 Y126.486 E1.39378
G1 X117.83 Y126.949 E1.42381
G1 X117.016 Y127.342 E1.45387
G1 X116.172 Y127.661 E1.48388
G1 X115.302 Y127.905 E1.51394
G1 X114.414 Y128.07 E1.54398
G1 X113.752 Y128.142 E1.56612
G1 X113.418 Y128.167 E1.57726
G1 X112.665 Y128.195 E1.60233
G1 X107.58 Y128.198 E1.77145
G1 X106.892 Y128.189 E1.79434
G1 X105.99 Y128.137 E1.82439
G1 X105.096 Y128.006 E1.85444
G1 X104.218 Y127.796 E1.88447
G1 X103.362 Y127.509 E1.9145
G1 X102.534 Y127.148 E1.94454
G1 X101.742 Y126.715 E1.97456
G1 X100.991 Y126.213 E2.00461
G1 X100.287 Y125.647 E2.03465
G1 X99.636 Y125.021 E2.06469
G1 X99.043 Y124.34 E2.09472
G1 X98.512 Y123.609 E2.12477
G1 X98.049 Y122.834 E2.1548
G1 X97.655 Y122.021 E2.18485
G1 X97.336 Y121.177 E2.21486
G1 X97.092 Y120.307 E2.24491
G1 X96.926 Y119.42 E2.27493
G1 X96.858 Y118.809 E2.29537
G1 X96.834 Y118.511 E2.30532
G1 X96.801 Y117.693 E2.33255
G1 X96.801 Y102.536 E2.83667
G1 X96.81 Y101.871 E2.85879
G1 X96.862 Y100.969 E2.88884
G1 X96.994 Y100.076 E2.91886
G1 X97.204 Y99.198 E2.94889
G1 X97.491 Y98.341 E2.97895
G1 X97.853 Y97.514 E3.00898
G1 X98.286 Y96.722 E3.039
G1 X98.788 Y95.971 E3.06904
G1 X99.355 Y95.267 E3.09911
G1 X99.981 Y94.617 E3.12912
G1 X100.662 Y94.024 E3.15916
G1 X101.394 Y93.494 E3.18921
G1 X102.169 Y93.031 E3.21924
G1 X102.982 Y92.638 E3.24927
G1 X103.827 Y92.318 E3.27933
G1 X104.696 Y92.075 E3.30934
G1 X105.584 Y91.909 E3.33939
G1 X106.723 Y91.813 E3.3774
G1 X107.33 Y91.8 E3.3976
G1 X112.439 Y91.801 E3.56752
G1 X113.137 Y91.811 E3.59074
G0 F6000 X113.143 Y91.411
G1 F1200 X114.062 Y91.464 E3.62136
G1 X114.973 Y91.597 E3.65198
G1 X115.869 Y91.808 E3.68259
G1 X116.743 Y92.096 E3.7132
G1 X117.59 Y92.459 E3.74385
G1 X118.401 Y92.894 E3.77446
G1 X119.171 Y93.398 E3.80507
G1 X119.895 Y93.967 E3.8357
G1 X120.567 Y94.597 E3.86633
G1 X121.182 Y95.282 E3.89695
G1 X121.735 Y96.018 E3.92757
G1 X122.222 Y96.799 E3.95818
G1 X122.639 Y97.62 E3.98881
G1 X122.984 Y98.474 E4.01944
G1 X123.253 Y99.354 E4.05005
G1 X123.445 Y100.255 E4.08069
G1 X123.558 Y101.168 E4.11129
G1 X123.592 Y101.9 E4.13566
G1 X123.596 Y102.364 E4.1511
G1 X123.586 Y103.067 E4.17448
G1 X123.586 Y105.704 E4.26219
G1 X123.599 Y106.623 E4.29276
G1 X123.595 Y111.564 E4.45709
G1 X123.571 Y113.25 E4.51318
G1 X123.576 Y116.262 E4.61336
G1 X123.596 Y117.679 E4.66049
G1 X123.59 Y118.116 E4.67503
G1 X123.537 Y119.035 E4.70564
G1 X123.405 Y119.946 E4.73626
G1 X123.195 Y120.842 E4.76687
G1 X122.907 Y121.717 E4.79751
G1 X122.544 Y122.563 E4.82813
G1 X122.11 Y123.374 E4.85872
G1 X121.606 Y124.145 E4.88936
G1 X121.038 Y124.87 E4.91999
G1 X120.409 Y125.542 E4.9506
G1 X119.724 Y126.157 E4.98122
G1 X118.988 Y126.71 E5.01184
G1 X118.207 Y127.198 E5.04247
G1 X117.387 Y127.616 E5.07308
G1 X116.533 Y127.961 E5.10372
G1 X115.653 Y128.23 E5.13432
G1 X114.753 Y128.423 E5.16494
G1 X113.782 Y128.54 E5.19747
G1 X113.448 Y128.565 E5.20861
G1 X112.666 Y128.595 E5.23464
G1 X107.574 Y128.598 E5.404
G1 X106.886 Y128.589 E5.42688
G1 X105.967 Y128.537 E5.4575
G1 X105.056 Y128.406 E5.48811
G1 X104.16 Y128.195 E5.51872
G1 X103.285 Y127.908 E5.54935
G1 X102.438 Y127.546 E5.57999
G1 X101.626 Y127.112 E5.61061
G1 X100.855 Y126.609 E5.64123
G1 X100.131 Y126.042 E5.67182
G1 X99.458 Y125.413 E5.70245
G1 X98.842 Y124.728 E5.73309
G1 X98.289 Y123.993 E5.76369
G1 X97.801 Y123.212 E5.79432
G1 X97.382 Y122.392 E5.82494
G1 X97.037 Y121.539 E5.85555
G1 X96.766 Y120.659 E5.88617
G1 X96.574 Y119.758 E5.91681
G1 X96.459 Y118.841 E5.94755
G1 X96.435 Y118.543 E5.9575
G1 X96.401 Y117.693 E5.98579
G1 X96.401 Y102.531 E6.49008
G1 X96.41 Y101.866 E6.5122
G1 X96.462 Y100.946 E6.54285
G1 X96.594 Y100.035 E6.57346
G1 X96.805 Y99.139 E6.60408
G1 X97.092 Y98.264 E6.63471
G1 X97.455 Y97.418 E6.66533
G1 X97.889 Y96.606 E6.69595
G1 X98.392 Y95.835 E6.72657
G1 X98.961 Y95.111 E6.7572
G1 X99.589 Y94.439 E6.78779
G1 X100.274 Y93.823 E6.81843
G1 X101.01 Y93.27 E6.84905
G1 X101.791 Y92.782 E6.87968
G1 X102.611 Y92.364 E6.91029
G1 X103.465 Y92.019 E6.94092
G1 X104.345 Y91.749 E6.97154
G1 X105.245 Y91.557 E7.00215
G1 X106.159 Y91.443 E7.03278
G1 X106.712 Y91.413 E7.0512
G1 X107.33 Y91.4 E7.07176
G1 X112.445 Y91.401 E7.24189
G1 X113.143 Y91.411 E7.26511
G0 F6000 X113.149 Y91.011
G1 F1200 X114.085 Y91.065 E7.29629
G1 X115.013 Y91.197 E7.32746
G1 X115.927 Y91.409 E7.35867
G1 X116.819 Y91.698 E7.38986
G1 X117.684 Y92.061 E7.42106
G1 X118.514 Y92.497 E7.45224
G1 X119.305 Y93.002 E7.48345
G1 X120.049 Y93.573 E7.51465
G1 X120.742 Y94.205 E7.54584
G1 X121.379 Y94.893 E7.57703
G1 X121.954 Y95.634 E7.60822
G1 X122.465 Y96.42 E7.63941
G1 X122.907 Y97.248 E7.67062
G1 X123.276 Y98.11 E7.70181
G1 X123.571 Y99 E7.73299
G1 X123.789 Y99.912 E7.76418
G1 X123.929 Y100.84 E7.7954
G1 X123.986 Y101.685 E7.82357
G1 X123.992 Y101.888 E7.83032
G1 X123.996 Y102.37 E7.84635
G1 X123.986 Y103.073 E7.86974
G1 X123.986 Y105.698 E7.95704
G1 X123.999 Y106.623 E7.98781
G1 X123.995 Y111.57 E8.15235
G1 X123.971 Y113.255 E8.2084
G1 X123.976 Y116.254 E8.30815
G1 X123.995 Y117.339 E8.34424
G1 X123.996 Y117.684 E8.35572
G1 X123.99 Y118.121 E8.37025
G1 X123.937 Y119.057 E8.40143
G1 X123.805 Y119.986 E8.43264
G1 X123.594 Y120.9 E8.46384
G1 X123.306 Y121.792 E8.49502
G1 X122.943 Y122.657 E8.52622
G1 X122.507 Y123.488 E8.55743
G1 X122.002 Y124.278 E8.58862
G1 X121.432 Y125.023 E8.61981
G1 X120.801 Y125.716 E8.65099
G1 X120.113 Y126.353 E8.68217
G1 X119.373 Y126.93 E8.71338
G1 X118.586 Y127.441 E8.74459
G1 X117.759 Y127.883 E8.77578
G1 X116.897 Y128.253 E8.80698
G1 X116.007 Y128.548 E8.83817
G1 X115.095 Y128.767 E8.86936
G1 X113.812 Y128.939 E8.91242
G1 X113.478 Y128.964 E8.92356
G1 X112.666 Y128.995 E8.95058
G1 X107.569 Y128.998 E9.12011
G1 X106.881 Y128.989 E9.14299
G1 X105.945 Y128.937 E9.17417
G1 X105.016 Y128.805 E9.20538
G1 X104.102 Y128.595 E9.23657
G1 X103.209 Y128.307 E9.26778
G1 X102.344 Y127.945 E9.29897
G1 X101.514 Y127.51 E9.33014
G1 X100.723 Y127.006 E9.36133
G1 X99.978 Y126.436 E9.39253
G1 X99.284 Y125.805 E9.42373
G1 X98.646 Y125.117 E9.45494
G1 X98.07 Y124.377 E9.48613
G1 X97.558 Y123.591 E9.51733
G1 X97.115 Y122.765 E9.5485
G1 X96.745 Y121.903 E9.5797
G1 X96.449 Y121.013 E9.6109
G1 X96.23 Y120.101 E9.64209
G1 X96.061 Y118.873 E9.68332
G1 X96.037 Y118.575 E9.69326
G1 X96.001 Y117.693 E9.72262
G1 X96.001 Y102.525 E10.22711
G1 X96.01 Y101.86 E10.24923
G1 X96.063 Y100.924 E10.28042
G1 X96.195 Y99.995 E10.31162
G1 X96.406 Y99.081 E10.34282
G1 X96.694 Y98.189 E10.374
G1 X97.057 Y97.324 E10.4052
G1 X97.492 Y96.493 E10.4364
G1 X97.996 Y95.703 E10.46756
G1 X98.566 Y94.958 E10.49876
G1 X99.198 Y94.264 E10.52998
G1 X99.886 Y93.627 E10.56117
G1 X100.626 Y93.051 E10.59236
G1 X101.412 Y92.539 E10.62356
G1 X102.239 Y92.097 E10.65475
G1 X103.101 Y91.727 E10.68595
G1 X103.991 Y91.431 E10.71714
G1 X104.903 Y91.213 E10.74833
G1 X105.83 Y91.072 E10.77952
G1 X106.701 Y91.013 E10.80855
G1 X107.33 Y91 E10.82948
G1 X112.451 Y91.001 E10.9998
G1 X113.149 Y91.011 E11.02302
G1 F2700 E6.02302
;MESH:CableHolderTest.stl
G0 F6000 X110.851 Y101.335
G0 X110.851 Y102.301
G0 X109.745 Y102.6
;TYPE:WALL-INNER
G1 F2700 E11.02302
G1 F1200 X109.568 Y102.753 E11.0308
G1 X109.433 Y102.946 E11.03864
G1 X109.203 Y103.274 E11.05196
G1 X108.976 Y103.865 E11.07302
G1 X108.897 Y104.494 E11.0941
G1 X108.972 Y105.126 E11.11527
G1 X109.199 Y105.72 E11.13642
G1 X109.563 Y106.243 E11.15761
G1 X110.045 Y106.659 E11.17879
G1 X110.61 Y106.947 E11.19988
G1 X111.229 Y107.09 E11.22101
G1 X111.865 Y107.08 E11.24217
G1 X112.147 Y107.003 E11.25189
G1 X112.148 Y107.002 E11.25194
G1 X112.399 Y106.935 E11.26058
G1 X112.399 Y107.195 E11.2658
G1 X112.399 Y107.196 E11.26583
G1 X112.396 Y111.026 E11.39322
G1 X112.396 Y111.027 E11.39325
G1 X112.396 Y111.328 E11.40326
G1 X112.119 Y111.211 E11.40909
G1 X112.118 Y111.21 E11.40914
G1 X111.769 Y111.06 E11.42177
G1 X111.033 Y110.913 E11.44674
G1 X110.285 Y110.92 E11.47161
G1 X109.557 Y111.083 E11.49643
G1 X108.874 Y111.394 E11.52139
G1 X108.273 Y111.837 E11.54622
G1 X107.97 Y112.177 E11.56137
G1 X107.775 Y112.396 E11.57112
G1 X107.6 Y112.702 E11.58285
G1 X107.6 Y112.396 E11.58477
G1 X107.6 Y112.102 E11.59199
G1 X107.6 Y102.6 E11.90802
G1 X109.332 Y102.6 E11.96563
G1 X109.568 Y102.6 E11.97121
G1 X109.745 Y102.6 E11.97192
G0 F6000 X109.232 Y103.926
G0 X109.159 Y104.496
G0 X109.435 Y106.359
G0 X112.213 Y107.179
G0 X112.208 Y111.043
G0 X108.787 Y111.246
G0 X107.646 Y113.148
G0 X107.431 Y113.809
G0 X107.367 Y114.428
G0 X107.6 Y116.298
G1 F1200 X107.776 Y116.605 E11.98369
G1 X108.27 Y117.16 E12.0084
G1 X108.593 Y117.399 E12.02177
G1 X108.271 Y117.399 E12.02447
G1 X107.6 Y117.4 E12.04679
G1 X107.6 Y116.605 E12.07092
G1 X107.6 Y116.298 E12.07286
G1 F2700 E7.07286
G0 F6000 X108.457 Y116.949
G0 X109.125 Y116.22
G0 X112.308 Y116.207
G0 X112.696 Y116.76
G0 X112.849 Y116.83
G0 X112.795 Y116.924
;TYPE:WALL-OUTER
G1 F2700 E12.07286
G1 F1200 X112.799 Y116.939 E12.07337
G1 X112.8 Y117.795 E12.10184
G1 X107.2 Y117.8 E12.2881
G1 X107.2 Y102.2 E12.80696
G1 X112.8 Y102.2 E12.99322
G1 X112.796 Y102.717 E13.01041
G1 X112.765 Y102.705 E13.01152
G1 X112.335 Y102.464 E13.02791
G1 X111.816 Y102.322 E13.04581
G1 X111.279 Y102.311 E13.06367
G1 X110.755 Y102.428 E13.08153
G1 X110.275 Y102.671 E13.09942
G1 X109.867 Y103.023 E13.11735
G1 X109.559 Y103.463 E13.13521
G1 X109.367 Y103.963 E13.15302
G1 X109.3 Y104.496 E13.17089
G1 X109.363 Y105.03 E13.18878
G1 X109.555 Y105.531 E13.20662
G1 X109.863 Y105.973 E13.22454
G1 X110.27 Y106.325 E13.24244
G1 X110.748 Y106.568 E13.26027
G1 X111.272 Y106.689 E13.27816
G1 X111.809 Y106.681 E13.29602
G1 X112.329 Y106.54 E13.31394
G1 X112.795 Y106.28 E13.33169
G1 X112.799 Y106.297 E13.33227
G1 X112.796 Y112.078 E13.52455
G1 X112.26 Y111.705 E13.54627
G1 X111.65 Y111.444 E13.56833
G1 X110.995 Y111.313 E13.59055
G1 X110.331 Y111.32 E13.61264
G1 X109.685 Y111.464 E13.63465
G1 X109.078 Y111.741 E13.65684
G1 X108.544 Y112.134 E13.67889
G1 X108.102 Y112.631 E13.70102
G1 X107.774 Y113.204 E13.72298
G1 X107.568 Y113.839 E13.74518
G1 X107.5 Y114.497 E13.76718
G1 X107.568 Y115.16 E13.78935
G1 X107.77 Y115.79 E13.81135
G1 X108.102 Y116.37 E13.83358
G1 X108.541 Y116.863 E13.85554
G1 X109.075 Y117.257 E13.87761
G1 X109.679 Y117.533 E13.8997
G1 X110.328 Y117.679 E13.92182
G1 X110.991 Y117.686 E13.94387
G1 X111.643 Y117.559 E13.96597
G1 X112.254 Y117.299 E13.98805
G1 X112.795 Y116.924 E14.00995
G1 F2700 E9.00995
G0 F6000 X112.849 Y116.83
G0 X112.752 Y116.741
G0 X112.713 Y116.058
G0 X112.129 Y112.669
G0 X112.687 Y111.87
G0 X111.895 Y110.993
G0 X112.006 Y110.737
;TYPE:SKIN
G1 F2700 E14.00995
G1 F1200 X111.886 Y110.686 E14.01428
G1 X111.07 Y110.523 E14.04196
G1 X110.24 Y110.53 E14.06957
G1 X109.432 Y110.711 E14.09711
G1 X108.675 Y111.056 E14.12478
G1 X108.009 Y111.547 E14.1523
G1 X107.99 Y111.568 E14.15324
G1 X107.99 Y102.99 E14.43854
G1 X108.925 Y102.99 E14.46964
G1 X108.856 Y103.089 E14.47366
G1 X108.595 Y103.77 E14.49791
G1 X108.505 Y104.492 E14.52211
G1 X108.59 Y105.22 E14.54649
G1 X108.852 Y105.903 E14.57082
G1 X109.271 Y106.506 E14.59524
G1 X109.826 Y106.985 E14.61963
G1 X110.476 Y107.316 E14.64389
G1 X111.188 Y107.48 E14.66819
G1 X111.92 Y107.47 E14.69254
G1 X112.009 Y107.446 E14.6956
G1 X112.006 Y110.737 E14.80506
G0 F6000 X111.896 Y110.993
G0 X111.448 Y111.046
G0 X108.563 Y111.486
G0 X108.302 Y111.131
G1 F1200 X108.149 Y110.977 E14.81228
G0 F6000 X108.634 Y110.896
G1 F1200 X108.149 Y110.411 E14.83509
G0 F6000 X108.149 Y109.846
G1 F1200 X109.022 Y110.719 E14.87616
G0 F6000 X109.416 Y110.548
G1 F1200 X108.149 Y109.28 E14.93578
G0 F6000 X108.149 Y108.714
G1 F1200 X109.879 Y110.445 E15.01717
G0 F6000 X110.368 Y110.368
G1 F1200 X108.149 Y108.149 E15.12155
G0 F6000 X108.149 Y107.583
G1 F1200 X110.929 Y110.363 E15.25231
G0 F6000 X111.595 Y110.464
G1 F1200 X108.149 Y107.017 E15.41443
G0 F6000 X108.149 Y106.452
G1 F1200 X111.845 Y110.148 E15.58827
G0 F6000 X111.846 Y109.583
G1 F1200 X108.149 Y105.886 E15.76217
G0 F6000 X108.646 Y105.818
G1 F1200 X108.149 Y105.32 E15.78557
G0 F6000 X108.404 Y105.01
G1 F1200 X108.149 Y104.755 E15.79756
G0 F6000 X108.356 Y104.396
G1 F1200 X108.149 Y104.189 E15.8073
G0 F6000 X108.419 Y103.893
G1 F1200 X108.149 Y103.623 E15.82
G0 F6000 X108.544 Y103.453
G1 F1200 X108.241 Y103.149 E15.83428
G0 F6000 X108.241 Y102.71
G0 X109.307 Y102.792
G0 X108.798 Y103.823
G0 X109.431 Y105.597
G0 X110.363 Y106.945
G0 X110.164 Y107.335
G1 F1200 X111.847 Y109.018 E15.91344
G0 F6000 X111.847 Y108.453
G1 F1200 X110.993 Y107.599 E15.95361
G0 F6000 X111.594 Y107.634
G1 F1200 X111.848 Y107.888 E15.96556
G0 F6000 X112.288 Y107.889
G0 X112.213 Y107.179
G0 X110.701 Y106.699
G0 X110.192 Y106.442
G0 X109.757 Y106.064
G0 X109.431 Y105.597
G0 X109.227 Y105.066
G0 X109.19 Y104.744
G0 X109.25 Y103.015
G0 X109.209 Y102.986
;TYPE:SKIN
G1 F1200 X109.021 Y102.798 E15.96998
G0 F6000 X109.265 Y102.76
G1 F1200 X109.325 Y102.82 E15.97139
G0 F6000 X109.36 Y102.765
G0 X107.782 Y102.782
G0 X107.71 Y111.719
G0 X107.759 Y111.719
G1 F1200 X107.973 Y111.932 E15.97641
G0 F6000 X107.84 Y112.082
G1 F1200 X107.759 Y112.002 E15.9783
G0 F6000 X107.56 Y112.934
G1 F1200 X107.476 Y113.133 E15.98322
G1 X107.402 Y113.625 E15.99454
G0 F6000 X107.42 Y113.65
G0 X107.387 Y114.129
G0 X107.4 Y115.577
G0 X107.479 Y115.682
G1 F1200 X107.504 Y115.99 E16.00251
G1 X107.393 Y116.161 E16.00777
G0 F6000 X107.4 Y116.142
G0 X107.775 Y117.108
G1 F1200 X107.89 Y117.224 E16.01048
G0 F6000 X108.791 Y117.559
G1 F1200 X108.967 Y117.452 E16.02144
G1 F2700 E11.02144
G0 F6000 X108.789 Y117.294
G0 X109.643 Y117.646
G0 X111.677 Y117.674
G0 X112.164 Y117.555
G0 X112.2 Y117.574
G1 F2700 E16.02144
G1 F1200 X112.439 Y117.53 E16.02631
G1 X112.571 Y117.379 E16.03033
G1 F2700 E11.03033
G0 F6000 X112.533 Y117.35
G0 X112.69 Y117.129
G0 X112.318 Y116.199
G0 X112.129 Y112.669
G0 X112.687 Y111.87
G0 X112.544 Y111.659
G0 X112.528 Y111.68
G1 F2700 E16.03033
G1 F1200 X112.388 Y111.539 E16.03364
G0 F6000 X112.599 Y106.684
G0 X112.623 Y106.684
G1 F1200 X112.555 Y106.615 E16.03525
G0 F6000 X112.566 Y106.636
G0 X111.829 Y106.82
G0 X111.257 Y106.828
